;FLAVOR:Marlin
;TIME:5890
;Filament used: 4.85891m
;Layer height: 0.2
;MINX:75.576
;MINY:70.967
;MINZ:0.2
;MAXX:141.215
;MAXY:129.652
;MAXZ:45.2
;Generated with Cura_SteamEngine 5.4.0
M140 S50
M105
M190 S50
M104 S200
M105
M109 S200
M82 ;absolute extrusion mode
M201 X500.00 Y500.00 Z100.00 E5000.00 ;Setup machine max acceleration
M203 X500.00 Y500.00 Z10.00 E50.00 ;Setup machine max feedrate
M204 P500.00 R1000.00 T500.00 ;Setup Print/Retract/Travel acceleration
M205 X8.00 Y8.00 Z0.40 E5.00 ;Setup Jerk
M220 S100 ;Reset Feedrate
M221 S100 ;Reset Flowrate

G28 ;Home

G92 E0 ;Reset Extruder
G1 Z2.0 F3000 ;Move Z Axis up
G1 X10.1 Y20 Z0.28 F5000.0 ;Move to start position
G1 X10.1 Y200.0 Z0.28 F1500.0 E15 ;Draw the first line
G1 X10.4 Y200.0 Z0.28 F5000.0 ;Move to side a little
G1 X10.4 Y20 Z0.28 F1500.0 E30 ;Draw the second line
G92 E0 ;Reset Extruder
G1 Z2.0 F3000 ;Move Z Axis up

G92 E0
G92 E0
G1 F2700 E-5
;LAYER_COUNT:226
;LAYER:0
M107
G0 F6000 X93.451 Y73.404 Z0.2
;TYPE:SKIRT
G1 F2700 E0
G1 F1200 X94.989 Y72.141 E0.06619
G1 X97.058 Y71.176 E0.14212
G1 X99.157 Y70.967 E0.21228
G1 X101.437 Y71.226 E0.2886
G1 X103.348 Y72.172 E0.35952
G1 X138.808 Y99.124 E1.84094
G1 X140.04 Y100.627 E1.90557
G1 X141.006 Y102.698 E1.98158
G1 X141.215 Y104.791 E2.05154
G1 X140.956 Y107.071 E2.12786
G1 X140.01 Y108.982 E2.19878
G1 X133.027 Y118.168 E2.58257
G1 X131.524 Y119.4 E2.6472
G1 X129.453 Y120.366 E2.72321
G1 X127.315 Y120.575 E2.79466
G1 X125.279 Y120.351 E2.86278
G1 X124.438 Y120.01 E2.89297
G1 X122.73 Y119.05 E2.95814
G1 X112.909 Y111.589 E3.36835
G1 X101.008 Y127.245 E4.02244
G1 X99.505 Y128.477 E4.08708
G1 X97.434 Y129.443 E4.16309
G1 X95.341 Y129.652 E4.23305
G1 X93.065 Y129.393 E4.30923
G1 X91.14 Y128.44 E4.38068
G1 X77.98 Y118.436 E4.93049
G1 X76.743 Y116.925 E4.99544
G1 X75.785 Y114.862 E5.07109
G1 X75.576 Y112.712 E5.14294
G1 X75.792 Y110.74 E5.20892
G1 X76.275 Y109.586 E5.25053
G1 X77.148 Y108.076 E5.30854
G1 X79.373 Y105.145 E5.43093
G1 X80.915 Y103.889 E5.49708
G1 X82.982 Y102.927 E5.57291
G1 X85.133 Y102.718 E5.64479
G1 X87.105 Y102.934 E5.71077
G1 X88.259 Y103.417 E5.75238
G1 X89.769 Y104.29 E5.81039
G1 X91.564 Y105.653 E5.88536
G1 X96.523 Y99.128 E6.15794
G1 X87.721 Y92.444 E6.52554
G1 X86.473 Y90.913 E6.59124
G1 X85.511 Y88.845 E6.6671
G1 X85.302 Y86.697 E6.73888
G1 X85.502 Y84.845 E6.80083
G1 X85.799 Y83.927 E6.83292
G1 X86.842 Y82.111 E6.90258
G1 X93.451 Y73.404 E7.26615
G0 F6000 X93.743 Y73.682
G1 F1200 X95.203 Y72.483 E7.32898
G1 X97.167 Y71.567 E7.40106
G1 X99.156 Y71.369 E7.46754
G1 X101.322 Y71.615 E7.54005
G1 X103.137 Y72.514 E7.60742
G1 X138.53 Y99.414 E9.086
G1 X139.699 Y100.841 E9.14736
G1 X140.615 Y102.804 E9.21941
G1 X140.813 Y104.79 E9.28579
G1 X140.567 Y106.956 E9.35829
G1 X139.668 Y108.771 E9.42566
G1 X132.737 Y117.89 E9.80662
G1 X131.31 Y119.059 E9.86798
G1 X129.347 Y119.975 E9.94003
G1 X127.32 Y120.173 E10.00777
G1 X125.376 Y119.959 E10.07281
G1 X124.633 Y119.661 E10.09944
G1 X122.972 Y118.731 E10.16275
G1 X112.833 Y111.029 E10.58624
G1 X100.718 Y126.967 E11.25211
G1 X99.291 Y128.136 E11.31346
G1 X97.328 Y129.052 E11.38551
G1 X95.342 Y129.25 E11.45189
G1 X93.179 Y129.004 E11.5243
G1 X91.353 Y128.1 E11.59206
G1 X78.261 Y118.147 E12.13905
G1 X77.084 Y116.711 E12.20081
G1 X76.176 Y114.755 E12.27253
G1 X75.978 Y112.717 E12.34064
G1 X76.184 Y110.839 E12.40347
G1 X76.622 Y109.786 E12.4414
G1 X77.467 Y108.318 E12.49774
G1 X79.664 Y105.424 E12.61859
G1 X81.128 Y104.231 E12.6814
G1 X83.09 Y103.318 E12.75338
G1 X85.128 Y103.12 E12.82148
G1 X87.006 Y103.326 E12.88432
G1 X88.059 Y103.764 E12.92225
G1 X89.527 Y104.609 E12.97859
G1 X91.64 Y106.214 E13.06684
G1 X97.083 Y99.051 E13.36606
G1 X88 Y92.153 E13.74541
G1 X86.815 Y90.7 E13.80777
G1 X85.902 Y88.737 E13.87978
G1 X85.704 Y86.701 E13.94781
G1 X85.896 Y84.929 E14.0071
G1 X86.168 Y84.089 E14.03646
G1 X87.161 Y82.353 E14.10298
G1 X93.743 Y73.682 E14.46506
G0 F6000 X94.035 Y73.96
G1 F1200 X95.417 Y72.825 E14.52454
G1 X97.276 Y71.958 E14.59276
G1 X99.155 Y71.771 E14.65557
G1 X101.208 Y72.004 E14.72429
G1 X102.925 Y72.854 E14.78801
G1 X138.252 Y99.704 E16.26384
G1 X139.356 Y101.052 E16.3218
G1 X140.224 Y102.913 E16.3901
G1 X140.411 Y104.789 E16.4528
G1 X140.178 Y106.842 E16.52152
G1 X139.328 Y108.559 E16.58524
G1 X132.447 Y117.612 E16.96345
G1 X131.099 Y118.716 E17.02141
G1 X129.238 Y119.584 E17.0897
G1 X127.325 Y119.771 E17.15363
G1 X125.473 Y119.567 E17.2156
G1 X124.828 Y119.312 E17.23867
G1 X123.214 Y118.412 E17.30014
G1 X112.757 Y110.469 E17.7369
G1 X100.428 Y126.689 E18.41453
G1 X99.08 Y127.793 E18.47248
G1 X97.219 Y128.661 E18.54078
G1 X95.343 Y128.848 E18.60349
G1 X93.293 Y128.615 E18.67211
G1 X91.566 Y127.76 E18.73621
G1 X78.542 Y117.858 E19.28037
G1 X77.427 Y116.498 E19.33886
G1 X76.567 Y114.647 E19.40674
G1 X76.38 Y112.722 E19.47107
G1 X76.576 Y110.938 E19.53076
G1 X76.969 Y109.985 E19.56505
G1 X77.786 Y108.56 E19.61968
G1 X79.955 Y105.703 E19.73899
G1 X81.341 Y104.573 E19.79847
G1 X83.198 Y103.709 E19.86659
G1 X85.123 Y103.522 E19.93092
G1 X86.907 Y103.718 E19.99061
G1 X87.86 Y104.111 E20.0249
G1 X89.285 Y104.928 E20.07953
G1 X91.716 Y106.775 E20.18107
G1 X97.644 Y98.974 E20.50695
G1 X88.279 Y91.862 E20.89807
G1 X87.157 Y90.487 E20.9571
G1 X86.293 Y88.629 E21.02525
G1 X86.106 Y86.705 E21.08954
G1 X86.29 Y85.013 E21.14615
G1 X86.536 Y84.252 E21.17275
G1 X87.48 Y82.595 E21.23618
G1 X94.035 Y73.96 E21.59676
G0 F6000 X94.327 Y74.238
G1 F1200 X95.631 Y73.167 E21.65288
G1 X97.385 Y72.349 E21.71725
G1 X99.154 Y72.173 E21.77638
G1 X101.093 Y72.393 E21.84129
G1 X102.714 Y73.196 E21.90145
G1 X137.971 Y99.992 E23.37435
G1 X139.014 Y101.266 E23.42911
G1 X139.833 Y103.022 E23.49356
G1 X140.009 Y104.788 E23.55258
G1 X139.789 Y106.727 E23.61749
G1 X138.986 Y108.348 E23.67766
G1 X132.159 Y117.331 E24.05292
G1 X130.885 Y118.374 E24.10769
G1 X129.129 Y119.193 E24.17213
G1 X127.33 Y119.369 E24.23225
G1 X125.569 Y119.175 E24.29118
G1 X125.022 Y118.962 E24.3107
G1 X123.456 Y118.093 E24.37027
G1 X112.681 Y109.908 E24.82032
G1 X100.14 Y126.408 E25.50964
G1 X98.866 Y127.451 E25.5644
G1 X97.11 Y128.27 E25.62885
G1 X95.344 Y128.446 E25.68787
G1 X93.407 Y128.226 E25.75271
G1 X91.779 Y127.42 E25.81313
G1 X78.82 Y117.568 E26.35457
G1 X77.771 Y116.287 E26.40964
G1 X76.958 Y114.539 E26.47375
G1 X76.782 Y112.727 E26.53431
G1 X76.968 Y111.035 E26.59092
G1 X77.316 Y110.183 E26.62153
G1 X78.105 Y108.802 E26.67443
G1 X80.246 Y105.982 E26.79219
G1 X81.554 Y104.915 E26.84834
G1 X83.306 Y104.1 E26.91261
G1 X85.118 Y103.924 E26.97316
G1 X86.81 Y104.11 E27.02977
G1 X87.662 Y104.458 E27.06038
G1 X89.043 Y105.247 E27.11328
G1 X91.792 Y107.335 E27.2281
G1 X98.205 Y98.897 E27.5806
G1 X88.558 Y91.571 E27.9835
G1 X87.499 Y90.274 E28.03919
G1 X86.684 Y88.521 E28.10349
G1 X86.508 Y86.709 E28.16404
G1 X86.684 Y85.097 E28.21797
G1 X86.905 Y84.412 E28.24191
G1 X87.799 Y82.837 E28.30215
G1 X94.327 Y74.238 E28.66123
G0 F6000 X94.619 Y74.516
G1 F1200 X95.845 Y73.509 E28.714
G1 X97.494 Y72.74 E28.77451
G1 X99.153 Y72.575 E28.82997
G1 X100.979 Y72.782 E28.89109
G1 X102.502 Y73.536 E28.94761
G1 X137.69 Y100.281 E30.41765
G1 X138.674 Y101.482 E30.46929
G1 X139.442 Y103.128 E30.5297
G1 X139.607 Y104.787 E30.58516
G1 X139.4 Y106.613 E30.64628
G1 X138.646 Y108.136 E30.7028
G1 X131.87 Y117.05 E31.07522
G1 X130.669 Y118.034 E31.12686
G1 X129.023 Y118.802 E31.18727
G1 X127.335 Y118.967 E31.24368
G1 X125.664 Y118.783 E31.29959
G1 X125.215 Y118.612 E31.31557
G1 X123.698 Y117.774 E31.37322
G1 X112.605 Y109.348 E31.83654
G1 X99.851 Y126.127 E32.53753
G1 X98.65 Y127.111 E32.58917
G1 X97.004 Y127.879 E32.64958
G1 X95.345 Y128.044 E32.70503
G1 X93.521 Y127.837 E32.76609
G1 X91.992 Y127.08 E32.82284
G1 X79.101 Y117.28 E33.36142
G1 X78.113 Y116.073 E33.4133
G1 X77.349 Y114.431 E33.47354
G1 X77.184 Y112.732 E33.53031
G1 X77.36 Y111.134 E33.58378
G1 X77.664 Y110.381 E33.61079
G1 X78.424 Y109.044 E33.66194
G1 X80.537 Y106.261 E33.77816
G1 X81.767 Y105.257 E33.83097
G1 X83.414 Y104.491 E33.89138
G1 X85.113 Y104.326 E33.94816
G1 X86.711 Y104.502 E34.00163
G1 X87.464 Y104.806 E34.02864
G1 X88.801 Y105.566 E34.07979
G1 X91.868 Y107.896 E34.2079
G1 X98.765 Y98.82 E34.58704
G1 X88.837 Y91.28 E35.00168
G1 X87.841 Y90.061 E35.05404
G1 X87.075 Y88.413 E35.11448
G1 X86.91 Y86.714 E35.17125
G1 X87.078 Y85.181 E35.22255
G1 X87.274 Y84.572 E35.24383
G1 X88.118 Y83.079 E35.30087
G1 X94.619 Y74.516 E35.65845
G0 F6000 X94.911 Y74.794
G1 F1200 X96.059 Y73.851 E35.70787
G1 X97.603 Y73.131 E35.76453
G1 X99.152 Y72.977 E35.8163
G1 X100.864 Y73.171 E35.87361
G1 X102.291 Y73.878 E35.92658
G1 X137.412 Y100.571 E37.3938
G1 X138.331 Y101.693 E37.44204
G1 X139.051 Y103.237 E37.4987
G1 X139.205 Y104.786 E37.55047
G1 X139.011 Y106.498 E37.60778
G1 X138.304 Y107.925 E37.66075
G1 X131.58 Y116.772 E38.03034
G1 X130.458 Y117.691 E38.07858
G1 X128.914 Y118.411 E38.13524
G1 X127.34 Y118.565 E38.18784
G1 X125.757 Y118.39 E38.24082
G1 X125.408 Y118.261 E38.25319
G1 X123.94 Y117.455 E38.30889
G1 X112.529 Y108.787 E38.78551
G1 X99.561 Y125.849 E39.4983
G1 X98.439 Y126.768 E39.54654
G1 X96.895 Y127.488 E39.6032
G1 X95.346 Y127.642 E39.65497
G1 X93.635 Y127.448 E39.71225
G1 X92.205 Y126.74 E39.76532
G1 X79.382 Y116.992 E40.30106
G1 X78.455 Y115.859 E40.34975
G1 X77.74 Y114.323 E40.4061
G1 X77.586 Y112.737 E40.4591
G1 X77.752 Y111.229 E40.50956
G1 X78.012 Y110.578 E40.53287
G1 X78.743 Y109.286 E40.58224
G1 X80.828 Y106.54 E40.69692
G1 X81.98 Y105.599 E40.74639
G1 X83.522 Y104.882 E40.80295
G1 X85.108 Y104.728 E40.85595
G1 X86.616 Y104.894 E40.90641
G1 X87.267 Y105.154 E40.92973
G1 X88.559 Y105.885 E40.9791
G1 X91.944 Y108.456 E41.12048
G1 X99.326 Y98.743 E41.52625
G1 X89.116 Y90.989 E41.95266
G1 X88.183 Y89.848 E42.00169
G1 X87.466 Y88.305 E42.05828
G1 X87.312 Y86.719 E42.11128
G1 X87.472 Y85.263 E42.15999
G1 X87.643 Y84.73 E42.17861
G1 X88.437 Y83.321 E42.2324
G1 X94.911 Y74.794 E42.58849
G0 F6000 X95.203 Y75.072
G1 F1200 X96.273 Y74.193 E42.63455
G1 X97.712 Y73.522 E42.68736
G1 X99.151 Y73.379 E42.73546
G1 X100.75 Y73.56 E42.78898
G1 X102.079 Y74.218 E42.8383
G1 X137.131 Y100.859 E44.30265
G1 X137.989 Y101.907 E44.3477
G1 X138.66 Y103.346 E44.40051
G1 X138.803 Y104.785 E44.4486
G1 X138.622 Y106.384 E44.50213
G1 X137.964 Y107.713 E44.55145
G1 X131.292 Y116.491 E44.91817
G1 X130.244 Y117.349 E44.96322
G1 X128.805 Y118.02 E45.01603
G1 X127.345 Y118.163 E45.06482
G1 X125.849 Y117.997 E45.11488
G1 X125.6 Y117.91 E45.12366
G1 X124.182 Y117.136 E45.17739
G1 X112.453 Y108.227 E45.66727
G1 X99.273 Y125.568 E46.39172
G1 X98.225 Y126.426 E46.43677
G1 X96.786 Y127.097 E46.48958
G1 X95.347 Y127.24 E46.53767
G1 X93.749 Y127.059 E46.59116
G1 X92.418 Y126.4 E46.64056
G1 X79.663 Y116.703 E47.17347
G1 X78.797 Y115.646 E47.21892
G1 X78.131 Y114.215 E47.27142
G1 X77.988 Y112.742 E47.32064
G1 X78.144 Y111.325 E47.36806
G1 X78.361 Y110.774 E47.38775
G1 X79.062 Y109.528 E47.4353
G1 X81.119 Y106.819 E47.54844
G1 X82.193 Y105.941 E47.59457
G1 X83.63 Y105.273 E47.64728
G1 X85.103 Y105.13 E47.6965
G1 X86.52 Y105.286 E47.74392
G1 X87.071 Y105.503 E47.76361
G1 X88.317 Y106.204 E47.81116
G1 X92.02 Y109.017 E47.96583
G1 X99.886 Y98.666 E48.39824
G1 X89.395 Y90.698 E48.8364
G1 X88.525 Y89.635 E48.88209
G1 X87.857 Y88.197 E48.93482
G1 X87.714 Y86.724 E48.98405
G1 X87.866 Y85.345 E49.03019
G1 X88.011 Y84.892 E49.04601
G1 X88.756 Y83.563 E49.09668
G1 X95.203 Y75.072 E49.45128
G0 F6000 X95.495 Y75.35
G1 F1200 X96.487 Y74.535 E49.49398
G1 X97.821 Y73.913 E49.54293
G1 X99.15 Y73.781 E49.58735
G1 X100.633 Y73.949 E49.63699
G1 X101.87 Y74.561 E49.6829
G1 X136.85 Y101.147 E51.14423
G1 X137.647 Y102.121 E51.18609
G1 X138.269 Y103.455 E51.23504
G1 X138.401 Y104.784 E51.27946
G1 X138.233 Y106.267 E51.3291
G1 X137.621 Y107.504 E51.37501
G1 X131.004 Y116.21 E51.73871
G1 X130.03 Y117.007 E51.78057
G1 X128.696 Y117.629 E51.82953
G1 X127.35 Y117.761 E51.87451
G1 X125.937 Y117.604 E51.9218
G1 X125.791 Y117.558 E51.92689
G1 X124.424 Y116.817 E51.97861
G1 X112.377 Y107.666 E52.48178
G1 X98.985 Y125.287 E53.21791
G1 X98.011 Y126.084 E53.25977
G1 X96.677 Y126.706 E53.30872
G1 X95.348 Y126.838 E53.35314
G1 X93.863 Y126.67 E53.40285
G1 X92.631 Y126.06 E53.44857
G1 X79.941 Y116.413 E53.97876
G1 X79.14 Y115.435 E54.0208
G1 X78.522 Y114.107 E54.06952
G1 X78.39 Y112.747 E54.11497
G1 X78.536 Y111.42 E54.15937
G1 X78.71 Y110.969 E54.17545
G1 X79.381 Y109.77 E54.22115
G1 X81.41 Y107.098 E54.33274
G1 X82.406 Y106.283 E54.37554
G1 X83.738 Y105.664 E54.42439
G1 X85.098 Y105.532 E54.46984
G1 X86.425 Y105.678 E54.51424
G1 X86.876 Y105.852 E54.53032
G1 X88.075 Y106.523 E54.57602
G1 X92.096 Y109.577 E54.74396
G1 X100.447 Y98.589 E55.20299
G1 X89.674 Y90.407 E55.65293
G1 X88.867 Y89.421 E55.69531
G1 X88.248 Y88.089 E55.74416
G1 X88.116 Y86.729 E55.78961
G1 X88.26 Y85.427 E55.83318
G1 X88.38 Y85.051 E55.8463
G1 X89.075 Y83.805 E55.89376
G1 X95.495 Y75.35 E56.24685
G0 F6000 X95.786 Y75.628
G1 F1200 X96.701 Y74.877 E56.28622
G1 X97.93 Y74.304 E56.33132
G1 X99.149 Y74.183 E56.37207
G1 X100.518 Y74.338 E56.41789
G1 X101.659 Y74.903 E56.46024
G1 X136.569 Y101.436 E57.91865
G1 X137.305 Y102.334 E57.95727
G1 X137.878 Y103.564 E58.0024
G1 X137.999 Y104.783 E58.04315
G1 X137.844 Y106.152 E58.08897
G1 X137.279 Y107.293 E58.13132
G1 X130.715 Y115.929 E58.4921
G1 X129.817 Y116.665 E58.53072
G1 X128.587 Y117.238 E58.57585
G1 X127.355 Y117.359 E58.61703
G1 X125.981 Y117.206 E58.66301
G1 X124.666 Y116.498 E58.71268
G1 X112.301 Y107.106 E59.22913
G1 X98.696 Y125.006 E59.97693
G1 X97.798 Y125.742 E60.01555
G1 X96.568 Y126.315 E60.06068
G1 X95.349 Y126.436 E60.10142
G1 X93.98 Y126.281 E60.14725
G1 X92.84 Y125.717 E60.18955
G1 X80.222 Y116.125 E60.71672
G1 X79.482 Y115.221 E60.75558
G1 X78.913 Y113.999 E60.80041
G1 X78.792 Y112.752 E60.84208
G1 X78.928 Y111.515 E60.88347
G1 X79.06 Y111.163 E60.89598
G1 X79.7 Y110.012 E60.93978
G1 X81.701 Y107.377 E61.04983
G1 X82.62 Y106.625 E61.08932
G1 X83.846 Y106.055 E61.13429
G1 X85.093 Y105.934 E61.17596
G1 X86.33 Y106.07 E61.21735
G1 X86.682 Y106.202 E61.22985
G1 X87.833 Y106.842 E61.27366
G1 X92.172 Y110.138 E61.45489
G1 X101.007 Y98.512 E61.94056
G1 X89.953 Y90.116 E62.40224
G1 X89.209 Y89.207 E62.44131
G1 X88.639 Y87.981 E62.48628
G1 X88.518 Y86.734 E62.52795
G1 X88.654 Y85.509 E62.56894
G1 X88.749 Y85.212 E62.57931
G1 X89.394 Y84.047 E62.6236
G1 X95.786 Y75.628 E62.97518
G0 F6000 X96.078 Y75.906
G1 F1200 X96.917 Y75.217 E63.01129
G1 X98.036 Y74.695 E63.05236
G1 X99.148 Y74.585 E63.08953
G1 X100.401 Y74.727 E63.13147
G1 X101.45 Y75.246 E63.1704
G1 X136.288 Y101.724 E64.6258
G1 X136.965 Y102.551 E64.66134
G1 X137.487 Y103.67 E64.70241
G1 X137.597 Y104.782 E64.73958
G1 X137.455 Y106.035 E64.78152
G1 X136.936 Y107.084 E64.82045
G1 X130.427 Y115.648 E65.17822
G1 X129.6 Y116.325 E65.21377
G1 X128.481 Y116.847 E65.25483
G1 X127.36 Y116.957 E65.2923
G1 X126.102 Y116.817 E65.3344
G1 X124.908 Y116.179 E65.37942
G1 X112.225 Y106.545 E65.90916
G1 X98.408 Y124.725 E66.66865
G1 X97.581 Y125.402 E66.70419
G1 X96.462 Y125.924 E66.74526
G1 X95.35 Y126.034 E66.78243
G1 X94.095 Y125.892 E66.82443
G1 X93.051 Y125.375 E66.86318
G1 X80.503 Y115.837 E67.38741
G1 X79.824 Y115.007 E67.42308
G1 X79.304 Y113.891 E67.46403
G1 X79.194 Y112.757 E67.50192
G1 X79.321 Y111.607 E67.54041
G1 X79.41 Y111.356 E67.54926
G1 X80.019 Y110.254 E67.59114
G1 X81.992 Y107.656 E67.69964
G1 X82.834 Y106.967 E67.73583
G1 X83.954 Y106.446 E67.77691
G1 X85.088 Y106.336 E67.81481
G1 X86.238 Y106.463 E67.85329
G1 X86.489 Y106.552 E67.86215
G1 X87.591 Y107.161 E67.90402
G1 X92.248 Y110.698 E68.09853
G1 X101.567 Y98.435 E68.6108
G1 X90.232 Y89.825 E69.08424
G1 X89.551 Y88.993 E69.12
G1 X89.03 Y87.873 E69.16108
G1 X88.92 Y86.739 E69.19898
G1 X89.052 Y85.553 E69.23867
G1 X89.099 Y85.405 E69.24383
G1 X89.713 Y84.289 E69.2862
G1 X96.078 Y75.906 E69.63628
G0 F6000 X96.37 Y76.184
G1 F1200 X97.131 Y75.559 E69.66903
G1 X98.145 Y75.086 E69.70625
G1 X99.147 Y74.987 E69.73973
G1 X100.286 Y75.116 E69.77786
G1 X101.239 Y75.588 E69.81323
G1 X136.007 Y102.013 E71.26571
G1 X136.625 Y102.767 E71.29814
G1 X137.096 Y103.776 E71.33517
