;FLAVOR:Marlin
;TIME:8357
;Filament used: 7.24114m
;Layer height: 0.2
;MINX:64.2
;MINY:85.2
;MINZ:0.2
;MAXX:155.8
;MAXY:134.8
;MAXZ:24
;Generated with Cura_SteamEngine 5.4.0
M140 S50
M105
M190 S50
M104 S200
M105
M109 S200
M82 ;absolute extrusion mode
M201 X500.00 Y500.00 Z100.00 E5000.00 ;Setup machine max acceleration
M203 X500.00 Y500.00 Z10.00 E50.00 ;Setup machine max feedrate
M204 P500.00 R1000.00 T500.00 ;Setup Print/Retract/Travel acceleration
M205 X8.00 Y8.00 Z0.40 E5.00 ;Setup Jerk
M220 S100 ;Reset Feedrate
M221 S100 ;Reset Flowrate

G28 ;Home

G92 E0 ;Reset Extruder
G1 Z2.0 F3000 ;Move Z Axis up
G1 X10.1 Y20 Z0.28 F5000.0 ;Move to start position
G1 X10.1 Y200.0 Z0.28 F1500.0 E15 ;Draw the first line
G1 X10.4 Y200.0 Z0.28 F5000.0 ;Move to side a little
G1 X10.4 Y20 Z0.28 F1500.0 E30 ;Draw the second line
G92 E0 ;Reset Extruder
G1 Z2.0 F3000 ;Move Z Axis up

G92 E0
G92 E0
G1 F2700 E-5
;LAYER_COUNT:120
;LAYER:0
M107
G0 F6000 X67.28 Y86.764 Z0.2
;TYPE:SKIRT
G1 F2700 E0
G1 F1200 X69.303 Y85.557 E0.07835
G1 X71.021 Y85.275 E0.13626
G1 X148.853 Y85.2 E2.72496
G1 X150.749 Y85.666 E2.7899
G1 X152.777 Y86.719 E2.8659
G1 X154.236 Y88.28 E2.93697
G1 X155.443 Y90.303 E3.01532
G1 X155.725 Y92.021 E3.07322
G1 X155.8 Y127.853 E4.265
G1 X155.334 Y129.749 E4.32994
G1 X154.281 Y131.777 E4.40594
G1 X152.72 Y133.236 E4.47701
G1 X150.697 Y134.443 E4.55536
G1 X148.979 Y134.725 E4.61327
G1 X71.147 Y134.8 E7.20197
G1 X69.251 Y134.334 E7.26691
G1 X67.223 Y133.281 E7.34291
G1 X65.764 Y131.72 E7.41398
G1 X64.557 Y129.697 E7.49233
G1 X64.275 Y127.979 E7.55023
G1 X64.2 Y92.147 E8.74201
G1 X64.666 Y90.251 E8.80695
G1 X65.719 Y88.223 E8.88295
G1 X67.28 Y86.764 E8.95402
G0 F6000 X67.519 Y87.088
G1 F1200 X69.443 Y85.94 E9.02854
G1 X71.086 Y85.67 E9.08392
G1 X148.807 Y85.6 E11.66893
G1 X150.606 Y86.042 E11.73054
G1 X152.532 Y87.042 E11.80272
G1 X153.912 Y88.519 E11.86995
G1 X155.06 Y90.443 E11.94447
G1 X155.33 Y92.086 E11.99985
G1 X155.4 Y127.807 E13.18794
G1 X154.958 Y129.606 E13.24955
G1 X153.958 Y131.532 E13.32173
G1 X152.481 Y132.912 E13.38896
G1 X150.557 Y134.06 E13.46348
G1 X148.914 Y134.33 E13.51886
G1 X71.193 Y134.4 E16.10387
G1 X69.394 Y133.958 E16.16549
G1 X67.468 Y132.958 E16.23767
G1 X66.088 Y131.481 E16.3049
G1 X64.94 Y129.557 E16.37942
G1 X64.67 Y127.914 E16.4348
G1 X64.6 Y92.193 E17.62288
G1 X65.042 Y90.394 E17.6845
G1 X66.042 Y88.468 E17.75668
G1 X67.519 Y87.088 E17.82391
G0 F6000 X67.761 Y87.409
G1 F1200 X69.581 Y86.323 E17.8944
G1 X71.151 Y86.065 E17.94732
G1 X148.76 Y86 E20.5286
G1 X150.464 Y86.419 E20.58697
G1 X152.287 Y87.365 E20.65528
G1 X153.591 Y88.761 E20.71881
G1 X154.677 Y90.581 E20.78931
G1 X154.935 Y92.151 E20.84222
G1 X155 Y127.76 E22.02659
G1 X154.581 Y129.464 E22.08495
G1 X153.635 Y131.287 E22.15326
G1 X152.239 Y132.591 E22.2168
G1 X150.419 Y133.677 E22.28729
G1 X148.849 Y133.935 E22.34021
G1 X71.24 Y134 E24.92149
G1 X69.536 Y133.581 E24.97986
G1 X67.713 Y132.635 E25.04817
G1 X66.409 Y131.239 E25.11171
G1 X65.323 Y129.419 E25.1822
G1 X65.065 Y127.849 E25.23512
G1 X65 Y92.24 E26.41948
G1 X65.419 Y90.536 E26.47784
G1 X66.365 Y88.713 E26.54615
G1 X67.761 Y87.409 E26.60969
G0 F6000 X68.003 Y87.73
G1 F1200 X69.719 Y86.706 E26.67615
G1 X71.216 Y86.46 E26.72661
G1 X148.714 Y86.4 E29.30421
G1 X150.321 Y86.795 E29.35925
G1 X152.042 Y87.688 E29.42373
G1 X153.27 Y89.003 E29.48358
G1 X154.294 Y90.719 E29.55004
G1 X154.54 Y92.216 E29.6005
G1 X154.6 Y127.714 E30.78117
G1 X154.205 Y129.321 E30.83621
G1 X153.312 Y131.042 E30.9007
G1 X151.997 Y132.27 E30.96054
G1 X150.281 Y133.294 E31.027
G1 X148.784 Y133.54 E31.07746
G1 X71.286 Y133.6 E33.65505
G1 X69.679 Y133.205 E33.71009
G1 X67.958 Y132.312 E33.77458
G1 X66.73 Y130.997 E33.83442
G1 X65.706 Y129.281 E33.90089
G1 X65.46 Y127.784 E33.95135
G1 X65.4 Y92.286 E35.13202
G1 X65.795 Y90.679 E35.18706
G1 X66.688 Y88.958 E35.25154
G1 X68.003 Y87.73 E35.31139
G0 F6000 X68.245 Y88.051
G1 F1200 X69.857 Y87.089 E35.37382
G1 X71.281 Y86.855 E35.42182
G1 X148.668 Y86.8 E37.99572
G1 X150.178 Y87.171 E38.04744
G1 X151.797 Y88.011 E38.10811
G1 X152.949 Y89.245 E38.16425
G1 X153.911 Y90.857 E38.22669
G1 X154.145 Y92.281 E38.27469
G1 X154.2 Y127.668 E39.45167
G1 X153.829 Y129.178 E39.50338
G1 X152.989 Y130.797 E39.56405
G1 X151.755 Y131.949 E39.6202
G1 X150.143 Y132.911 E39.68263
G1 X148.719 Y133.145 E39.73063
G1 X71.332 Y133.2 E42.30453
G1 X69.822 Y132.829 E42.35625
G1 X68.203 Y131.989 E42.41691
G1 X67.051 Y130.755 E42.47306
G1 X66.089 Y129.143 E42.5355
G1 X65.855 Y127.719 E42.5835
G1 X65.8 Y92.332 E43.76047
G1 X66.171 Y90.822 E43.81219
G1 X67.011 Y89.203 E43.87285
G1 X68.245 Y88.051 E43.929
G0 F6000 X68.487 Y88.372
G1 F1200 X69.995 Y87.472 E43.98741
G1 X71.346 Y87.25 E44.03295
G1 X148.621 Y87.2 E46.60313
G1 X150.036 Y87.548 E46.65159
G1 X151.552 Y88.334 E46.70839
G1 X152.628 Y89.487 E46.76084
G1 X153.528 Y90.995 E46.81925
G1 X153.75 Y92.346 E46.86479
G1 X153.8 Y127.621 E48.03804
G1 X153.452 Y129.036 E48.08651
G1 X152.666 Y130.552 E48.1433
G1 X151.513 Y131.628 E48.19576
G1 X150.005 Y132.528 E48.25417
G1 X148.654 Y132.75 E48.29971
G1 X71.379 Y132.8 E50.86988
G1 X69.964 Y132.452 E50.91835
G1 X68.448 Y131.666 E50.97514
G1 X67.372 Y130.513 E51.0276
G1 X66.472 Y129.005 E51.08601
G1 X66.25 Y127.654 E51.13155
G1 X66.2 Y92.379 E52.3048
G1 X66.548 Y90.964 E52.35326
G1 X67.334 Y89.448 E52.41006
G1 X68.487 Y88.372 E52.46251
G0 F6000 X68.729 Y88.693
G1 F1200 X70.133 Y87.855 E52.5169
G1 X71.411 Y87.645 E52.55997
G1 X148.575 Y87.6 E55.12646
G1 X149.893 Y87.924 E55.1716
G1 X151.307 Y88.657 E55.22457
G1 X152.307 Y89.729 E55.27333
G1 X153.145 Y91.133 E55.32772
G1 X153.355 Y92.411 E55.37079
G1 X153.4 Y127.575 E56.54035
G1 X153.076 Y128.893 E56.5855
G1 X152.343 Y130.307 E56.63847
G1 X151.271 Y131.307 E56.68723
G1 X149.867 Y132.145 E56.74161
G1 X148.589 Y132.355 E56.78469
G1 X71.425 Y132.4 E59.35117
G1 X70.107 Y132.076 E59.39632
G1 X68.693 Y131.343 E59.44929
G1 X67.693 Y130.271 E59.49805
G1 X66.855 Y128.867 E59.55243
G1 X66.645 Y127.589 E59.59551
G1 X66.6 Y92.425 E60.76507
G1 X66.924 Y91.107 E60.81021
G1 X67.657 Y89.693 E60.86318
G1 X68.729 Y88.693 E60.91194
G0 F6000 X68.974 Y89.012
G1 F1200 X70.271 Y88.238 E60.96218
G1 X71.476 Y88.04 E61.00279
G1 X148.529 Y88 E63.56559
G1 X149.75 Y88.3 E63.60741
G1 X151.06 Y88.979 E63.65648
G1 X151.988 Y89.974 E63.70174
G1 X152.762 Y91.271 E63.75197
G1 X152.96 Y92.476 E63.79259
G1 X153 Y127.529 E64.95846
G1 X152.7 Y128.75 E65.00027
G1 X152.021 Y130.06 E65.04935
G1 X151.026 Y130.988 E65.0946
G1 X149.729 Y131.762 E65.14484
G1 X148.524 Y131.96 E65.18546
G1 X71.471 Y132 E67.74825
G1 X70.25 Y131.7 E67.79007
G1 X68.94 Y131.021 E67.83914
G1 X68.012 Y130.026 E67.8844
G1 X67.238 Y128.729 E67.93463
G1 X67.04 Y127.524 E67.97525
G1 X67 Y92.471 E69.14112
G1 X67.3 Y91.25 E69.18293
G1 X67.979 Y89.94 E69.23201
G1 X68.974 Y89.012 E69.27726
G0 F6000 X69.216 Y89.334
G1 F1200 X70.411 Y88.621 E69.32355
G1 X71.541 Y88.435 E69.36164
G1 X148.483 Y88.4 E71.92074
G1 X149.607 Y88.676 E71.95923
G1 X150.813 Y89.301 E72.00441
G1 X151.666 Y90.216 E72.04602
G1 X152.379 Y91.411 E72.0923
G1 X152.565 Y92.541 E72.13039
G1 X152.6 Y127.483 E73.29257
G1 X152.324 Y128.607 E73.33106
G1 X151.699 Y129.813 E73.37624
G1 X150.784 Y130.666 E73.41785
G1 X149.589 Y131.379 E73.46413
G1 X148.459 Y131.565 E73.50222
G1 X71.517 Y131.6 E76.06132
G1 X70.393 Y131.324 E76.09982
G1 X69.187 Y130.699 E76.14499
G1 X68.334 Y129.784 E76.1866
G1 X67.621 Y128.589 E76.23288
G1 X67.435 Y127.459 E76.27097
G1 X67.4 Y92.517 E77.43315
G1 X67.676 Y91.393 E77.47164
G1 X68.301 Y90.187 E77.51682
G1 X69.216 Y89.334 E77.55843
G0 F6000 X69.458 Y89.656
G1 F1200 X70.551 Y89.004 E77.60076
G1 X71.606 Y88.83 E77.63632
G1 X148.436 Y88.8 E80.1917
G1 X149.465 Y89.053 E80.22694
G1 X150.566 Y89.623 E80.26818
G1 X151.344 Y90.458 E80.30614
G1 X151.996 Y91.551 E80.34847
G1 X152.17 Y92.606 E80.38403
G1 X152.2 Y127.436 E81.54248
G1 X151.947 Y128.465 E81.57772
G1 X151.377 Y129.566 E81.61896
G1 X150.542 Y130.344 E81.65692
G1 X149.449 Y130.996 E81.69925
G1 X148.394 Y131.17 E81.73481
G1 X71.564 Y131.2 E84.29019
G1 X70.535 Y130.947 E84.32543
G1 X69.434 Y130.377 E84.36667
G1 X68.656 Y129.542 E84.40463
G1 X68.004 Y128.449 E84.44696
G1 X67.83 Y127.394 E84.48252
G1 X67.8 Y92.564 E85.64097
G1 X68.053 Y91.535 E85.67622
G1 X68.623 Y90.434 E85.71745
G1 X69.458 Y89.656 E85.75541
G0 F6000 X69.7 Y89.978
G1 F1200 X70.691 Y89.387 E85.79379
G1 X71.671 Y89.225 E85.82683
G1 X148.39 Y89.2 E88.37851
G1 X149.322 Y89.429 E88.41043
G1 X150.319 Y89.945 E88.44777
G1 X151.022 Y90.7 E88.48208
G1 X151.613 Y91.691 E88.52046
G1 X151.775 Y92.671 E88.5535
G1 X151.8 Y127.39 E89.70825
G1 X151.571 Y128.322 E89.74017
G1 X151.055 Y129.319 E89.77751
G1 X150.3 Y130.022 E89.81182
G1 X149.309 Y130.613 E89.8502
G1 X148.329 Y130.775 E89.88324
G1 X71.61 Y130.8 E92.43492
G1 X70.678 Y130.571 E92.46684
G1 X69.681 Y130.055 E92.50418
G1 X68.978 Y129.3 E92.53849
G1 X68.387 Y128.309 E92.57687
G1 X68.225 Y127.329 E92.60991
G1 X68.2 Y92.61 E93.76467
G1 X68.429 Y91.678 E93.79659
G1 X68.945 Y90.681 E93.83393
G1 X69.7 Y89.978 E93.86824
G0 F6000 X69.939 Y90.302
G1 F1200 X70.831 Y89.77 E93.90278
G1 X71.736 Y89.62 E93.93329
G1 X148.344 Y89.6 E96.48129
G1 X149.179 Y89.805 E96.50988
G1 X150.074 Y90.268 E96.5434
G1 X150.698 Y90.939 E96.57387
G1 X151.23 Y91.831 E96.60842
G1 X151.38 Y92.736 E96.63893
G1 X151.4 Y127.344 E97.79
G1 X151.195 Y128.179 E97.81859
G1 X150.732 Y129.074 E97.85211
G1 X150.061 Y129.698 E97.88258
G1 X149.169 Y130.23 E97.91713
G1 X148.264 Y130.38 E97.94764
G1 X71.656 Y130.4 E100.49563
G1 X70.821 Y130.195 E100.52423
G1 X69.926 Y129.732 E100.55774
G1 X69.302 Y129.061 E100.58822
G1 X68.77 Y128.169 E100.62276
G1 X68.62 Y127.264 E100.65328
G1 X68.6 Y92.656 E101.80434
G1 X68.805 Y91.821 E101.83294
G1 X69.268 Y90.926 E101.86645
G1 X69.939 Y90.302 E101.89693
G0 F6000 X70.178 Y90.626
G1 F1200 X70.971 Y90.153 E101.92764
G1 X71.802 Y90.015 E101.95566
G1 X148.298 Y90 E104.49993
G1 X149.036 Y90.181 E104.5252
G1 X149.829 Y90.591 E104.55489
G1 X150.374 Y91.178 E104.58153
G1 X150.847 Y91.971 E104.61224
G1 X150.985 Y92.802 E104.64026
G1 X151 Y127.298 E105.7876
G1 X150.819 Y128.036 E105.81288
G1 X150.409 Y128.829 E105.84257
G1 X149.822 Y129.374 E105.86921
G1 X149.029 Y129.847 E105.89992
G1 X148.198 Y129.985 E105.92794
G1 X71.702 Y130 E108.47221
G1 X70.964 Y129.819 E108.49748
G1 X70.171 Y129.409 E108.52717
G1 X69.626 Y128.822 E108.55381
G1 X69.153 Y128.029 E108.58452
G1 X69.015 Y127.198 E108.61254
G1 X69 Y92.702 E109.75988
G1 X69.181 Y91.964 E109.78516
G1 X69.591 Y91.171 E109.81485
G1 X70.178 Y90.626 E109.84149
G0 F6000 X70.417 Y90.95
G1 F1200 X71.111 Y90.536 E109.86837
G1 X71.868 Y90.41 E109.89389
G1 X148.248 Y90.4 E112.4343
G1 X148.897 Y90.559 E112.45653
G1 X149.584 Y90.914 E112.48225
G1 X150.05 Y91.417 E112.50505
G1 X150.464 Y92.111 E112.53193
G1 X150.59 Y92.868 E112.55745
G1 X150.6 Y127.248 E113.70094
G1 X150.441 Y127.897 E113.72316
G1 X150.086 Y128.584 E113.74888
G1 X149.583 Y129.05 E113.77169
G1 X148.889 Y129.464 E113.79856
G1 X148.132 Y129.59 E113.82409
G1 X71.752 Y129.6 E116.3645
G1 X71.103 Y129.441 E116.38672
G1 X70.416 Y129.086 E116.41244
G1 X69.95 Y128.583 E116.43525
G1 X69.536 Y127.889 E116.46213
G1 X69.41 Y127.132 E116.48765
G1 X69.4 Y92.752 E117.63113
G1 X69.559 Y92.103 E117.65336
G1 X69.914 Y91.416 E117.67908
G1 X70.417 Y90.95 E117.70188
G0 F6000 X70.656 Y91.274
G1 F1200 X71.251 Y90.919 E117.72493
G1 X71.934 Y90.805 E117.74796
G1 X148.198 Y90.8 E120.28451
G1 X148.758 Y90.937 E120.30369
G1 X149.338 Y91.237 E120.3254
G1 X149.726 Y91.656 E120.3444
G1 X150.081 Y92.251 E120.36744
G1 X150.195 Y92.934 E120.39047
G1 X150.2 Y127.198 E121.5301
G1 X150.063 Y127.758 E121.54927
G1 X149.763 Y128.338 E121.57099
G1 X149.344 Y128.726 E121.58999
G1 X148.749 Y129.081 E121.61303
G1 X148.066 Y129.195 E121.63606
G1 X71.802 Y129.2 E124.17261
G1 X71.242 Y129.063 E124.19179
G1 X70.662 Y128.763 E124.21351
G1 X70.274 Y128.344 E124.2325
G1 X69.919 Y127.749 E124.25554
G1 X69.805 Y127.066 E124.27857
G1 X69.8 Y92.802 E125.4182
G1 X69.937 Y92.242 E125.43737
G1 X70.237 Y91.662 E125.45909
G1 X70.656 Y91.274 E125.47809
G0 F6000 X70.898 Y91.595
G1 F1200 X71.389 Y91.302 E125.4971
G1 X72 Y91.2 E125.51771
G1 X148.148 Y91.2 E128.0504
G1 X148.619 Y91.315 E128.06653
G1 X149.092 Y91.56 E128.08424
G1 X149.405 Y91.898 E128.09956
G1 X149.698 Y92.389 E128.11858
G1 X149.8 Y93 E128.13918
G1 X149.8 Y127.148 E129.27495
G1 X149.685 Y127.619 E129.29108
G1 X149.44 Y128.092 E129.30879
G1 X149.102 Y128.405 E129.32412
G1 X148.611 Y128.698 E129.34313
G1 X148 Y128.8 E129.36374
G1 X71.852 Y128.8 E131.89643
G1 X71.381 Y128.685 E131.91256
G1 X70.908 Y128.44 E131.93027
G1 X70.595 Y128.102 E131.94559
G1 X70.302 Y127.611 E131.96461
G1 X70.2 Y127 E131.98522
G1 X70.2 Y92.852 E133.12098
G1 X70.315 Y92.381 E133.13711
G1 X70.56 Y91.908 E133.15483
G1 X70.898 Y91.595 E133.17015
G0 F6000 X71.14 Y91.916
G1 F1200 X71.527 Y91.685 E133.18514
G1 X72 Y91.6 E133.20112
G1 X148.098 Y91.6 E135.73215
G1 X148.48 Y91.693 E135.74523
G1 X148.846 Y91.883 E135.75894
G1 X149.084 Y92.14 E135.77059
G1 X149.315 Y92.527 E135.78558
G1 X149.4 Y93 E135.80157
G1 X149.4 Y127.098 E136.93567
G1 X149.307 Y127.48 E136.94875
G1 X149.117 Y127.846 E136.96246
G1 X148.86 Y128.084 E136.97411
G1 X148.473 Y128.315 E136.9891
G1 X148 Y128.4 E137.00509
G1 X71.902 Y128.4 E139.53612
G1 X71.52 Y128.307 E139.5492
G1 X71.154 Y128.117 E139.56291
G1 X70.916 Y127.86 E139.57456
G1 X70.685 Y127.473 E139.58955
G1 X70.6 Y127 E139.60554
G1 X70.6 Y92.902 E140.73964
G1 X70.693 Y92.52 E140.75272
G1 X70.883 Y92.154 E140.76643
G1 X71.14 Y91.916 E140.77808
G0 F6000 X71.345 Y92.26
G1 F1200 X71.672 Y92.065 E140.79075
G1 X72 Y92 E140.80187
G1 X148.049 Y92 E143.33127
G1 X148.338 Y92.07 E143.34116
G1 X148.601 Y92.207 E143.35102
G1 X148.74 Y92.345 E143.35753
G1 X148.935 Y92.672 E143.3702
G1 X149 Y93 E143.38132
G1 X149 Y127.049 E144.51379
G1 X148.93 Y127.338 E144.52368
G1 X148.793 Y127.601 E144.53355
G1 X148.655 Y127.74 E144.54006
G1 X148.328 Y127.935 E144.55272
G1 X148 Y128 E144.56385
G1 X71.951 Y128 E147.09325
G1 X71.662 Y127.93 E147.10314
G1 X71.399 Y127.793 E147.113
G1 X71.26 Y127.655 E147.11951
G1 X71.065 Y127.328 E147.13218
G1 X71 Y127 E147.1433
G1 X71 Y92.951 E148.27577
G1 X71.07 Y92.662 E148.28566
G1 X71.207 Y92.399 E148.29553
G1 X71.345 Y92.26 E148.30204
G0 F6000 X71.839 Y92.881
G1 F1200 X72 Y92.8 E148.30803
G1 X148 Y92.8 E150.83581
G1 X148.119 Y92.839 E150.83997
G1 X148.2 Y93 E150.84596
G1 X148.2 Y127 E151.97681
G1 X148.161 Y127.119 E151.98097
G1 X148 Y127.2 E151.98697
G1 X72 Y127.2 E154.51474
G1 X71.881 Y127.161 E154.5189
G1 X71.8 Y127 E154.5249
G1 X71.8 Y93 E155.65574
G1 X71.839 Y92.881 E155.65991
G0 F6000 X71.55 Y92.604
G1 F1200 X71.82 Y92.443 E155.67036
G1 X72 Y92.4 E155.67652
G1 X148 Y92.4 E158.20429
G1 X148.244 Y92.459 E158.21264
G1 X148.396 Y92.55 E158.21853
G1 X148.557 Y92.82 E158.22899
G1 X148.6 Y93 E158.23514
G1 X148.6 Y127 E159.36599
G1 X148.541 Y127.244 E159.37434
G1 X148.45 Y127.396 E159.38023
G1 X148.18 Y127.557 E159.39068
G1 X148 Y127.6 E159.39684
G1 X72 Y127.6 E161.92461
G1 X71.756 Y127.541 E161.93296
G1 X71.604 Y127.45 E161.93885
G1 X71.443 Y127.18 E161.94931
G1 X71.4 Y127 E161.95546
G1 X71.4 Y93 E163.08631
G1 X71.459 Y92.756 E163.09466
G1 X71.55 Y92.604 E163.10055
G1 F2700 E158.10055
;MESH:motor_support.STL
G0 F6000 X78.219 Y97.895
G0 X87.074 Y122.6
;TYPE:WALL-INNER
G1 F2700 E163.10055
G1 F1200 X79 Y122.6 E163.36909
G1 X78.803 Y122.568 E163.37573
G1 X78.637 Y122.478 E163.38201
G1 X78.517 Y122.357 E163.38768
G1 X78.4 Y122.076 E163.3978
G1 X78.4 Y97.92 E164.20123
G1 X78.517 Y97.643 E164.21123
G1 X78.637 Y97.522 E164.2169
G1 X78.927 Y97.4 E164.22737
G1 X87 Y97.4 E164.49588
G1 X87.195 Y97.432 E164.50245
G1 X87.361 Y97.519 E164.50868
G1 X87.48 Y97.64 E164.51433
G1 X87.6 Y97.921 E164.52449
G1 X87.6 Y122.079 E165.32799
G1 X87.48 Y122.36 E165.33815
G1 X87.36 Y122.481 E165.34382
G1 X87.074 Y122.6 E165.35412
G1 F2700 E160.35412
G0 F6000 X87.4 Y114.633
G0 X129.465 Y114.179
G0 X131.02 Y114.535
G1 F2700 E165.35412
G1 F1200 X130.266 Y114.34 E165.38002
G1 X129.555 Y114.018 E165.40598
G1 X128.913 Y113.584 E165.43176
