;FLAVOR:Marlin
;TIME:12198
;Filament used: 11.2607m
;Layer height: 0.2
;MINX:64.2
;MINY:53.934
;MINZ:0.2
;MAXX:157.124
;MAXY:157.718
;MAXZ:24
;Generated with Cura_SteamEngine 5.4.0
M140 S50
M105
M190 S50
M104 S200
M105
M109 S200
M82 ;absolute extrusion mode
M201 X500.00 Y500.00 Z100.00 E5000.00 ;Setup machine max acceleration
M203 X500.00 Y500.00 Z10.00 E50.00 ;Setup machine max feedrate
M204 P500.00 R1000.00 T500.00 ;Setup Print/Retract/Travel acceleration
M205 X8.00 Y8.00 Z0.40 E5.00 ;Setup Jerk
M220 S100 ;Reset Feedrate
M221 S100 ;Reset Flowrate

G28 ;Home

G92 E0 ;Reset Extruder
G1 Z2.0 F3000 ;Move Z Axis up
G1 X10.1 Y20 Z0.28 F5000.0 ;Move to start position
G1 X10.1 Y200.0 Z0.28 F1500.0 E15 ;Draw the first line
G1 X10.4 Y200.0 Z0.28 F5000.0 ;Move to side a little
G1 X10.4 Y20 Z0.28 F1500.0 E30 ;Draw the second line
G92 E0 ;Reset Extruder
G1 Z2.0 F3000 ;Move Z Axis up

G92 E0
G92 E0
G1 F2700 E-5
;LAYER_COUNT:120
;LAYER:0
M107
G0 F6000 X67.043 Y56.957 Z0.2
;TYPE:SKIRT
G1 F2700 E0
G1 F1200 X68.604 Y55.498 E0.07107
G1 X70.627 Y54.291 E0.14942
G1 X72.345 Y54.009 E0.20732
G1 X150.177 Y53.934 E2.79603
G1 X152.073 Y54.4 E2.86097
G1 X154.101 Y55.453 E2.93697
G1 X155.56 Y57.014 E3.00803
G1 X156.767 Y59.037 E3.08638
G1 X157.049 Y60.755 E3.14429
G1 X157.124 Y101.787 E4.50902
G1 X156.658 Y103.683 E4.57396
G1 X155.605 Y105.711 E4.64996
G1 X154.615 Y106.638 E4.69507
G1 X155.443 Y108.023 E4.74874
G1 X155.725 Y109.739 E4.80658
G1 X155.8 Y150.771 E6.17131
G1 X155.334 Y152.667 E6.23625
G1 X154.281 Y154.695 E6.31225
G1 X152.72 Y156.154 E6.38332
G1 X150.697 Y157.361 E6.46167
G1 X148.979 Y157.643 E6.51958
G1 X71.147 Y157.718 E9.10828
G1 X69.251 Y157.252 E9.17322
G1 X67.223 Y156.199 E9.24922
G1 X65.764 Y154.638 E9.32029
G1 X64.557 Y152.615 E9.39864
G1 X64.275 Y150.897 E9.45654
G1 X64.2 Y109.865 E10.82128
G1 X64.666 Y107.969 E10.88621
G1 X65.719 Y105.941 E10.96222
G1 X66.709 Y105.014 E11.00733
G1 X65.881 Y103.629 E11.061
G1 X65.599 Y101.913 E11.11884
G1 X65.524 Y60.881 E12.48357
G1 X65.99 Y58.985 E12.54851
G1 X67.043 Y56.957 E12.62451
G0 F6000 X67.366 Y57.202
G1 F1200 X68.843 Y55.822 E12.69174
G1 X70.767 Y54.674 E12.76626
G1 X72.41 Y54.404 E12.82164
G1 X150.131 Y54.334 E15.40665
G1 X151.93 Y54.776 E15.46826
G1 X153.856 Y55.776 E15.54044
G1 X155.236 Y57.253 E15.60767
G1 X156.384 Y59.177 E15.68219
G1 X156.654 Y60.82 E15.73757
G1 X156.724 Y101.741 E17.09861
G1 X156.282 Y103.54 E17.16022
G1 X155.282 Y105.466 E17.2324
G1 X154.106 Y106.566 E17.28596
G1 X155.06 Y108.161 E17.34778
G1 X155.33 Y109.804 E17.40316
G1 X155.4 Y150.725 E18.7642
G1 X154.958 Y152.524 E18.82581
G1 X153.958 Y154.45 E18.89799
G1 X152.481 Y155.83 E18.96522
G1 X150.557 Y156.978 E19.03974
G1 X148.914 Y157.248 E19.09512
G1 X71.193 Y157.318 E21.68013
G1 X69.394 Y156.876 E21.74174
G1 X67.468 Y155.876 E21.81392
G1 X66.088 Y154.399 E21.88115
G1 X64.94 Y152.475 E21.95567
G1 X64.67 Y150.832 E22.01105
G1 X64.6 Y109.911 E23.37209
G1 X65.042 Y108.112 E23.43371
G1 X66.042 Y106.186 E23.50588
G1 X67.218 Y105.086 E23.55944
G1 X66.264 Y103.491 E23.62126
G1 X65.994 Y101.848 E23.67664
G1 X65.924 Y60.927 E25.03768
G1 X66.366 Y59.128 E25.09929
G1 X67.366 Y57.202 E25.17147
G0 F6000 X67.689 Y57.447
G1 F1200 X69.085 Y56.143 E25.23501
G1 X70.905 Y55.057 E25.3055
G1 X72.475 Y54.799 E25.35842
G1 X150.084 Y54.734 E27.9397
G1 X151.788 Y55.153 E27.99807
G1 X153.611 Y56.099 E28.06638
G1 X154.915 Y57.495 E28.12991
G1 X156.001 Y59.315 E28.20041
G1 X156.259 Y60.885 E28.25332
G1 X156.324 Y101.694 E29.61064
G1 X155.905 Y103.398 E29.669
G1 X154.959 Y105.221 E29.73731
G1 X153.597 Y106.494 E29.79932
G1 X154.677 Y108.299 E29.86928
G1 X154.935 Y109.869 E29.9222
G1 X155 Y150.678 E31.27951
G1 X154.581 Y152.382 E31.33788
G1 X153.635 Y154.205 E31.40619
G1 X152.239 Y155.509 E31.46972
G1 X150.419 Y156.595 E31.54022
G1 X148.849 Y156.853 E31.59313
G1 X71.24 Y156.918 E34.17442
G1 X69.536 Y156.499 E34.23278
G1 X67.713 Y155.553 E34.3011
G1 X66.409 Y154.157 E34.36463
G1 X65.323 Y152.337 E34.43512
G1 X65.065 Y150.767 E34.48804
G1 X65 Y109.958 E35.84536
G1 X65.419 Y108.254 E35.90372
G1 X66.365 Y106.431 E35.97203
G1 X67.727 Y105.158 E36.03404
G1 X66.647 Y103.353 E36.104
G1 X66.389 Y101.783 E36.15692
G1 X66.324 Y60.974 E37.51423
G1 X66.743 Y59.27 E37.57259
G1 X67.689 Y57.447 E37.64091
G0 F6000 X68.012 Y57.692
G1 F1200 X69.327 Y56.464 E37.70075
G1 X71.043 Y55.44 E37.76721
G1 X72.54 Y55.194 E37.81767
G1 X150.038 Y55.134 E40.39527
G1 X151.645 Y55.529 E40.4503
G1 X153.366 Y56.422 E40.51479
G1 X154.594 Y57.737 E40.57464
G1 X155.618 Y59.453 E40.6411
G1 X155.864 Y60.95 E40.69156
G1 X155.924 Y101.648 E42.04518
G1 X155.529 Y103.255 E42.10022
G1 X154.636 Y104.976 E42.16471
G1 X153.318 Y106.207 E42.22469
G1 X152.979 Y106.409 E42.23782
G1 X153.27 Y106.721 E42.25201
G1 X154.294 Y108.437 E42.31847
G1 X154.54 Y109.934 E42.36893
G1 X154.6 Y150.632 E43.72255
G1 X154.205 Y152.239 E43.77759
G1 X153.312 Y153.96 E43.84208
G1 X151.997 Y155.188 E43.90192
G1 X150.281 Y156.212 E43.96839
G1 X148.784 Y156.458 E44.01884
G1 X71.286 Y156.518 E46.59644
G1 X69.679 Y156.123 E46.65148
G1 X67.958 Y155.23 E46.71597
G1 X66.73 Y153.915 E46.77581
G1 X65.706 Y152.199 E46.84227
G1 X65.46 Y150.702 E46.89273
G1 X65.4 Y110.004 E48.24635
G1 X65.795 Y108.397 E48.30139
G1 X66.688 Y106.676 E48.36588
G1 X68.006 Y105.445 E48.42586
G1 X68.345 Y105.243 E48.43899
G1 X68.054 Y104.931 E48.45318
G1 X67.03 Y103.215 E48.51964
G1 X66.784 Y101.718 E48.5701
G1 X66.724 Y61.02 E49.92372
G1 X67.119 Y59.413 E49.97876
G1 X68.012 Y57.692 E50.04325
G0 F6000 X68.335 Y57.937
G1 F1200 X69.569 Y56.785 E50.0994
G1 X71.181 Y55.823 E50.16184
G1 X72.605 Y55.589 E50.20983
G1 X149.992 Y55.534 E52.78374
G1 X151.502 Y55.905 E52.83545
G1 X153.121 Y56.745 E52.89612
G1 X154.273 Y57.979 E52.95227
G1 X155.235 Y59.591 E53.0147
G1 X155.469 Y61.015 E53.0627
G1 X155.524 Y101.602 E54.41263
G1 X155.153 Y103.112 E54.46435
G1 X154.313 Y104.731 E54.52501
G1 X153.079 Y105.883 E54.58116
G1 X152.348 Y106.319 E54.60947
G1 X152.949 Y106.963 E54.63877
G1 X153.911 Y108.575 E54.7012
G1 X154.145 Y109.999 E54.7492
G1 X154.2 Y150.586 E56.09913
G1 X153.829 Y152.096 E56.15085
G1 X152.989 Y153.715 E56.21151
G1 X151.755 Y154.867 E56.26766
G1 X150.143 Y155.829 E56.3301
G1 X148.719 Y156.063 E56.3781
G1 X71.332 Y156.118 E58.952
G1 X69.822 Y155.747 E59.00372
G1 X68.203 Y154.907 E59.06438
G1 X67.051 Y153.673 E59.12053
G1 X66.089 Y152.061 E59.18296
G1 X65.855 Y150.637 E59.23096
G1 X65.8 Y110.05 E60.58089
G1 X66.171 Y108.54 E60.63261
G1 X67.011 Y106.921 E60.69327
G1 X68.245 Y105.769 E60.74942
G1 X68.976 Y105.333 E60.77773
G1 X68.375 Y104.689 E60.80703
G1 X67.413 Y103.077 E60.86947
G1 X67.179 Y101.653 E60.91746
G1 X67.124 Y61.066 E62.26739
G1 X67.495 Y59.556 E62.31911
G1 X68.335 Y57.937 E62.37978
G0 F6000 X68.658 Y58.182
G1 F1200 X69.811 Y57.106 E62.43223
G1 X71.319 Y56.206 E62.49064
G1 X72.67 Y55.984 E62.53618
G1 X149.945 Y55.934 E65.10635
G1 X151.36 Y56.282 E65.15482
G1 X152.876 Y57.068 E65.21162
G1 X153.952 Y58.221 E65.26407
G1 X154.852 Y59.729 E65.32248
G1 X155.074 Y61.08 E65.36802
G1 X155.124 Y101.555 E66.71422
G1 X154.776 Y102.97 E66.76269
G1 X153.99 Y104.486 E66.81948
G1 X152.837 Y105.562 E66.87194
G1 X151.718 Y106.23 E66.91528
G1 X152.628 Y107.205 E66.95964
G1 X153.528 Y108.713 E67.01805
G1 X153.75 Y110.064 E67.06359
G1 X153.8 Y150.539 E68.40979
G1 X153.452 Y151.954 E68.45826
G1 X152.666 Y153.47 E68.51506
G1 X151.513 Y154.546 E68.56751
G1 X150.005 Y155.446 E68.62592
G1 X148.654 Y155.668 E68.67146
G1 X71.379 Y155.718 E71.24163
G1 X69.964 Y155.37 E71.2901
G1 X68.448 Y154.584 E71.3469
G1 X67.372 Y153.431 E71.39935
G1 X66.472 Y151.923 E71.45776
G1 X66.25 Y150.572 E71.5033
G1 X66.2 Y110.097 E72.8495
G1 X66.548 Y108.682 E72.89797
G1 X67.334 Y107.166 E72.95476
G1 X68.487 Y106.09 E73.00722
G1 X69.606 Y105.422 E73.05056
G1 X68.696 Y104.447 E73.09492
G1 X67.796 Y102.939 E73.15333
G1 X67.574 Y101.588 E73.19887
G1 X67.524 Y61.113 E74.54507
G1 X67.872 Y59.698 E74.59354
G1 X68.658 Y58.182 E74.65033
G0 F6000 X68.981 Y58.427
G1 F1200 X70.053 Y57.427 E74.69909
G1 X71.457 Y56.589 E74.75348
G1 X72.735 Y56.379 E74.79655
G1 X149.899 Y56.334 E77.36304
G1 X151.217 Y56.658 E77.40818
G1 X152.631 Y57.391 E77.46115
G1 X153.631 Y58.463 E77.50991
G1 X154.469 Y59.867 E77.5643
G1 X154.679 Y61.145 E77.60737
G1 X154.724 Y101.509 E78.94989
G1 X154.4 Y102.827 E78.99503
G1 X153.667 Y104.241 E79.048
G1 X152.595 Y105.241 E79.09676
G1 X151.191 Y106.079 E79.15114
G1 X150.846 Y106.136 E79.16277
G1 X151.307 Y106.375 E79.18005
G1 X152.307 Y107.447 E79.22881
G1 X153.145 Y108.851 E79.28319
G1 X153.355 Y110.129 E79.32626
G1 X153.4 Y150.493 E80.66878
G1 X153.076 Y151.811 E80.71392
G1 X152.343 Y153.225 E80.76689
G1 X151.271 Y154.225 E80.81565
G1 X149.867 Y155.063 E80.87003
G1 X148.589 Y155.273 E80.91311
G1 X71.425 Y155.318 E83.4796
G1 X70.107 Y154.994 E83.52474
G1 X68.693 Y154.261 E83.57771
G1 X67.693 Y153.189 E83.62647
G1 X66.855 Y151.785 E83.68085
G1 X66.645 Y150.507 E83.72393
G1 X66.6 Y110.143 E85.06644
G1 X66.924 Y108.825 E85.11159
G1 X67.657 Y107.411 E85.16456
G1 X68.729 Y106.411 E85.21332
G1 X70.133 Y105.573 E85.2677
G1 X70.478 Y105.516 E85.27933
G1 X70.017 Y105.277 E85.2966
G1 X69.017 Y104.205 E85.34536
G1 X68.179 Y102.801 E85.39975
G1 X67.969 Y101.523 E85.44282
G1 X67.924 Y61.159 E86.78533
G1 X68.248 Y59.841 E86.83048
G1 X68.981 Y58.427 E86.88345
G0 F6000 X69.303 Y58.674
G1 F1200 X70.298 Y57.746 E86.9287
G1 X71.595 Y56.972 E86.97894
G1 X72.8 Y56.774 E87.01956
G1 X149.853 Y56.734 E89.58235
G1 X151.074 Y57.034 E89.62417
G1 X152.384 Y57.713 E89.67324
G1 X153.312 Y58.708 E89.7185
G1 X154.086 Y60.005 E89.76873
G1 X154.284 Y61.21 E89.80935
G1 X154.324 Y101.463 E91.14817
G1 X154.024 Y102.684 E91.18999
G1 X153.345 Y103.994 E91.23906
G1 X152.35 Y104.922 E91.28432
G1 X151.053 Y105.696 E91.33455
G1 X149.848 Y105.894 E91.37517
G1 X149.267 Y105.899 E91.39449
G1 X149.75 Y106.018 E91.41104
G1 X151.06 Y106.697 E91.46011
G1 X151.988 Y107.692 E91.50537
G1 X152.762 Y108.989 E91.5556
G1 X152.96 Y110.194 E91.59622
G1 X153 Y150.447 E92.93504
G1 X152.7 Y151.668 E92.97686
G1 X152.021 Y152.978 E93.02593
G1 X151.026 Y153.906 E93.07119
G1 X149.729 Y154.68 E93.12142
G1 X148.524 Y154.878 E93.16204
G1 X71.471 Y154.918 E95.72483
G1 X70.25 Y154.618 E95.76665
G1 X68.94 Y153.939 E95.81573
G1 X68.012 Y152.944 E95.86098
G1 X67.238 Y151.647 E95.91122
G1 X67.04 Y150.442 E95.95183
G1 X67 Y110.189 E97.29065
G1 X67.3 Y108.968 E97.33247
G1 X67.979 Y107.658 E97.38155
G1 X68.974 Y106.73 E97.4268
G1 X70.271 Y105.956 E97.47704
G1 X71.476 Y105.758 E97.51765
G1 X72.057 Y105.753 E97.53698
G1 X71.574 Y105.634 E97.55352
G1 X70.264 Y104.955 E97.6026
G1 X69.336 Y103.96 E97.64785
G1 X68.562 Y102.663 E97.69809
G1 X68.364 Y101.458 E97.7387
G1 X68.324 Y61.205 E99.07753
G1 X68.624 Y59.984 E99.11934
G1 X69.303 Y58.674 E99.16842
G0 F6000 X69.625 Y58.921
G1 F1200 X70.54 Y58.068 E99.21003
G1 X71.735 Y57.355 E99.25631
G1 X72.865 Y57.169 E99.2944
G1 X149.807 Y57.134 E101.8535
G1 X150.931 Y57.41 E101.89199
G1 X152.137 Y58.035 E101.93717
G1 X152.99 Y58.95 E101.97878
G1 X153.703 Y60.145 E102.02506
G1 X153.889 Y61.275 E102.06315
G1 X153.924 Y101.417 E103.39828
G1 X153.648 Y102.541 E103.43678
G1 X153.023 Y103.747 E103.48195
G1 X152.108 Y104.6 E103.52356
G1 X150.913 Y105.313 E103.56984
G1 X149.783 Y105.499 E103.60793
G1 X72.841 Y105.534 E106.16703
G1 X71.717 Y105.258 E106.20553
G1 X70.511 Y104.633 E106.25071
G1 X69.658 Y103.718 E106.29231
G1 X68.945 Y102.523 E106.3386
G1 X68.759 Y101.393 E106.37669
G1 X68.724 Y61.251 E107.71182
G1 X69 Y60.127 E107.75031
G1 X69.625 Y58.921 E107.79549
G0 F6000 X69.947 Y59.168
G1 F1200 X70.782 Y58.39 E107.83345
G1 X71.875 Y57.738 E107.87578
G1 X72.93 Y57.564 E107.91134
G1 X149.76 Y57.534 E110.46672
G1 X150.789 Y57.787 E110.50196
G1 X151.89 Y58.357 E110.5432
G1 X152.668 Y59.192 E110.58116
G1 X153.32 Y60.285 E110.62349
G1 X153.494 Y61.34 E110.65905
G1 X153.524 Y101.37 E111.99045
G1 X153.271 Y102.399 E112.0257
G1 X152.701 Y103.5 E112.06693
G1 X151.866 Y104.278 E112.10489
G1 X150.773 Y104.93 E112.14722
G1 X149.718 Y105.104 E112.18279
G1 X72.888 Y105.134 E114.73816
G1 X71.859 Y104.881 E114.77341
G1 X70.758 Y104.311 E114.81464
G1 X69.98 Y103.476 E114.8526
G1 X69.328 Y102.383 E114.89493
G1 X69.154 Y101.328 E114.93049
G1 X69.124 Y61.298 E116.2619
G1 X69.377 Y60.269 E116.29714
G1 X69.947 Y59.168 E116.33838
G0 F6000 X70.269 Y59.415
G1 F1200 X71.024 Y58.712 E116.37269
G1 X72.015 Y58.121 E116.41107
G1 X72.995 Y57.959 E116.4441
G1 X149.714 Y57.934 E118.99579
G1 X150.646 Y58.163 E119.02771
G1 X151.643 Y58.679 E119.06505
G1 X152.346 Y59.434 E119.09936
G1 X152.937 Y60.425 E119.13774
G1 X153.099 Y61.405 E119.17077
G1 X153.124 Y101.324 E120.49848
G1 X152.895 Y102.256 E120.5304
G1 X152.379 Y103.253 E120.56774
G1 X151.624 Y103.956 E120.60206
G1 X150.633 Y104.547 E120.64043
G1 X149.653 Y104.709 E120.67347
G1 X72.934 Y104.734 E123.22515
G1 X72.002 Y104.505 E123.25707
G1 X71.005 Y103.989 E123.29441
G1 X70.302 Y103.234 E123.32872
G1 X69.711 Y102.243 E123.3671
G1 X69.549 Y101.263 E123.40014
G1 X69.524 Y61.344 E124.72785
G1 X69.753 Y60.412 E124.75977
G1 X70.269 Y59.415 E124.79711
G0 F6000 X70.592 Y59.66
G1 F1200 X71.263 Y59.036 E124.82759
G1 X72.155 Y58.504 E124.86213
G1 X73.06 Y58.354 E124.89264
G1 X149.668 Y58.334 E127.44063
G1 X150.503 Y58.539 E127.46923
G1 X151.398 Y59.002 E127.50275
G1 X152.022 Y59.673 E127.53322
G1 X152.554 Y60.565 E127.56777
G1 X152.704 Y61.47 E127.59828
G1 X152.724 Y101.278 E128.9223
G1 X152.519 Y102.113 E128.95089
G1 X152.056 Y103.008 E128.98441
G1 X151.385 Y103.632 E129.01488
G1 X150.493 Y104.164 E129.04943
G1 X149.588 Y104.314 E129.07994
G1 X72.98 Y104.334 E131.62793
G1 X72.145 Y104.129 E131.65653
G1 X71.25 Y103.666 E131.69004
G1 X70.626 Y102.995 E131.72052
G1 X70.094 Y102.103 E131.75506
G1 X69.944 Y101.198 E131.78558
G1 X69.924 Y61.39 E133.1096
G1 X70.129 Y60.555 E133.13819
G1 X70.592 Y59.66 E133.17171
G0 F6000 X70.915 Y59.905
G1 F1200 X71.502 Y59.36 E133.19835
G1 X72.295 Y58.887 E133.22906
G1 X73.126 Y58.749 E133.25708
G1 X149.622 Y58.734 E135.80134
G1 X150.36 Y58.915 E135.82662
G1 X151.153 Y59.325 E135.85631
G1 X151.698 Y59.912 E135.88295
G1 X152.171 Y60.705 E135.91366
G1 X152.309 Y61.536 E135.94168
G1 X152.324 Y101.232 E137.26197
G1 X152.143 Y101.97 E137.28725
G1 X151.733 Y102.763 E137.31694
G1 X151.146 Y103.308 E137.34358
G1 X150.353 Y103.781 E137.37429
G1 X149.522 Y103.919 E137.40231
G1 X73.026 Y103.934 E139.94658
G1 X72.288 Y103.753 E139.97185
G1 X71.495 Y103.343 E140.00154
G1 X70.95 Y102.756 E140.02818
G1 X70.477 Y101.963 E140.05889
G1 X70.339 Y101.132 E140.08691
G1 X70.324 Y61.436 E141.40721
G1 X70.505 Y60.698 E141.43248
G1 X70.915 Y59.905 E141.46217
G0 F6000 X71.238 Y60.15
G1 F1200 X71.741 Y59.684 E141.48498
G1 X72.435 Y59.27 E141.51186
G1 X73.192 Y59.144 E141.53738
G1 X149.572 Y59.134 E144.07779
G1 X150.221 Y59.293 E144.10001
G1 X150.908 Y59.648 E144.12573
G1 X151.374 Y60.151 E144.14854
G1 X151.788 Y60.845 E144.17542
G1 X151.914 Y61.602 E144.20094
G1 X151.924 Y101.182 E145.51738
G1 X151.765 Y101.831 E145.5396
G1 X151.41 Y102.518 E145.56532
G1 X150.907 Y102.984 E145.58813
G1 X150.213 Y103.398 E145.61501
G1 X149.456 Y103.524 E145.64053
G1 X73.076 Y103.534 E148.18094
G1 X72.427 Y103.375 E148.20316
G1 X71.74 Y103.02 E148.22888
G1 X71.274 Y102.517 E148.25169
G1 X70.86 Y101.823 E148.27857
G1 X70.734 Y101.066 E148.30409
G1 X70.724 Y61.486 E149.62053
G1 X70.883 Y60.837 E149.64275
G1 X71.238 Y60.15 E149.66847
G0 F6000 X71.561 Y60.396
G1 F1200 X71.98 Y60.008 E149.68746
G1 X72.575 Y59.653 E149.71051
G1 X73.258 Y59.539 E149.73354
G1 X149.522 Y59.534 E152.27009
G1 X150.082 Y59.671 E152.28927
G1 X150.662 Y59.971 E152.31098
G1 X151.05 Y60.39 E152.32998
G1 X151.405 Y60.985 E152.35302
G1 X151.519 Y61.668 E152.37605
G1 X151.524 Y101.132 E153.68863
G1 X151.387 Y101.692 E153.70781
G1 X151.087 Y102.272 E153.72953
G1 X150.668 Y102.66 E153.74852
G1 X150.073 Y103.015 E153.77156
G1 X149.39 Y103.129 E153.79459
G1 X73.126 Y103.134 E156.33114
G1 X72.566 Y102.997 E156.35032
G1 X71.986 Y102.697 E156.37204
G1 X71.598 Y102.278 E156.39103
G1 X71.243 Y101.683 E156.41408
G1 X71.129 Y101 E156.43711
