;FLAVOR:Marlin
;TIME:4360
;Filament used: 3.76253m
;Layer height: 0.2
;MINX:84.2
;MINY:74.071
;MINZ:0.2
;MAXX:135.8
;MAXY:125.671
;MAXZ:26
;Generated with Cura_SteamEngine 5.4.0
M140 S50
M105
M190 S50
M104 S200
M105
M109 S200
M82 ;absolute extrusion mode
M201 X500.00 Y500.00 Z100.00 E5000.00 ;Setup machine max acceleration
M203 X500.00 Y500.00 Z10.00 E50.00 ;Setup machine max feedrate
M204 P500.00 R1000.00 T500.00 ;Setup Print/Retract/Travel acceleration
M205 X8.00 Y8.00 Z0.40 E5.00 ;Setup Jerk
M220 S100 ;Reset Feedrate
M221 S100 ;Reset Flowrate

G28 ;Home

G92 E0 ;Reset Extruder
G1 Z2.0 F3000 ;Move Z Axis up
G1 X10.1 Y20 Z0.28 F5000.0 ;Move to start position
G1 X10.1 Y200.0 Z0.28 F1500.0 E15 ;Draw the first line
G1 X10.4 Y200.0 Z0.28 F5000.0 ;Move to side a little
G1 X10.4 Y20 Z0.28 F1500.0 E30 ;Draw the second line
G92 E0 ;Reset Extruder
G1 Z2.0 F3000 ;Move Z Axis up

G92 E0
G92 E0
G1 F2700 E-5
;LAYER_COUNT:130
;LAYER:0
M107
G0 F6000 X85.719 Y77.094 Z0.2
;TYPE:SKIRT
G1 F2700 E0
G1 F1200 X87.28 Y75.635 E0.07107
G1 X89.303 Y74.428 E0.14942
G1 X91.021 Y74.146 E0.20732
G1 X128.853 Y74.071 E1.46562
G1 X130.749 Y74.537 E1.53056
G1 X132.777 Y75.59 E1.60656
G1 X134.236 Y77.151 E1.67763
G1 X135.443 Y79.174 E1.75598
G1 X135.725 Y80.892 E1.81389
G1 X135.8 Y118.724 E3.07219
G1 X135.334 Y120.62 E3.13712
G1 X134.281 Y122.648 E3.21313
G1 X132.72 Y124.107 E3.28419
G1 X130.697 Y125.314 E3.36254
G1 X128.979 Y125.596 E3.42045
G1 X91.147 Y125.671 E4.67875
G1 X89.251 Y125.205 E4.74369
G1 X87.223 Y124.152 E4.81969
G1 X85.764 Y122.591 E4.89076
G1 X84.557 Y120.568 E4.96911
G1 X84.275 Y118.85 E5.02701
G1 X84.2 Y81.018 E6.28531
G1 X84.666 Y79.122 E6.35025
G1 X85.719 Y77.094 E6.42625
G0 F6000 X86.042 Y77.339
G1 F1200 X87.519 Y75.959 E6.49348
G1 X89.443 Y74.811 E6.568
G1 X91.086 Y74.541 E6.62338
G1 X128.807 Y74.471 E7.87799
G1 X130.606 Y74.913 E7.9396
G1 X132.532 Y75.913 E8.01178
G1 X133.912 Y77.39 E8.07901
G1 X135.06 Y79.314 E8.15353
G1 X135.33 Y80.957 E8.20891
G1 X135.4 Y118.678 E9.46352
G1 X134.958 Y120.477 E9.52513
G1 X133.958 Y122.403 E9.59731
G1 X132.481 Y123.783 E9.66454
G1 X130.557 Y124.931 E9.73906
G1 X128.914 Y125.201 E9.79444
G1 X91.193 Y125.271 E11.04905
G1 X89.394 Y124.829 E11.11066
G1 X87.468 Y123.829 E11.18284
G1 X86.088 Y122.352 E11.25007
G1 X84.94 Y120.428 E11.32459
G1 X84.67 Y118.785 E11.37997
G1 X84.6 Y81.064 E12.63458
G1 X85.042 Y79.265 E12.69619
G1 X86.042 Y77.339 E12.76837
G0 F6000 X86.365 Y77.584
G1 F1200 X87.761 Y76.28 E12.83191
G1 X89.581 Y75.194 E12.9024
G1 X91.151 Y74.936 E12.95532
G1 X128.76 Y74.871 E14.2062
G1 X130.464 Y75.29 E14.26456
G1 X132.287 Y76.236 E14.33287
G1 X133.591 Y77.632 E14.39641
G1 X134.677 Y79.452 E14.4669
G1 X134.935 Y81.022 E14.51982
G1 X135 Y118.631 E15.7707
G1 X134.581 Y120.335 E15.82907
G1 X133.635 Y122.158 E15.89738
G1 X132.239 Y123.462 E15.96091
G1 X130.419 Y124.548 E16.03141
G1 X128.849 Y124.806 E16.08432
G1 X91.24 Y124.871 E17.33521
G1 X89.536 Y124.452 E17.39357
G1 X87.713 Y123.506 E17.46188
G1 X86.409 Y122.11 E17.52542
G1 X85.323 Y120.29 E17.59591
G1 X85.065 Y118.72 E17.64883
G1 X85 Y81.111 E18.89971
G1 X85.419 Y79.407 E18.95807
G1 X86.365 Y77.584 E19.02638
G0 F6000 X86.688 Y77.829
G1 F1200 X88.003 Y76.601 E19.08623
G1 X89.719 Y75.577 E19.15269
G1 X91.216 Y75.331 E19.20315
G1 X128.714 Y75.271 E20.45034
G1 X130.321 Y75.666 E20.50538
G1 X132.042 Y76.559 E20.56987
G1 X133.27 Y77.874 E20.62971
G1 X134.294 Y79.59 E20.69617
G1 X134.54 Y81.087 E20.74663
G1 X134.6 Y118.585 E21.99382
G1 X134.205 Y120.192 E22.04886
G1 X133.312 Y121.913 E22.11335
G1 X131.997 Y123.141 E22.17319
G1 X130.281 Y124.165 E22.23966
G1 X128.784 Y124.411 E22.29011
G1 X91.286 Y124.471 E23.5373
G1 X89.679 Y124.076 E23.59234
G1 X87.958 Y123.183 E23.65683
G1 X86.73 Y121.868 E23.71667
G1 X85.706 Y120.152 E23.78314
G1 X85.46 Y118.655 E23.8336
G1 X85.4 Y81.157 E25.08079
G1 X85.795 Y79.55 E25.13583
G1 X86.688 Y77.829 E25.20031
G0 F6000 X87.011 Y78.074
G1 F1200 X88.245 Y76.922 E25.25646
G1 X89.857 Y75.96 E25.3189
G1 X91.281 Y75.726 E25.3669
G1 X128.668 Y75.671 E26.61039
G1 X130.178 Y76.042 E26.66211
G1 X131.797 Y76.882 E26.72278
G1 X132.949 Y78.116 E26.77892
G1 X133.911 Y79.728 E26.84136
G1 X134.145 Y81.152 E26.88936
G1 X134.2 Y118.539 E28.13286
G1 X133.829 Y120.049 E28.18457
G1 X132.989 Y121.668 E28.24524
G1 X131.755 Y122.82 E28.30139
G1 X130.143 Y123.782 E28.36382
G1 X128.719 Y124.016 E28.41182
G1 X91.332 Y124.071 E29.65532
G1 X89.822 Y123.7 E29.70703
G1 X88.203 Y122.86 E29.7677
G1 X87.051 Y121.626 E29.82385
G1 X86.089 Y120.014 E29.88628
G1 X85.855 Y118.59 E29.93428
G1 X85.8 Y81.203 E31.17778
G1 X86.171 Y79.693 E31.2295
G1 X87.011 Y78.074 E31.29016
G0 F6000 X87.334 Y78.319
G1 F1200 X88.487 Y77.243 E31.34261
G1 X89.995 Y76.343 E31.40102
G1 X91.346 Y76.121 E31.44656
G1 X128.621 Y76.071 E32.68633
G1 X130.036 Y76.419 E32.7348
G1 X131.552 Y77.205 E32.7916
G1 X132.628 Y78.358 E32.84405
G1 X133.528 Y79.866 E32.90246
G1 X133.75 Y81.217 E32.948
G1 X133.8 Y118.492 E34.18777
G1 X133.452 Y119.907 E34.23623
G1 X132.666 Y121.423 E34.29303
G1 X131.513 Y122.499 E34.34549
G1 X130.005 Y123.399 E34.4039
G1 X128.654 Y123.621 E34.44943
G1 X91.379 Y123.671 E35.6892
G1 X89.964 Y123.323 E35.73767
G1 X88.448 Y122.537 E35.79447
G1 X87.372 Y121.384 E35.84692
G1 X86.472 Y119.876 E35.90533
G1 X86.25 Y118.525 E35.95087
G1 X86.2 Y81.25 E37.19064
G1 X86.548 Y79.835 E37.23911
G1 X87.334 Y78.319 E37.2959
G0 F6000 X87.657 Y78.564
G1 F1200 X88.729 Y77.564 E37.34466
G1 X90.133 Y76.726 E37.39904
G1 X91.411 Y76.516 E37.44212
G1 X128.575 Y76.471 E38.6782
G1 X129.893 Y76.795 E38.72334
G1 X131.307 Y77.528 E38.77632
G1 X132.307 Y78.6 E38.82508
G1 X133.145 Y80.004 E38.87946
G1 X133.355 Y81.282 E38.92254
G1 X133.4 Y118.446 E40.15862
G1 X133.076 Y119.764 E40.20376
G1 X132.343 Y121.178 E40.25673
G1 X131.271 Y122.178 E40.30549
G1 X129.867 Y123.016 E40.35987
G1 X128.589 Y123.226 E40.40295
G1 X91.425 Y123.271 E41.63903
G1 X90.107 Y122.947 E41.68417
G1 X88.693 Y122.214 E41.73715
G1 X87.693 Y121.142 E41.78591
G1 X86.855 Y119.738 E41.84029
G1 X86.645 Y118.46 E41.88337
G1 X86.6 Y81.296 E43.11945
G1 X86.924 Y79.978 E43.16459
G1 X87.657 Y78.564 E43.21756
G0 F6000 X87.979 Y78.811
G1 F1200 X88.974 Y77.883 E43.26281
G1 X90.271 Y77.109 E43.31305
G1 X91.476 Y76.911 E43.35367
G1 X128.529 Y76.871 E44.58605
G1 X129.75 Y77.171 E44.62787
G1 X131.06 Y77.85 E44.67695
G1 X131.988 Y78.845 E44.7222
G1 X132.762 Y80.142 E44.77244
G1 X132.96 Y81.347 E44.81305
G1 X133 Y118.4 E46.04544
G1 X132.7 Y119.621 E46.08726
G1 X132.021 Y120.931 E46.13634
G1 X131.026 Y121.859 E46.18159
G1 X129.729 Y122.633 E46.23183
G1 X128.524 Y122.831 E46.27244
G1 X91.471 Y122.871 E47.50483
G1 X90.25 Y122.571 E47.54665
G1 X88.94 Y121.892 E47.59573
G1 X88.012 Y120.897 E47.64098
G1 X87.238 Y119.6 E47.69121
G1 X87.04 Y118.395 E47.73183
G1 X87 Y81.342 E48.96422
G1 X87.3 Y80.121 E49.00604
G1 X87.979 Y78.811 E49.05511
G0 F6000 X88.301 Y79.058
G1 F1200 X89.216 Y78.205 E49.09672
G1 X90.411 Y77.492 E49.143
G1 X91.541 Y77.306 E49.18109
G1 X128.483 Y77.271 E50.40979
G1 X129.607 Y77.547 E50.44828
G1 X130.813 Y78.172 E50.49346
G1 X131.666 Y79.087 E50.53507
G1 X132.379 Y80.282 E50.58135
G1 X132.565 Y81.412 E50.61944
G1 X132.6 Y118.354 E51.84814
G1 X132.324 Y119.478 E51.88663
G1 X131.699 Y120.684 E51.93181
G1 X130.784 Y121.537 E51.97342
G1 X129.589 Y122.25 E52.0197
G1 X128.459 Y122.436 E52.05779
G1 X91.517 Y122.471 E53.28649
G1 X90.393 Y122.195 E53.32498
G1 X89.187 Y121.57 E53.37016
G1 X88.334 Y120.655 E53.41176
G1 X87.621 Y119.46 E53.45805
G1 X87.435 Y118.33 E53.49614
G1 X87.4 Y81.388 E54.72483
G1 X87.676 Y80.264 E54.76333
G1 X88.301 Y79.058 E54.80851
G0 F6000 X88.623 Y79.305
G1 F1200 X89.458 Y78.527 E54.84647
G1 X90.551 Y77.875 E54.8888
G1 X91.606 Y77.701 E54.92436
G1 X128.436 Y77.671 E56.14933
G1 X129.465 Y77.924 E56.18457
G1 X130.566 Y78.494 E56.22581
G1 X131.344 Y79.329 E56.26377
G1 X131.996 Y80.422 E56.3061
G1 X132.17 Y81.477 E56.34166
G1 X132.2 Y118.307 E57.56663
G1 X131.947 Y119.336 E57.60188
G1 X131.377 Y120.437 E57.64311
G1 X130.542 Y121.215 E57.68107
G1 X129.449 Y121.867 E57.7234
G1 X128.394 Y122.041 E57.75897
G1 X91.564 Y122.071 E58.98394
G1 X90.535 Y121.818 E59.01918
G1 X89.434 Y121.248 E59.06042
G1 X88.656 Y120.413 E59.09838
G1 X88.004 Y119.32 E59.14071
G1 X87.83 Y118.265 E59.17627
G1 X87.8 Y81.435 E60.40124
G1 X88.053 Y80.406 E60.43649
G1 X88.623 Y79.305 E60.47772
G0 F6000 X88.945 Y79.552
G1 F1200 X89.7 Y78.849 E60.51203
G1 X90.691 Y78.258 E60.55041
G1 X91.671 Y78.096 E60.58345
G1 X128.39 Y78.071 E61.80473
G1 X129.322 Y78.3 E61.83665
G1 X130.319 Y78.816 E61.87399
G1 X131.022 Y79.571 E61.9083
G1 X131.613 Y80.562 E61.94667
G1 X131.775 Y81.542 E61.97971
G1 X131.8 Y118.261 E63.20099
G1 X131.571 Y119.193 E63.23291
G1 X131.055 Y120.19 E63.27025
G1 X130.3 Y120.893 E63.30456
G1 X129.309 Y121.484 E63.34294
G1 X128.329 Y121.646 E63.37598
G1 X91.61 Y121.671 E64.59725
G1 X90.678 Y121.442 E64.62918
G1 X89.681 Y120.926 E64.66651
G1 X88.978 Y120.171 E64.70083
G1 X88.387 Y119.18 E64.7392
G1 X88.225 Y118.2 E64.77224
G1 X88.2 Y81.481 E65.99352
G1 X88.429 Y80.549 E66.02544
G1 X88.945 Y79.552 E66.06278
G0 F6000 X89.268 Y79.797
G1 F1200 X89.939 Y79.173 E66.09325
G1 X90.831 Y78.641 E66.1278
G1 X91.736 Y78.491 E66.15831
G1 X128.344 Y78.471 E67.3759
G1 X129.179 Y78.676 E67.40449
G1 X130.074 Y79.139 E67.43801
G1 X130.698 Y79.81 E67.46848
G1 X131.23 Y80.702 E67.50303
G1 X131.38 Y81.607 E67.53354
G1 X131.4 Y118.215 E68.75113
G1 X131.195 Y119.05 E68.77972
G1 X130.732 Y119.945 E68.81324
G1 X130.061 Y120.569 E68.84372
G1 X129.169 Y121.101 E68.87826
G1 X128.264 Y121.251 E68.90877
G1 X91.656 Y121.271 E70.12636
G1 X90.821 Y121.066 E70.15495
G1 X89.926 Y120.603 E70.18847
G1 X89.302 Y119.932 E70.21895
G1 X88.77 Y119.04 E70.25349
G1 X88.62 Y118.135 E70.284
G1 X88.6 Y81.527 E71.50159
G1 X88.805 Y80.692 E71.53019
G1 X89.268 Y79.797 E71.5637
G0 F6000 X89.591 Y80.042
G1 F1200 X90.178 Y79.497 E71.59034
G1 X90.971 Y79.024 E71.62105
G1 X91.802 Y78.886 E71.64907
G1 X128.298 Y78.871 E72.86293
G1 X129.036 Y79.052 E72.88821
G1 X129.829 Y79.462 E72.9179
G1 X130.374 Y80.049 E72.94454
G1 X130.847 Y80.842 E72.97525
G1 X130.985 Y81.673 E73.00327
G1 X131 Y118.169 E74.21713
G1 X130.819 Y118.907 E74.2424
G1 X130.409 Y119.7 E74.27209
G1 X129.822 Y120.245 E74.29874
G1 X129.029 Y120.718 E74.32945
G1 X128.198 Y120.856 E74.35746
G1 X91.702 Y120.871 E75.57133
G1 X90.964 Y120.69 E75.5966
G1 X90.171 Y120.28 E75.62629
G1 X89.626 Y119.693 E75.65293
G1 X89.153 Y118.9 E75.68364
G1 X89.015 Y118.069 E75.71166
G1 X89 Y81.573 E76.92552
G1 X89.181 Y80.835 E76.9508
G1 X89.591 Y80.042 E76.98049
G0 F6000 X89.914 Y80.287
G1 F1200 X90.417 Y79.821 E77.0033
G1 X91.111 Y79.407 E77.03017
G1 X91.868 Y79.281 E77.0557
G1 X128.248 Y79.271 E78.2657
G1 X128.897 Y79.43 E78.28793
G1 X129.584 Y79.785 E78.31365
G1 X130.05 Y80.288 E78.33645
G1 X130.464 Y80.982 E78.36333
G1 X130.59 Y81.739 E78.38885
G1 X130.6 Y118.119 E79.59886
G1 X130.441 Y118.768 E79.62108
G1 X130.086 Y119.455 E79.6468
G1 X129.583 Y119.921 E79.66961
G1 X128.889 Y120.335 E79.69648
G1 X128.132 Y120.461 E79.72201
G1 X91.752 Y120.471 E80.93201
G1 X91.103 Y120.312 E80.95424
G1 X90.416 Y119.957 E80.97996
G1 X89.95 Y119.454 E81.00276
G1 X89.536 Y118.76 E81.02964
G1 X89.41 Y118.003 E81.05517
G1 X89.4 Y81.623 E82.26517
G1 X89.559 Y80.974 E82.28739
G1 X89.914 Y80.287 E82.31311
G0 F6000 X90.237 Y80.533
G1 F1200 X90.656 Y80.145 E82.33211
G1 X91.251 Y79.79 E82.35515
G1 X91.934 Y79.676 E82.37818
G1 X128.198 Y79.671 E83.58433
G1 X128.758 Y79.808 E83.6035
G1 X129.338 Y80.108 E83.62522
G1 X129.726 Y80.527 E83.64421
G1 X130.081 Y81.122 E83.66726
G1 X130.195 Y81.805 E83.69029
G1 X130.2 Y118.069 E84.89644
G1 X130.063 Y118.629 E84.91561
G1 X129.763 Y119.209 E84.93733
G1 X129.344 Y119.597 E84.95632
G1 X128.749 Y119.952 E84.97937
G1 X128.066 Y120.066 E85.0024
G1 X91.802 Y120.071 E86.20854
G1 X91.242 Y119.934 E86.22772
G1 X90.662 Y119.634 E86.24944
G1 X90.274 Y119.215 E86.26843
G1 X89.919 Y118.62 E86.29147
G1 X89.805 Y117.937 E86.31451
G1 X89.8 Y81.673 E87.52065
G1 X89.937 Y81.113 E87.53983
G1 X90.237 Y80.533 E87.56154
G0 F6000 X90.56 Y80.779
G1 F1200 X90.898 Y80.466 E87.57687
G1 X91.389 Y80.173 E87.59588
G1 X92 Y80.071 E87.61649
G1 X128.148 Y80.071 E88.81877
G1 X128.619 Y80.186 E88.8349
G1 X129.092 Y80.431 E88.85262
G1 X129.405 Y80.769 E88.86794
G1 X129.698 Y81.26 E88.88696
G1 X129.8 Y81.871 E88.90756
G1 X129.8 Y118.019 E90.10985
G1 X129.685 Y118.49 E90.12597
G1 X129.44 Y118.963 E90.14369
G1 X129.102 Y119.276 E90.15901
G1 X128.611 Y119.569 E90.17803
G1 X128 Y119.671 E90.19863
G1 X91.852 Y119.671 E91.40092
G1 X91.381 Y119.556 E91.41705
G1 X90.908 Y119.311 E91.43476
G1 X90.595 Y118.973 E91.45008
G1 X90.302 Y118.482 E91.4691
G1 X90.2 Y117.871 E91.48971
G1 X90.2 Y81.723 E92.69199
G1 X90.315 Y81.252 E92.70812
G1 X90.56 Y80.779 E92.72584
G0 F6000 X90.883 Y81.025
G1 F1200 X91.14 Y80.787 E92.73749
G1 X91.527 Y80.556 E92.75248
G1 X92 Y80.471 E92.76846
G1 X128.098 Y80.471 E93.96908
G1 X128.48 Y80.564 E93.98216
G1 X128.846 Y80.754 E93.99588
G1 X129.084 Y81.011 E94.00753
G1 X129.315 Y81.398 E94.02252
G1 X129.4 Y81.871 E94.0385
G1 X129.4 Y117.969 E95.23913
G1 X129.307 Y118.351 E95.2522
G1 X129.117 Y118.717 E95.26592
G1 X128.86 Y118.955 E95.27757
G1 X128.473 Y119.186 E95.29256
G1 X128 Y119.271 E95.30854
G1 X91.902 Y119.271 E96.50917
G1 X91.52 Y119.178 E96.52224
G1 X91.154 Y118.988 E96.53596
G1 X90.916 Y118.731 E96.54761
G1 X90.685 Y118.344 E96.5626
G1 X90.6 Y117.871 E96.57858
G1 X90.6 Y81.773 E97.77921
G1 X90.693 Y81.391 E97.79228
G1 X90.883 Y81.025 E97.806
G0 F6000 X91.207 Y81.27
G1 F1200 X91.345 Y81.131 E97.81252
G1 X91.672 Y80.936 E97.82518
G1 X92 Y80.871 E97.8363
G1 X128.049 Y80.871 E99.03529
G1 X128.338 Y80.941 E99.04518
G1 X128.601 Y81.078 E99.05505
G1 X128.74 Y81.216 E99.06156
G1 X128.935 Y81.543 E99.07423
G1 X129 Y81.871 E99.08535
G1 X129 Y117.92 E100.28434
G1 X128.93 Y118.209 E100.29423
G1 X128.793 Y118.472 E100.30409
G1 X128.655 Y118.611 E100.31061
G1 X128.328 Y118.806 E100.32327
G1 X128 Y118.871 E100.33439
G1 X91.951 Y118.871 E101.53339
G1 X91.662 Y118.801 E101.54328
G1 X91.399 Y118.664 E101.55314
G1 X91.26 Y118.526 E101.55966
G1 X91.065 Y118.199 E101.57232
G1 X91 Y117.871 E101.58344
G1 X91 Y81.822 E102.78244
G1 X91.07 Y81.533 E102.79233
G1 X91.207 Y81.27 E102.80219
G0 F6000 X91.839 Y81.752
G1 F1200 X92 Y81.671 E102.80818
G1 X128 Y81.671 E104.00555
G1 X128.119 Y81.71 E104.00971
G1 X128.2 Y81.871 E104.01571
G1 X128.2 Y117.871 E105.21307
G1 X128.161 Y117.99 E105.21724
G1 X128 Y118.071 E105.22323
G1 X92 Y118.071 E106.4206
G1 X91.881 Y118.032 E106.42476
G1 X91.8 Y117.871 E106.43076
G1 X91.8 Y81.871 E107.62812
G1 X91.839 Y81.752 E107.63229
G0 F6000 X91.55 Y81.475
G1 F1200 X91.82 Y81.314 E107.64274
G1 X92 Y81.271 E107.6489
G1 X128 Y81.271 E108.84626
G1 X128.244 Y81.33 E108.85461
G1 X128.396 Y81.421 E108.8605
G1 X128.557 Y81.691 E108.87096
G1 X128.6 Y81.871 E108.87711
G1 X128.6 Y117.871 E110.07448
G1 X128.541 Y118.115 E110.08283
G1 X128.45 Y118.267 E110.08872
G1 X128.18 Y118.428 E110.09918
G1 X128 Y118.471 E110.10533
G1 X92 Y118.471 E111.3027
G1 X91.756 Y118.412 E111.31105
G1 X91.604 Y118.321 E111.31694
G1 X91.443 Y118.051 E111.32739
G1 X91.4 Y117.871 E111.33355
G1 X91.4 Y81.871 E112.53091
G1 X91.459 Y81.627 E112.53926
G1 X91.55 Y81.475 E112.54516
G1 F2700 E107.54516
G0 F6000 X96.75 Y86.621
G1 F2700 E112.54516
G1 F1200 X123.25 Y86.621 E113.42655
G1 X123.25 Y113.121 E114.30794
G1 X114.914 Y113.121 E114.5852
G1 X114.909 Y113.088 E114.58631
G1 X114.852 Y112.978 E114.59043
G1 X114.745 Y112.934 E114.59428
G1 X114.745 Y112.884 E114.59594
G1 X114.698 Y112.755 E114.60051
G1 X114.385 Y112.384 E114.61665
G1 X114.361 Y112.36 E114.61778
G1 X113.988 Y112.046 E114.634
G1 X113.969 Y112.032 E114.63478
G1 X113.708 Y111.859 E114.6452
G1 X113.688 Y111.848 E114.64596
G1 X113.366 Y111.685 E114.65796
G1 X113.339 Y111.673 E114.65894
G1 X113.018 Y111.567 E114.67019
G1 X113 Y111.562 E114.67081
G1 X112.62 Y111.474 E114.68378
G1 X112.592 Y111.47 E114.68472
G1 X112.129 Y111.43 E114.70018
G1 X112.117 Y111.429 E114.70058
G1 X111.772 Y111.421 E114.71206
G1 X111.766 Y111.421 E114.71226
