;FLAVOR:Marlin
;TIME:8856
;Filament used: 8.41894m
;Layer height: 0.2
;MINX:59.2
;MINY:90.2
;MINZ:0.2
;MAXX:160.8
;MAXY:129.8
;MAXZ:39.2
;Generated with Cura_SteamEngine 5.4.0
M140 S50
M105
M190 S50
M104 S200
M105
M109 S200
M82 ;absolute extrusion mode
M201 X500.00 Y500.00 Z100.00 E5000.00 ;Setup machine max acceleration
M203 X500.00 Y500.00 Z10.00 E50.00 ;Setup machine max feedrate
M204 P500.00 R1000.00 T500.00 ;Setup Print/Retract/Travel acceleration
M205 X8.00 Y8.00 Z0.40 E5.00 ;Setup Jerk
M220 S100 ;Reset Feedrate
M221 S100 ;Reset Flowrate

G28 ;Home

G92 E0 ;Reset Extruder
G1 Z2.0 F3000 ;Move Z Axis up
G1 X10.1 Y20 Z0.28 F5000.0 ;Move to start position
G1 X10.1 Y200.0 Z0.28 F1500.0 E15 ;Draw the first line
G1 X10.4 Y200.0 Z0.28 F5000.0 ;Move to side a little
G1 X10.4 Y20 Z0.28 F1500.0 E30 ;Draw the second line
G92 E0 ;Reset Extruder
G1 Z2.0 F3000 ;Move Z Axis up

G92 E0
G92 E0
G1 F2700 E-5
;LAYER_COUNT:196
;LAYER:0
M107
G0 F6000 X62.28 Y91.764 Z0.2
;TYPE:SKIRT
G1 F2700 E0
G1 F1200 X64.303 Y90.557 E0.07835
G1 X66.021 Y90.275 E0.13626
G1 X153.853 Y90.2 E3.05756
G1 X155.749 Y90.666 E3.1225
G1 X157.777 Y91.719 E3.1985
G1 X159.236 Y93.28 E3.26957
G1 X160.443 Y95.303 E3.34792
G1 X160.725 Y97.021 E3.40583
G1 X160.8 Y122.853 E4.265
G1 X160.334 Y124.749 E4.32994
G1 X159.281 Y126.777 E4.40594
G1 X157.72 Y128.236 E4.47701
G1 X155.697 Y129.443 E4.55536
G1 X153.979 Y129.725 E4.61327
G1 X66.147 Y129.8 E7.53457
G1 X64.251 Y129.334 E7.59951
G1 X62.223 Y128.281 E7.67551
G1 X60.764 Y126.72 E7.74658
G1 X59.557 Y124.697 E7.82493
G1 X59.275 Y122.979 E7.88284
G1 X59.2 Y97.147 E8.74202
G1 X59.666 Y95.251 E8.80695
G1 X60.719 Y93.223 E8.88296
G1 X62.28 Y91.764 E8.95402
G0 F6000 X62.519 Y92.088
G1 F1200 X64.443 Y90.94 E9.02854
G1 X66.086 Y90.67 E9.08392
G1 X153.807 Y90.6 E12.00153
G1 X155.606 Y91.042 E12.06315
G1 X157.532 Y92.042 E12.13533
G1 X158.912 Y93.519 E12.20256
G1 X160.06 Y95.443 E12.27708
G1 X160.33 Y97.086 E12.33245
G1 X160.4 Y122.807 E13.18794
G1 X159.958 Y124.606 E13.24956
G1 X158.958 Y126.532 E13.32174
G1 X157.481 Y127.912 E13.38897
G1 X155.557 Y129.06 E13.46348
G1 X153.914 Y129.33 E13.51886
G1 X66.193 Y129.4 E16.43648
G1 X64.394 Y128.958 E16.49809
G1 X62.468 Y127.958 E16.57027
G1 X61.088 Y126.481 E16.6375
G1 X59.94 Y124.557 E16.71202
G1 X59.67 Y122.914 E16.7674
G1 X59.6 Y97.193 E17.62289
G1 X60.042 Y95.394 E17.6845
G1 X61.042 Y93.468 E17.75668
G1 X62.519 Y92.088 E17.82391
G0 F6000 X62.761 Y92.409
G1 F1200 X64.581 Y91.323 E17.8944
G1 X66.151 Y91.065 E17.94732
G1 X153.76 Y91 E20.86121
G1 X155.464 Y91.419 E20.91957
G1 X157.287 Y92.365 E20.98788
G1 X158.591 Y93.761 E21.05142
G1 X159.677 Y95.581 E21.12191
G1 X159.935 Y97.151 E21.17483
G1 X160 Y122.76 E22.02659
G1 X159.581 Y124.464 E22.08495
G1 X158.635 Y126.287 E22.15327
G1 X157.239 Y127.591 E22.2168
G1 X155.419 Y128.677 E22.28729
G1 X153.849 Y128.935 E22.34021
G1 X66.24 Y129 E25.2541
G1 X64.536 Y128.581 E25.31246
G1 X62.713 Y127.635 E25.38077
G1 X61.409 Y126.239 E25.44431
G1 X60.323 Y124.419 E25.5148
G1 X60.065 Y122.849 E25.56772
G1 X60 Y97.24 E26.41948
G1 X60.419 Y95.536 E26.47785
G1 X61.365 Y93.713 E26.54616
G1 X62.761 Y92.409 E26.60969
G0 F6000 X63.003 Y92.73
G1 F1200 X64.719 Y91.706 E26.67616
G1 X66.216 Y91.46 E26.72662
G1 X153.714 Y91.4 E29.63681
G1 X155.321 Y91.795 E29.69185
G1 X157.042 Y92.688 E29.75634
G1 X158.27 Y94.003 E29.81618
G1 X159.294 Y95.719 E29.88265
G1 X159.54 Y97.216 E29.9331
G1 X159.6 Y122.714 E30.78117
G1 X159.205 Y124.321 E30.83621
G1 X158.312 Y126.042 E30.9007
G1 X156.997 Y127.27 E30.96054
G1 X155.281 Y128.294 E31.02701
G1 X153.784 Y128.54 E31.07747
G1 X66.286 Y128.6 E33.98766
G1 X64.679 Y128.205 E34.0427
G1 X62.958 Y127.312 E34.10719
G1 X61.73 Y125.997 E34.16703
G1 X60.706 Y124.281 E34.2335
G1 X60.46 Y122.784 E34.28395
G1 X60.4 Y97.286 E35.13202
G1 X60.795 Y95.679 E35.18706
G1 X61.688 Y93.958 E35.25155
G1 X63.003 Y92.73 E35.31139
G0 F6000 X63.245 Y93.051
G1 F1200 X64.857 Y92.089 E35.37383
G1 X66.281 Y91.855 E35.42183
G1 X153.668 Y91.8 E38.32833
G1 X155.178 Y92.171 E38.38005
G1 X156.797 Y93.011 E38.44071
G1 X157.949 Y94.245 E38.49686
G1 X158.911 Y95.857 E38.5593
G1 X159.145 Y97.281 E38.6073
G1 X159.2 Y122.668 E39.45167
G1 X158.829 Y124.178 E39.50339
G1 X157.989 Y125.797 E39.56405
G1 X156.755 Y126.949 E39.6202
G1 X155.143 Y127.911 E39.68264
G1 X153.719 Y128.145 E39.73064
G1 X66.332 Y128.2 E42.63714
G1 X64.822 Y127.829 E42.68886
G1 X63.203 Y126.989 E42.74952
G1 X62.051 Y125.755 E42.80567
G1 X61.089 Y124.143 E42.86811
G1 X60.855 Y122.719 E42.9161
G1 X60.8 Y97.332 E43.76048
G1 X61.171 Y95.822 E43.8122
G1 X62.011 Y94.203 E43.87286
G1 X63.245 Y93.051 E43.92901
G0 F6000 X63.487 Y93.372
G1 F1200 X64.995 Y92.472 E43.98742
G1 X66.346 Y92.25 E44.03296
G1 X153.621 Y92.2 E46.93574
G1 X155.036 Y92.548 E46.9842
G1 X156.552 Y93.334 E47.041
G1 X157.628 Y94.487 E47.09345
G1 X158.528 Y95.995 E47.15186
G1 X158.75 Y97.346 E47.1974
G1 X158.8 Y122.621 E48.03805
G1 X158.452 Y124.036 E48.08652
G1 X157.666 Y125.552 E48.14331
G1 X156.513 Y126.628 E48.19577
G1 X155.005 Y127.528 E48.25418
G1 X153.654 Y127.75 E48.29971
G1 X66.379 Y127.8 E51.20249
G1 X64.964 Y127.452 E51.25096
G1 X63.448 Y126.666 E51.30775
G1 X62.372 Y125.513 E51.36021
G1 X61.472 Y124.005 E51.41862
G1 X61.25 Y122.654 E51.46415
G1 X61.2 Y97.379 E52.30481
G1 X61.548 Y95.964 E52.35327
G1 X62.334 Y94.448 E52.41007
G1 X63.487 Y93.372 E52.46252
G0 F6000 X63.729 Y93.693
G1 F1200 X65.133 Y92.855 E52.5169
G1 X66.411 Y92.645 E52.55998
G1 X153.575 Y92.6 E55.45907
G1 X154.893 Y92.924 E55.50421
G1 X156.307 Y93.657 E55.55718
G1 X157.307 Y94.729 E55.60594
G1 X158.145 Y96.133 E55.66033
G1 X158.355 Y97.411 E55.7034
G1 X158.4 Y122.575 E56.54036
G1 X158.076 Y123.893 E56.5855
G1 X157.343 Y125.307 E56.63848
G1 X156.271 Y126.307 E56.68724
G1 X154.867 Y127.145 E56.74162
G1 X153.589 Y127.355 E56.7847
G1 X66.425 Y127.4 E59.68378
G1 X65.107 Y127.076 E59.72892
G1 X63.693 Y126.343 E59.7819
G1 X62.693 Y125.271 E59.83066
G1 X61.855 Y123.867 E59.88504
G1 X61.645 Y122.589 E59.92812
G1 X61.6 Y97.425 E60.76508
G1 X61.924 Y96.107 E60.81022
G1 X62.657 Y94.693 E60.86319
G1 X63.729 Y93.693 E60.91195
G0 F6000 X63.974 Y94.012
G1 F1200 X65.271 Y93.238 E60.96219
G1 X66.476 Y93.04 E61.0028
G1 X153.529 Y93 E63.8982
G1 X154.75 Y93.3 E63.94002
G1 X156.06 Y93.979 E63.98909
G1 X156.988 Y94.974 E64.03435
G1 X157.762 Y96.271 E64.08458
G1 X157.96 Y97.476 E64.1252
G1 X158 Y122.529 E64.95846
G1 X157.7 Y123.75 E65.00028
G1 X157.021 Y125.06 E65.04936
G1 X156.026 Y125.988 E65.09461
G1 X154.729 Y126.762 E65.14485
G1 X153.524 Y126.96 E65.18546
G1 X66.471 Y127 E68.08086
G1 X65.25 Y126.7 E68.12268
G1 X63.94 Y126.021 E68.17175
G1 X63.012 Y125.026 E68.21701
G1 X62.238 Y123.729 E68.26724
G1 X62.04 Y122.524 E68.30786
G1 X62 Y97.471 E69.14113
G1 X62.3 Y96.25 E69.18294
G1 X62.979 Y94.94 E69.23202
G1 X63.974 Y94.012 E69.27727
G0 F6000 X64.216 Y94.334
G1 F1200 X65.411 Y93.621 E69.32356
G1 X66.541 Y93.435 E69.36165
G1 X153.483 Y93.4 E72.25335
G1 X154.607 Y93.676 E72.29184
G1 X155.813 Y94.301 E72.33702
G1 X156.666 Y95.216 E72.37863
G1 X157.379 Y96.411 E72.42491
G1 X157.565 Y97.541 E72.463
G1 X157.6 Y122.483 E73.29258
G1 X157.324 Y123.607 E73.33107
G1 X156.699 Y124.813 E73.37625
G1 X155.784 Y125.666 E73.41785
G1 X154.589 Y126.379 E73.46414
G1 X153.459 Y126.565 E73.50223
G1 X66.517 Y126.6 E76.39393
G1 X65.393 Y126.324 E76.43243
G1 X64.187 Y125.699 E76.4776
G1 X63.334 Y124.784 E76.51921
G1 X62.621 Y123.589 E76.56549
G1 X62.435 Y122.459 E76.60358
G1 X62.4 Y97.517 E77.43316
G1 X62.676 Y96.393 E77.47165
G1 X63.301 Y95.187 E77.51683
G1 X64.216 Y94.334 E77.55844
G0 F6000 X64.458 Y94.656
G1 F1200 X65.551 Y94.004 E77.60077
G1 X66.606 Y93.83 E77.63633
G1 X153.436 Y93.8 E80.52431
G1 X154.465 Y94.053 E80.55955
G1 X155.566 Y94.623 E80.60079
G1 X156.344 Y95.458 E80.63875
G1 X156.996 Y96.551 E80.68108
G1 X157.17 Y97.606 E80.71664
G1 X157.2 Y122.436 E81.54249
G1 X156.947 Y123.465 E81.57773
G1 X156.377 Y124.566 E81.61897
G1 X155.542 Y125.344 E81.65693
G1 X154.449 Y125.996 E81.69926
G1 X153.394 Y126.17 E81.73482
G1 X66.564 Y126.2 E84.6228
G1 X65.535 Y125.947 E84.65804
G1 X64.434 Y125.377 E84.69928
G1 X63.656 Y124.542 E84.73724
G1 X63.004 Y123.449 E84.77957
G1 X62.83 Y122.394 E84.81513
G1 X62.8 Y97.564 E85.64098
G1 X63.053 Y96.535 E85.67623
G1 X63.623 Y95.434 E85.71746
G1 X64.458 Y94.656 E85.75542
G0 F6000 X64.7 Y94.978
G1 F1200 X65.691 Y94.387 E85.7938
G1 X66.671 Y94.225 E85.82684
G1 X153.39 Y94.2 E88.71112
G1 X154.322 Y94.429 E88.74304
G1 X155.319 Y94.945 E88.78038
G1 X156.022 Y95.7 E88.81469
G1 X156.613 Y96.691 E88.85307
G1 X156.775 Y97.671 E88.88611
G1 X156.8 Y122.39 E89.70826
G1 X156.571 Y123.322 E89.74018
G1 X156.055 Y124.319 E89.77752
G1 X155.3 Y125.022 E89.81183
G1 X154.309 Y125.613 E89.85021
G1 X153.329 Y125.775 E89.88325
G1 X66.61 Y125.8 E92.76753
G1 X65.678 Y125.571 E92.79945
G1 X64.681 Y125.055 E92.83679
G1 X63.978 Y124.3 E92.87111
G1 X63.387 Y123.309 E92.90948
G1 X63.225 Y122.329 E92.94252
G1 X63.2 Y97.61 E93.76468
G1 X63.429 Y96.678 E93.7966
G1 X63.945 Y95.681 E93.83394
G1 X64.7 Y94.978 E93.86825
G0 F6000 X64.939 Y95.302
G1 F1200 X65.831 Y94.77 E93.90279
G1 X66.736 Y94.62 E93.9333
G1 X153.344 Y94.6 E96.8139
G1 X154.179 Y94.805 E96.84249
G1 X155.074 Y95.268 E96.87601
G1 X155.698 Y95.939 E96.90649
G1 X156.23 Y96.831 E96.94103
G1 X156.38 Y97.736 E96.97154
G1 X156.4 Y122.344 E97.79001
G1 X156.195 Y123.179 E97.8186
G1 X155.732 Y124.074 E97.85212
G1 X155.061 Y124.698 E97.88259
G1 X154.169 Y125.23 E97.91714
G1 X153.264 Y125.38 E97.94765
G1 X66.656 Y125.4 E100.82824
G1 X65.821 Y125.195 E100.85684
G1 X64.926 Y124.732 E100.89036
G1 X64.302 Y124.061 E100.92083
G1 X63.77 Y123.169 E100.95538
G1 X63.62 Y122.264 E100.98589
G1 X63.6 Y97.656 E101.80435
G1 X63.805 Y96.821 E101.83295
G1 X64.268 Y95.926 E101.86646
G1 X64.939 Y95.302 E101.89694
G0 F6000 X65.178 Y95.626
G1 F1200 X65.971 Y95.153 E101.92765
G1 X66.802 Y95.015 E101.95567
G1 X153.298 Y95 E104.83254
G1 X154.036 Y95.181 E104.85781
G1 X154.829 Y95.591 E104.8875
G1 X155.374 Y96.178 E104.91414
G1 X155.847 Y96.971 E104.94486
G1 X155.985 Y97.802 E104.97287
G1 X156 Y122.298 E105.78761
G1 X155.819 Y123.036 E105.81289
G1 X155.409 Y123.829 E105.84258
G1 X154.822 Y124.374 E105.86922
G1 X154.029 Y124.847 E105.89993
G1 X153.198 Y124.985 E105.92795
G1 X66.702 Y125 E108.80482
G1 X65.964 Y124.819 E108.83009
G1 X65.171 Y124.409 E108.85978
G1 X64.626 Y123.822 E108.88642
G1 X64.153 Y123.029 E108.91714
G1 X64.015 Y122.198 E108.94515
G1 X64 Y97.702 E109.75989
G1 X64.181 Y96.964 E109.78517
G1 X64.591 Y96.171 E109.81486
G1 X65.178 Y95.626 E109.8415
G0 F6000 X65.417 Y95.95
G1 F1200 X66.111 Y95.536 E109.86838
G1 X66.868 Y95.41 E109.8939
G1 X153.248 Y95.4 E112.76691
G1 X153.897 Y95.559 E112.78914
G1 X154.584 Y95.914 E112.81486
G1 X155.05 Y96.417 E112.83766
G1 X155.464 Y97.111 E112.86454
G1 X155.59 Y97.868 E112.89006
G1 X155.6 Y122.248 E113.70095
G1 X155.441 Y122.897 E113.72317
G1 X155.086 Y123.584 E113.74889
G1 X154.583 Y124.05 E113.7717
G1 X153.889 Y124.464 E113.79857
G1 X153.132 Y124.59 E113.8241
G1 X66.752 Y124.6 E116.69711
G1 X66.103 Y124.441 E116.71933
G1 X65.416 Y124.086 E116.74505
G1 X64.95 Y123.583 E116.76786
G1 X64.536 Y122.889 E116.79474
G1 X64.41 Y122.132 E116.82026
G1 X64.4 Y97.752 E117.63114
G1 X64.559 Y97.103 E117.65337
G1 X64.914 Y96.416 E117.67909
G1 X65.417 Y95.95 E117.70189
G0 F6000 X65.656 Y96.274
G1 F1200 X66.251 Y95.919 E117.72494
G1 X66.934 Y95.805 E117.74797
G1 X153.198 Y95.8 E120.61712
G1 X153.758 Y95.937 E120.6363
G1 X154.338 Y96.237 E120.65802
G1 X154.726 Y96.656 E120.67701
G1 X155.081 Y97.251 E120.70005
G1 X155.195 Y97.934 E120.72308
G1 X155.2 Y122.198 E121.53011
G1 X155.063 Y122.758 E121.54928
G1 X154.763 Y123.338 E121.571
G1 X154.344 Y123.726 E121.59
G1 X153.749 Y124.081 E121.61304
G1 X153.066 Y124.195 E121.63607
G1 X66.802 Y124.2 E124.50522
G1 X66.242 Y124.063 E124.5244
G1 X65.662 Y123.763 E124.54612
G1 X65.274 Y123.344 E124.56511
G1 X64.919 Y122.749 E124.58815
G1 X64.805 Y122.066 E124.61119
G1 X64.8 Y97.802 E125.41821
G1 X64.937 Y97.242 E125.43738
G1 X65.237 Y96.662 E125.4591
G1 X65.656 Y96.274 E125.4781
G0 F6000 X65.898 Y96.595
G1 F1200 X66.389 Y96.302 E125.49711
G1 X67 Y96.2 E125.51772
G1 X153.148 Y96.2 E128.38301
G1 X153.619 Y96.315 E128.39914
G1 X154.092 Y96.56 E128.41685
G1 X154.405 Y96.898 E128.43218
G1 X154.698 Y97.389 E128.45119
G1 X154.8 Y98 E128.4718
G1 X154.8 Y122.148 E129.27496
G1 X154.685 Y122.619 E129.29109
G1 X154.44 Y123.092 E129.3088
G1 X154.102 Y123.405 E129.32413
G1 X153.611 Y123.698 E129.34314
G1 X153 Y123.8 E129.36375
G1 X66.852 Y123.8 E132.22904
G1 X66.381 Y123.685 E132.24517
G1 X65.908 Y123.44 E132.26288
G1 X65.595 Y123.102 E132.27821
G1 X65.302 Y122.611 E132.29722
G1 X65.2 Y122 E132.31783
G1 X65.2 Y97.852 E133.12099
G1 X65.315 Y97.381 E133.13712
G1 X65.56 Y96.908 E133.15484
G1 X65.898 Y96.595 E133.17016
G0 F6000 X66.14 Y96.916
G1 F1200 X66.527 Y96.685 E133.18515
G1 X67 Y96.6 E133.20113
G1 X153.098 Y96.6 E136.06476
G1 X153.48 Y96.693 E136.07784
G1 X153.846 Y96.883 E136.09155
G1 X154.084 Y97.14 E136.10321
G1 X154.315 Y97.527 E136.1182
G1 X154.4 Y98 E136.13418
G1 X154.4 Y122.098 E136.93568
G1 X154.307 Y122.48 E136.94876
G1 X154.117 Y122.846 E136.96247
G1 X153.86 Y123.084 E136.97412
G1 X153.473 Y123.315 E136.98911
G1 X153 Y123.4 E137.0051
G1 X66.902 Y123.4 E139.86873
G1 X66.52 Y123.307 E139.88181
G1 X66.154 Y123.117 E139.89552
G1 X65.916 Y122.86 E139.90717
G1 X65.685 Y122.473 E139.92216
G1 X65.6 Y122 E139.93815
G1 X65.6 Y97.902 E140.73965
G1 X65.693 Y97.52 E140.75273
G1 X65.883 Y97.154 E140.76644
G1 X66.14 Y96.916 E140.77809
G0 F6000 X66.345 Y97.26
G1 F1200 X66.672 Y97.065 E140.79076
G1 X67 Y97 E140.80188
G1 X153.049 Y97 E143.66388
G1 X153.338 Y97.07 E143.67377
G1 X153.601 Y97.207 E143.68363
G1 X153.74 Y97.345 E143.69015
G1 X153.935 Y97.672 E143.70281
G1 X154 Y98 E143.71393
G1 X154 Y122.049 E144.5138
G1 X153.93 Y122.338 E144.52369
G1 X153.793 Y122.601 E144.53356
G1 X153.655 Y122.74 E144.54007
G1 X153.328 Y122.935 E144.55273
G1 X153 Y123 E144.56386
G1 X66.951 Y123 E147.42586
G1 X66.662 Y122.93 E147.43575
G1 X66.399 Y122.793 E147.44561
G1 X66.26 Y122.655 E147.45212
G1 X66.065 Y122.328 E147.46479
G1 X66 Y122 E147.47591
G1 X66 Y97.951 E148.27578
G1 X66.07 Y97.662 E148.28567
G1 X66.207 Y97.399 E148.29554
G1 X66.345 Y97.26 E148.30205
G0 F6000 X66.839 Y97.881
G1 F1200 X67 Y97.8 E148.30804
G1 X153 Y97.8 E151.16842
G1 X153.119 Y97.839 E151.17258
G1 X153.2 Y98 E151.17858
G1 X153.2 Y122 E151.97682
G1 X153.161 Y122.119 E151.98098
G1 X153 Y122.2 E151.98698
G1 X67 Y122.2 E154.84735
G1 X66.881 Y122.161 E154.85152
G1 X66.8 Y122 E154.85751
G1 X66.8 Y98 E155.65575
G1 X66.839 Y97.881 E155.65992
G0 F6000 X66.55 Y97.604
G1 F1200 X66.82 Y97.443 E155.67037
G1 X67 Y97.4 E155.67653
G1 X153 Y97.4 E158.5369
G1 X153.244 Y97.459 E158.54525
G1 X153.396 Y97.55 E158.55114
G1 X153.557 Y97.82 E158.5616
G1 X153.6 Y98 E158.56775
G1 X153.6 Y122 E159.366
G1 X153.541 Y122.244 E159.37435
G1 X153.45 Y122.396 E159.38024
G1 X153.18 Y122.557 E159.39069
G1 X153 Y122.6 E159.39685
G1 X67 Y122.6 E162.25722
G1 X66.756 Y122.541 E162.26557
G1 X66.604 Y122.45 E162.27146
G1 X66.443 Y122.18 E162.28192
G1 X66.4 Y122 E162.28807
G1 X66.4 Y98 E163.08632
G1 X66.459 Y97.756 E163.09467
G1 X66.55 Y97.604 E163.10056
G1 F2700 E158.10056
;MESH:motor_support_R.STL
G0 F6000 X71.082 Y107.124
G0 X73.445 Y112.38
;TYPE:WALL-INNER
G1 F2700 E163.10056
G1 F1200 X73.011 Y112.553 E163.1161
G1 X72.571 Y112.648 E163.13107
G1 X72.077 Y112.672 E163.14752
G1 X71.605 Y112.616 E163.16333
G1 X71.146 Y112.477 E163.17928
G1 X70.723 Y112.263 E163.19505
G1 X70.344 Y111.981 E163.21076
G1 X70.017 Y111.642 E163.22642
G1 X69.752 Y111.252 E163.24211
G1 X69.555 Y110.814 E163.25808
G1 X69.439 Y110.361 E163.27363
G1 X69.394 Y109.887 E163.28947
G1 X69.432 Y109.459 E163.30376
G1 X69.552 Y108.963 E163.32073
G1 X69.75 Y108.523 E163.33678
G1 X70.012 Y108.136 E163.35233
G1 X70.346 Y107.786 E163.36842
G1 X70.719 Y107.51 E163.38385
G1 X71.141 Y107.296 E163.39959
G1 X71.611 Y107.153 E163.41593
G1 X72.062 Y107.098 E163.43104
G1 X72.548 Y107.115 E163.44721
G1 X73.006 Y107.215 E163.4628
