;FLAVOR:Marlin
;TIME:16607
;Filament used: 16.19m
;Layer height: 0.2
;MINX:60.265
;MINY:34.306
;MINZ:0.2
;MAXX:169.844
;MAXY:146.744
;MAXZ:37
;Generated with Cura_SteamEngine 5.4.0
M140 S50
M105
M190 S50
M104 S200
M105
M109 S200
M82 ;absolute extrusion mode
M201 X500.00 Y500.00 Z100.00 E5000.00 ;Setup machine max acceleration
M203 X500.00 Y500.00 Z10.00 E50.00 ;Setup machine max feedrate
M204 P500.00 R1000.00 T500.00 ;Setup Print/Retract/Travel acceleration
M205 X8.00 Y8.00 Z0.40 E5.00 ;Setup Jerk
M220 S100 ;Reset Feedrate
M221 S100 ;Reset Flowrate

G28 ;Home

G92 E0 ;Reset Extruder
G1 Z2.0 F3000 ;Move Z Axis up
G1 X10.1 Y20 Z0.28 F5000.0 ;Move to start position
G1 X10.1 Y200.0 Z0.28 F1500.0 E15 ;Draw the first line
G1 X10.4 Y200.0 Z0.28 F5000.0 ;Move to side a little
G1 X10.4 Y20 Z0.28 F1500.0 E30 ;Draw the second line
G92 E0 ;Reset Extruder
G1 Z2.0 F3000 ;Move Z Axis up

G92 E0
G92 E0
G1 F2700 E-5
;LAYER_COUNT:185
;LAYER:0
M107
G0 F6000 X70.394 Y56.351 Z0.2
;TYPE:SKIRT
G1 F2700 E0
G1 F1200 X74.384 Y51.688 E0.20412
G1 X77.961 Y48.258 E0.36895
G1 X83.07 Y44.272 E0.58447
G1 X87.283 Y41.626 E0.74994
G1 X92.985 Y38.804 E0.96155
G1 X98.02 Y36.932 E1.14021
G1 X103.256 Y35.543 E1.32039
G1 X108.917 Y34.636 E1.51107
G1 X115.48 Y34.306 E1.72964
G1 X121.192 Y34.636 E1.91994
G1 X126.854 Y35.543 E2.11065
G1 X132.089 Y36.932 E2.2908
G1 X137.124 Y38.804 E2.46946
G1 X142.825 Y41.625 E2.68102
G1 X147.04 Y44.272 E2.84656
G1 X152.148 Y48.258 E3.06206
G1 X155.724 Y51.687 E3.22685
G1 X159.955 Y56.66 E3.44401
G1 X162.75 Y60.726 E3.60812
G1 X165.825 Y66.35 E3.82131
G1 X167.909 Y71.326 E4.00074
G1 X169.606 Y76.507 E4.18207
G1 X169.844 Y78.341 E4.24358
G1 X163.691 Y118.27 E5.5873
G1 X163.033 Y120.085 E5.65151
G1 X159.715 Y124.699 E5.84053
G1 X155.725 Y129.362 E6.04465
G1 X152.148 Y132.792 E6.20948
G1 X147.04 Y136.778 E6.42498
G1 X142.827 Y139.424 E6.59045
G1 X137.124 Y142.246 E6.80208
G1 X132.089 Y144.118 E6.98075
G1 X126.854 Y145.507 E7.16089
G1 X121.192 Y146.414 E7.35161
G1 X114.63 Y146.744 E7.57014
G1 X108.917 Y146.414 E7.76047
G1 X103.256 Y145.507 E7.95116
G1 X98.02 Y144.118 E8.13133
G1 X92.985 Y142.246 E8.31
G1 X87.283 Y139.424 E8.5216
G1 X83.07 Y136.778 E8.68707
G1 X77.961 Y132.792 E8.9026
G1 X74.384 Y129.362 E9.06743
G1 X70.154 Y124.39 E9.28455
G1 X67.36 Y120.324 E9.44863
G1 X64.266 Y114.663 E9.6632
G1 X62.21 Y109.753 E9.84025
G1 X60.504 Y104.543 E10.02259
G1 X60.265 Y102.709 E10.0841
G1 X66.418 Y62.78 E11.42782
G1 X67.076 Y60.965 E11.49204
G1 X70.394 Y56.351 E11.68106
G0 F6000 X70.719 Y56.585
G1 F1200 X74.661 Y51.977 E11.88275
G1 X78.238 Y48.547 E12.04758
G1 X83.283 Y44.611 E12.2604
G1 X87.496 Y41.965 E12.42587
G1 X93.124 Y39.179 E12.63474
G1 X98.123 Y37.319 E12.81214
G1 X103.359 Y35.93 E12.99232
G1 X108.98 Y35.031 E13.18165
G1 X115.457 Y34.705 E13.39735
G1 X121.129 Y35.031 E13.58631
G1 X126.751 Y35.93 E13.77567
G1 X131.986 Y37.319 E13.95582
G1 X136.985 Y39.179 E14.13322
G1 X142.612 Y41.964 E14.34204
G1 X146.827 Y44.611 E14.50759
G1 X151.871 Y48.547 E14.72038
G1 X155.447 Y51.976 E14.88517
G1 X159.625 Y56.887 E15.09962
G1 X162.42 Y60.953 E15.26373
G1 X165.474 Y66.542 E15.47556
G1 X167.529 Y71.45 E15.65253
G1 X169.213 Y76.592 E15.83249
G1 X169.44 Y78.339 E15.89109
G1 X163.302 Y118.17 E17.23151
G1 X162.677 Y119.894 E17.2925
G1 X159.39 Y124.465 E17.47976
G1 X155.448 Y129.073 E17.68145
G1 X151.871 Y132.503 E17.84628
G1 X146.827 Y136.439 E18.05908
G1 X142.614 Y139.085 E18.22455
G1 X136.985 Y141.871 E18.43345
G1 X131.986 Y143.731 E18.61085
G1 X126.751 Y145.12 E18.79099
G1 X121.129 Y146.019 E18.98036
G1 X114.653 Y146.345 E19.19602
G1 X108.98 Y146.019 E19.38502
G1 X103.359 Y145.12 E19.57435
G1 X98.123 Y143.731 E19.75452
G1 X93.124 Y141.871 E19.93193
G1 X87.496 Y139.085 E20.14079
G1 X83.283 Y136.439 E20.30626
G1 X78.238 Y132.503 E20.51909
G1 X74.661 Y129.073 E20.68392
G1 X70.484 Y124.163 E20.89832
G1 X67.69 Y120.097 E21.06241
G1 X64.617 Y114.471 E21.27563
G1 X62.59 Y109.628 E21.45024
G1 X60.896 Y104.456 E21.63126
G1 X60.669 Y102.711 E21.68979
G1 X66.807 Y62.88 E23.03021
G1 X67.432 Y61.156 E23.0912
G1 X70.719 Y56.585 E23.27846
G0 F6000 X71.044 Y56.819
G1 F1200 X74.938 Y52.266 E23.47772
G1 X78.515 Y48.836 E23.64255
G1 X83.496 Y44.95 E23.85268
G1 X87.709 Y42.304 E24.01814
G1 X93.301 Y39.538 E24.22564
G1 X98.226 Y37.706 E24.40042
G1 X103.462 Y36.317 E24.58059
G1 X109.043 Y35.426 E24.76857
G1 X115.434 Y35.104 E24.9814
G1 X121.066 Y35.426 E25.16903
G1 X126.648 Y36.317 E25.35704
G1 X131.883 Y37.706 E25.53718
G1 X136.845 Y39.554 E25.71329
G1 X142.399 Y42.303 E25.9194
G1 X146.614 Y44.95 E26.08495
G1 X151.594 Y48.836 E26.29504
G1 X155.17 Y52.265 E26.45983
G1 X159.295 Y57.114 E26.67157
G1 X162.09 Y61.18 E26.83567
G1 X165.123 Y66.734 E27.04615
G1 X167.149 Y71.574 E27.22066
G1 X168.82 Y76.677 E27.39926
G1 X169.036 Y78.337 E27.45493
G1 X162.913 Y118.07 E28.79206
G1 X162.321 Y119.703 E28.84983
G1 X159.065 Y124.231 E29.03533
G1 X155.171 Y128.784 E29.23459
G1 X151.594 Y132.214 E29.39942
G1 X146.614 Y136.1 E29.60952
G1 X142.401 Y138.746 E29.77499
G1 X136.808 Y141.512 E29.98252
G1 X131.883 Y143.344 E30.15729
G1 X126.648 Y144.733 E30.33743
G1 X121.066 Y145.624 E30.52544
G1 X114.676 Y145.946 E30.73824
G1 X109.043 Y145.624 E30.9259
G1 X103.462 Y144.733 E31.11388
G1 X98.226 Y143.344 E31.29405
G1 X93.264 Y141.496 E31.47016
G1 X87.709 Y138.746 E31.67632
G1 X83.496 Y136.1 E31.84179
G1 X78.515 Y132.214 E32.05191
G1 X74.938 Y128.784 E32.21674
G1 X70.814 Y123.936 E32.42844
G1 X68.02 Y119.87 E32.59252
G1 X64.968 Y114.279 E32.80438
G1 X62.97 Y109.504 E32.97654
G1 X61.289 Y104.371 E33.15619
G1 X61.073 Y102.713 E33.2118
G1 X67.196 Y62.98 E34.54892
G1 X67.788 Y61.347 E34.6067
G1 X71.044 Y56.819 E34.79219
G0 F6000 X71.369 Y57.053
G1 F1200 X75.215 Y52.555 E34.98903
G1 X78.792 Y49.125 E35.15386
G1 X83.709 Y45.289 E35.36128
G1 X87.922 Y42.643 E35.52675
G1 X93.478 Y39.897 E35.73288
G1 X98.329 Y38.093 E35.90502
G1 X103.565 Y36.704 E36.0852
G1 X109.106 Y35.821 E36.27182
G1 X115.411 Y35.503 E36.48179
G1 X121.003 Y35.821 E36.66808
G1 X126.545 Y36.704 E36.85473
G1 X131.78 Y38.093 E37.03487
G1 X136.705 Y39.929 E37.20969
G1 X142.186 Y42.642 E37.4131
G1 X146.401 Y45.289 E37.57864
G1 X151.317 Y49.125 E37.78604
G1 X154.893 Y52.554 E37.95082
G1 X158.965 Y57.341 E38.15985
G1 X161.76 Y61.407 E38.32395
G1 X164.754 Y66.889 E38.53171
G1 X166.769 Y71.699 E38.70516
G1 X168.428 Y76.764 E38.88243
G1 X168.632 Y78.335 E38.93512
G1 X162.524 Y117.97 E40.26895
G1 X161.965 Y119.512 E40.3235
G1 X158.74 Y123.997 E40.50723
G1 X154.894 Y128.495 E40.70407
G1 X151.317 Y131.925 E40.8689
G1 X146.401 Y135.761 E41.07629
G1 X142.188 Y138.407 E41.24176
G1 X136.631 Y141.153 E41.44792
G1 X131.78 Y142.957 E41.62006
G1 X126.545 Y144.346 E41.80021
G1 X121.003 Y145.229 E41.98686
G1 X114.699 Y145.547 E42.1968
G1 X109.106 Y145.229 E42.38312
G1 X103.565 Y144.346 E42.56974
G1 X98.329 Y142.957 E42.74991
G1 X93.404 Y141.121 E42.92473
G1 X87.922 Y138.407 E43.12819
G1 X83.709 Y135.761 E43.29366
G1 X78.792 Y131.925 E43.50108
G1 X75.215 Y128.495 E43.66591
G1 X71.144 Y123.709 E43.87489
G1 X68.35 Y119.643 E44.03897
G1 X65.337 Y114.124 E44.24811
G1 X63.35 Y109.379 E44.41921
G1 X61.681 Y104.284 E44.59753
G1 X61.477 Y102.715 E44.65015
G1 X67.585 Y63.08 E45.98398
G1 X68.144 Y61.538 E46.03853
G1 X71.369 Y57.053 E46.22227
G0 F6000 X71.694 Y57.287
G1 F1200 X75.492 Y52.844 E46.41668
G1 X79.069 Y49.414 E46.58151
G1 X83.922 Y45.628 E46.78623
G1 X88.135 Y42.982 E46.95169
G1 X93.655 Y40.256 E47.15646
G1 X98.432 Y38.48 E47.32597
G1 X103.668 Y37.091 E47.50614
G1 X109.169 Y36.216 E47.6914
G1 X115.388 Y35.902 E47.89851
G1 X120.94 Y36.216 E48.08347
G1 X126.442 Y37.091 E48.26877
G1 X131.677 Y38.48 E48.44891
G1 X136.565 Y40.304 E48.62243
G1 X141.973 Y42.981 E48.82313
G1 X146.188 Y45.628 E48.98868
G1 X151.04 Y49.414 E49.19337
G1 X154.616 Y52.843 E49.35815
G1 X158.635 Y57.568 E49.56447
G1 X161.43 Y61.634 E49.72857
G1 X164.403 Y67.081 E49.93497
G1 X166.389 Y71.824 E50.106
G1 X168.036 Y76.852 E50.28197
G1 X168.228 Y78.332 E50.33161
G1 X162.135 Y117.87 E51.66217
G1 X161.609 Y119.321 E51.7135
G1 X158.415 Y123.763 E51.89547
G1 X154.617 Y128.206 E52.08988
G1 X151.04 Y131.636 E52.25471
G1 X146.188 Y135.422 E52.45941
G1 X141.975 Y138.068 E52.62488
G1 X136.454 Y140.794 E52.82967
G1 X131.677 Y142.57 E52.99918
G1 X126.442 Y143.959 E53.17932
G1 X120.94 Y144.834 E53.36462
G1 X114.722 Y145.148 E53.57169
G1 X109.169 Y144.834 E53.75668
G1 X103.668 Y143.959 E53.94194
G1 X98.432 Y142.57 E54.12212
G1 X93.544 Y140.746 E54.29564
G1 X88.135 Y138.068 E54.49639
G1 X83.922 Y135.422 E54.66186
G1 X79.069 Y131.636 E54.86658
G1 X75.492 Y128.206 E55.03141
G1 X71.474 Y123.482 E55.23768
G1 X68.68 Y119.416 E55.40176
G1 X65.706 Y113.969 E55.60818
G1 X63.719 Y109.224 E55.77927
G1 X62.073 Y104.198 E55.95518
G1 X61.881 Y102.718 E56.00481
G1 X67.974 Y63.18 E57.33538
G1 X68.5 Y61.729 E57.38671
G1 X71.694 Y57.287 E57.56868
G0 F6000 X72.019 Y57.521
G1 F1200 X75.769 Y53.133 E57.76066
G1 X79.346 Y49.703 E57.92549
G1 X84.135 Y45.967 E58.12751
G1 X88.348 Y43.321 E58.29298
G1 X93.795 Y40.631 E58.49503
G1 X98.535 Y38.867 E58.66325
G1 X103.771 Y37.478 E58.84342
G1 X109.232 Y36.611 E59.02733
G1 X115.366 Y36.301 E59.23161
G1 X120.877 Y36.611 E59.4152
G1 X126.339 Y37.478 E59.59914
G1 X131.574 Y38.867 E59.77928
G1 X136.425 Y40.679 E59.95151
G1 X141.76 Y43.32 E60.14951
G1 X145.975 Y45.967 E60.31505
G1 X150.763 Y49.703 E60.51704
G1 X154.339 Y53.132 E60.68183
G1 X158.305 Y57.795 E60.88543
G1 X161.1 Y61.861 E61.04953
G1 X164.034 Y67.236 E61.25321
G1 X166.009 Y71.949 E61.42317
G1 X167.644 Y76.94 E61.59785
G1 X167.824 Y78.329 E61.64444
G1 X161.746 Y117.77 E62.97173
G1 X161.253 Y119.13 E63.01985
G1 X158.09 Y123.529 E63.20005
G1 X154.34 Y127.917 E63.39203
G1 X150.763 Y131.347 E63.55687
G1 X145.975 Y135.083 E63.75886
G1 X141.762 Y137.729 E63.92433
G1 X136.314 Y140.419 E64.12641
G1 X131.574 Y142.183 E64.29463
G1 X126.339 Y143.572 E64.47477
G1 X120.877 Y144.439 E64.65871
G1 X114.744 Y144.749 E64.86296
G1 X109.232 Y144.439 E65.04658
G1 X103.771 Y143.572 E65.23048
G1 X98.535 Y142.183 E65.41066
G1 X93.684 Y140.371 E65.58289
G1 X88.348 Y137.729 E65.78093
G1 X84.135 Y135.083 E65.9464
G1 X79.346 Y131.347 E66.14842
G1 X75.769 Y127.917 E66.31325
G1 X71.804 Y123.255 E66.5168
G1 X69.01 Y119.189 E66.68089
G1 X66.075 Y113.814 E66.88458
G1 X64.099 Y109.099 E67.05462
G1 X62.465 Y104.11 E67.22922
G1 X62.285 Y102.721 E67.27581
G1 X68.363 Y63.28 E68.60311
G1 X68.856 Y61.92 E68.65122
G1 X72.019 Y57.521 E68.83143
G0 F6000 X72.344 Y57.755
G1 F1200 X76.046 Y53.422 E69.02098
G1 X79.623 Y49.992 E69.18581
G1 X84.348 Y46.306 E69.38513
G1 X88.561 Y43.66 E69.5506
G1 X93.935 Y41.006 E69.74995
G1 X98.638 Y39.254 E69.91687
G1 X103.874 Y37.865 E70.09704
G1 X109.295 Y37.006 E70.2796
G1 X115.344 Y36.7 E70.48104
G1 X120.814 Y37.006 E70.66326
G1 X126.236 Y37.865 E70.84585
G1 X131.471 Y39.254 E71.02599
G1 X136.285 Y41.054 E71.19693
G1 X141.547 Y43.659 E71.39222
G1 X145.762 Y46.306 E71.55776
G1 X150.486 Y49.992 E71.75705
G1 X154.062 Y53.421 E71.92183
G1 X157.975 Y58.022 E72.12272
G1 X160.77 Y62.088 E72.28683
G1 X163.665 Y67.391 E72.48778
G1 X165.64 Y72.104 E72.65774
G1 X167.252 Y77.026 E72.83
G1 X167.42 Y78.326 E72.8736
G1 X161.357 Y117.67 E74.19763
G1 X160.897 Y118.939 E74.24253
G1 X157.765 Y123.295 E74.42097
G1 X154.063 Y127.628 E74.61053
G1 X150.486 Y131.058 E74.77536
G1 X145.762 Y134.744 E74.97465
G1 X141.549 Y137.39 E75.14012
G1 X136.174 Y140.044 E75.33949
G1 X131.471 Y141.796 E75.50642
G1 X126.236 Y143.185 E75.68656
G1 X120.814 Y144.044 E75.86915
G1 X114.766 Y144.35 E76.07056
G1 X109.295 Y144.044 E76.25281
G1 X103.874 Y143.185 E76.43536
G1 X98.638 Y141.796 E76.61554
G1 X93.824 Y139.996 E76.78648
G1 X88.561 Y137.39 E76.98181
G1 X84.348 Y134.744 E77.14728
G1 X79.623 Y131.058 E77.3466
G1 X76.046 Y127.628 E77.51143
G1 X72.134 Y123.028 E77.71227
G1 X69.34 Y118.962 E77.87636
G1 X66.444 Y113.659 E78.07732
G1 X64.468 Y108.944 E78.24736
G1 X62.857 Y104.024 E78.41955
G1 X62.689 Y102.724 E78.46314
G1 X68.752 Y63.38 E79.78718
G1 X69.212 Y62.111 E79.83207
G1 X72.344 Y57.755 E80.01052
G0 F6000 X72.669 Y57.989
G1 F1200 X76.323 Y53.711 E80.19764
G1 X79.9 Y50.281 E80.36247
G1 X84.561 Y46.645 E80.55909
G1 X88.774 Y43.999 E80.72456
G1 X94.075 Y41.381 E80.9212
G1 X98.741 Y39.641 E81.08683
G1 X103.977 Y38.252 E81.267
G1 X109.357 Y37.401 E81.44817
G1 X115.322 Y37.099 E81.64682
G1 X120.752 Y37.401 E81.8277
G1 X126.133 Y38.252 E82.0089
G1 X131.368 Y39.641 E82.18904
G1 X136.145 Y41.429 E82.35869
G1 X141.334 Y43.998 E82.55127
G1 X145.549 Y46.645 E82.71681
G1 X150.209 Y50.281 E82.9134
G1 X153.785 Y53.71 E83.07818
G1 X157.645 Y58.249 E83.27636
G1 X160.44 Y62.315 E83.44046
G1 X163.296 Y67.546 E83.63869
G1 X165.26 Y72.229 E83.80759
G1 X166.86 Y77.113 E83.97853
G1 X167.016 Y78.323 E84.01911
G1 X160.968 Y117.57 E85.33988
G1 X160.541 Y118.748 E85.38155
G1 X157.44 Y123.061 E85.55823
G1 X153.786 Y127.339 E85.74536
G1 X150.209 Y130.769 E85.91019
G1 X145.549 Y134.405 E86.10678
G1 X141.336 Y137.051 E86.27225
G1 X136.034 Y139.669 E86.46892
G1 X131.368 Y141.409 E86.63455
G1 X126.133 Y142.798 E86.81469
G1 X120.752 Y143.649 E86.99589
G1 X114.788 Y143.951 E87.1945
G1 X109.357 Y143.649 E87.37542
G1 X103.977 Y142.798 E87.55658
G1 X98.741 Y141.409 E87.73676
G1 X93.964 Y139.621 E87.90641
G1 X88.774 Y137.051 E88.09903
G1 X84.561 Y134.405 E88.2645
G1 X79.9 Y130.769 E88.46112
G1 X76.323 Y127.339 E88.62595
G1 X72.464 Y122.801 E88.82408
G1 X69.67 Y118.735 E88.98816
G1 X66.813 Y113.504 E89.1864
G1 X64.848 Y108.819 E89.35538
G1 X63.249 Y103.937 E89.52624
G1 X63.093 Y102.727 E89.56682
G1 X69.141 Y63.48 E90.88759
G1 X69.568 Y62.302 E90.92926
G1 X72.669 Y57.989 E91.10594
G0 F6000 X72.973 Y58.249
G1 F1200 X76.6 Y54 E91.29175
G1 X80.177 Y50.57 E91.45658
G1 X84.774 Y46.984 E91.6505
G1 X88.987 Y44.338 E91.81597
G1 X94.215 Y41.756 E92.0099
G1 X98.881 Y40.016 E92.17553
G1 X104.079 Y38.639 E92.35438
G1 X109.419 Y37.796 E92.53419
G1 X115.3 Y37.498 E92.73005
G1 X120.69 Y37.796 E92.90959
G1 X126.031 Y38.639 E93.08943
G1 X131.228 Y40.016 E93.26825
G1 X136.005 Y41.804 E93.4379
G1 X141.121 Y44.337 E93.62777
G1 X145.336 Y46.984 E93.79331
G1 X149.932 Y50.57 E93.9872
G1 X153.508 Y53.999 E94.15199
G1 X157.315 Y58.476 E94.34745
G1 X160.11 Y62.542 E94.51156
G1 X162.927 Y67.701 E94.70706
G1 X164.88 Y72.354 E94.8749
G1 X166.468 Y77.2 E95.04451
G1 X166.612 Y78.32 E95.08207
G1 X160.579 Y117.47 E96.39957
G1 X160.184 Y118.559 E96.4381
G1 X157.136 Y122.801 E96.61183
G1 X153.509 Y127.05 E96.79764
G1 X149.932 Y130.48 E96.96247
G1 X145.336 Y134.066 E97.15636
G1 X141.123 Y136.712 E97.32183
G1 X135.894 Y139.294 E97.5158
G1 X131.228 Y141.034 E97.68143
G1 X126.031 Y142.411 E97.86024
G1 X120.69 Y143.254 E98.04009
G1 X114.81 Y143.552 E98.23591
G1 X109.419 Y143.254 E98.41549
G1 X104.079 Y142.411 E98.59529
G1 X98.881 Y141.034 E98.77414
G1 X94.104 Y139.246 E98.94379
G1 X88.987 Y136.712 E99.13371
G1 X84.774 Y134.066 E99.29918
G1 X80.177 Y130.48 E99.49309
G1 X76.6 Y127.05 E99.65792
G1 X72.794 Y122.574 E99.85334
G1 X70 Y118.508 E100.01743
G1 X67.182 Y113.349 E100.21295
G1 X65.228 Y108.694 E100.38086
G1 X63.641 Y103.85 E100.5504
G1 X63.497 Y102.73 E100.58796
G1 X69.53 Y63.58 E101.90546
G1 X69.925 Y62.491 E101.94399
G1 X72.973 Y58.249 E102.11772
G0 F6000 X73.277 Y58.509
G1 F1200 X76.877 Y54.289 E102.30221
G1 X80.454 Y50.859 E102.46704
G1 X84.987 Y47.323 E102.65826
G1 X89.2 Y44.677 E102.82373
G1 X94.355 Y42.131 E103.01495
G1 X99.021 Y40.391 E103.18059
G1 X104.181 Y39.026 E103.35811
G1 X109.481 Y38.191 E103.53656
G1 X115.278 Y37.897 E103.72962
G1 X120.628 Y38.191 E103.90783
G1 X125.929 Y39.026 E104.08632
G1 X131.088 Y40.391 E104.26381
G1 X135.865 Y42.179 E104.43346
G1 X140.908 Y44.676 E104.62063
G1 X145.123 Y47.323 E104.78617
G1 X149.655 Y50.859 E104.97736
G1 X153.231 Y54.288 E105.14214
G1 X156.985 Y58.703 E105.33489
G1 X159.78 Y62.769 E105.499
G1 X162.558 Y67.856 E105.69177
G1 X164.5 Y72.479 E105.85855
G1 X166.076 Y77.287 E106.02684
G1 X166.208 Y78.317 E106.06138
G1 X160.19 Y117.37 E107.37562
G1 X159.827 Y118.37 E107.411
G1 X156.832 Y122.541 E107.58179
G1 X153.232 Y126.761 E107.76628
G1 X149.655 Y130.191 E107.93111
