;FLAVOR:Marlin
;TIME:3158
;Filament used: 3.09509m
;Layer height: 0.2
;MINX:70.2
;MINY:80.251
;MINZ:0.2
;MAXX:149.8
;MAXY:127.851
;MAXZ:9
;Generated with Cura_SteamEngine 5.4.0
M140 S50
M105
M190 S50
M104 S200
M105
M109 S200
M82 ;absolute extrusion mode
M201 X500.00 Y500.00 Z100.00 E5000.00 ;Setup machine max acceleration
M203 X500.00 Y500.00 Z10.00 E50.00 ;Setup machine max feedrate
M204 P500.00 R1000.00 T500.00 ;Setup Print/Retract/Travel acceleration
M205 X8.00 Y8.00 Z0.40 E5.00 ;Setup Jerk
M220 S100 ;Reset Feedrate
M221 S100 ;Reset Flowrate

G28 ;Home

G92 E0 ;Reset Extruder
G1 Z2.0 F3000 ;Move Z Axis up
G1 X10.1 Y20 Z0.28 F5000.0 ;Move to start position
G1 X10.1 Y200.0 Z0.28 F1500.0 E15 ;Draw the first line
G1 X10.4 Y200.0 Z0.28 F5000.0 ;Move to side a little
G1 X10.4 Y20 Z0.28 F1500.0 E30 ;Draw the second line
G92 E0 ;Reset Extruder
G1 Z2.0 F3000 ;Move Z Axis up

G92 E0
G92 E0
G1 F2700 E-5
;LAYER_COUNT:45
;LAYER:0
M107
G0 F6000 X73.28 Y81.815 Z0.2
;TYPE:SKIRT
G1 F2700 E0
G1 F1200 X75.303 Y80.608 E0.07835
G1 X77.021 Y80.326 E0.13626
G1 X142.853 Y80.251 E2.32584
G1 X144.749 Y80.717 E2.39078
G1 X146.777 Y81.77 E2.46678
G1 X148.236 Y83.331 E2.53785
G1 X149.443 Y85.354 E2.6162
G1 X149.725 Y87.072 E2.6741
G1 X149.8 Y120.904 E3.79936
G1 X149.334 Y122.8 E3.8643
G1 X148.281 Y124.828 E3.9403
G1 X146.72 Y126.287 E4.01137
G1 X144.697 Y127.494 E4.08972
G1 X142.979 Y127.776 E4.14763
G1 X77.147 Y127.851 E6.33721
G1 X75.251 Y127.385 E6.40215
G1 X73.223 Y126.332 E6.47815
G1 X71.764 Y124.771 E6.54921
G1 X70.557 Y122.748 E6.62757
G1 X70.275 Y121.03 E6.68547
G1 X70.2 Y87.198 E7.81073
G1 X70.666 Y85.302 E7.87567
G1 X71.719 Y83.274 E7.95167
G1 X73.28 Y81.815 E8.02274
G0 F6000 X73.519 Y82.139
G1 F1200 X75.443 Y80.991 E8.09726
G1 X77.086 Y80.721 E8.15263
G1 X142.807 Y80.651 E10.33853
G1 X144.606 Y81.093 E10.40014
G1 X146.532 Y82.093 E10.47232
G1 X147.912 Y83.57 E10.53955
G1 X149.06 Y85.494 E10.61407
G1 X149.33 Y87.137 E10.66945
G1 X149.4 Y120.858 E11.79101
G1 X148.958 Y122.657 E11.85263
G1 X147.958 Y124.583 E11.92481
G1 X146.481 Y125.963 E11.99204
G1 X144.557 Y127.111 E12.06656
G1 X142.914 Y127.381 E12.12194
G1 X77.193 Y127.451 E14.30783
G1 X75.394 Y127.009 E14.36944
G1 X73.468 Y126.009 E14.44162
G1 X72.088 Y124.532 E14.50885
G1 X70.94 Y122.608 E14.58337
G1 X70.67 Y120.965 E14.63875
G1 X70.6 Y87.244 E15.76032
G1 X71.042 Y85.445 E15.82193
G1 X72.042 Y83.519 E15.89411
G1 X73.519 Y82.139 E15.96134
G0 F6000 X73.761 Y82.46
G1 F1200 X75.581 Y81.374 E16.03183
G1 X77.151 Y81.116 E16.08475
G1 X142.76 Y81.051 E18.26692
G1 X144.464 Y81.47 E18.32528
G1 X146.287 Y82.416 E18.39359
G1 X147.591 Y83.812 E18.45713
G1 X148.677 Y85.632 E18.52762
G1 X148.935 Y87.202 E18.58054
G1 X149 Y120.811 E19.69838
G1 X148.581 Y122.515 E19.75674
G1 X147.635 Y124.338 E19.82505
G1 X146.239 Y125.642 E19.88859
G1 X144.419 Y126.728 E19.95908
G1 X142.849 Y126.986 E20.012
G1 X77.24 Y127.051 E22.19417
G1 X75.536 Y126.632 E22.25253
G1 X73.713 Y125.686 E22.32084
G1 X72.409 Y124.29 E22.38438
G1 X71.323 Y122.47 E22.45487
G1 X71.065 Y120.9 E22.50779
G1 X71 Y87.291 E23.62563
G1 X71.419 Y85.587 E23.68399
G1 X72.365 Y83.764 E23.7523
G1 X73.761 Y82.46 E23.81584
G0 F6000 X74.003 Y82.781
G1 F1200 X75.719 Y81.757 E23.8823
G1 X77.216 Y81.511 E23.93276
G1 X142.714 Y81.451 E26.11123
G1 X144.321 Y81.846 E26.16627
G1 X146.042 Y82.739 E26.23076
G1 X147.27 Y84.054 E26.2906
G1 X148.294 Y85.77 E26.35707
G1 X148.54 Y87.267 E26.40753
G1 X148.6 Y120.765 E27.52168
G1 X148.205 Y122.372 E27.57672
G1 X147.312 Y124.093 E27.6412
G1 X145.997 Y125.321 E27.70105
G1 X144.281 Y126.345 E27.76751
G1 X142.784 Y126.591 E27.81797
G1 X77.286 Y126.651 E29.99644
G1 X75.679 Y126.256 E30.05148
G1 X73.958 Y125.363 E30.11597
G1 X72.73 Y124.048 E30.17581
G1 X71.706 Y122.332 E30.24228
G1 X71.46 Y120.835 E30.29273
G1 X71.4 Y87.337 E31.40688
G1 X71.795 Y85.73 E31.46192
G1 X72.688 Y84.009 E31.52641
G1 X74.003 Y82.781 E31.58625
G0 F6000 X74.245 Y83.102
G1 F1200 X75.857 Y82.14 E31.64869
G1 X77.281 Y81.906 E31.69669
G1 X142.668 Y81.851 E33.87147
G1 X144.178 Y82.222 E33.92319
G1 X145.797 Y83.062 E33.98385
G1 X146.949 Y84.296 E34.04
G1 X147.911 Y85.908 E34.10244
G1 X148.145 Y87.332 E34.15043
G1 X148.2 Y120.719 E35.26089
G1 X147.829 Y122.229 E35.31261
G1 X146.989 Y123.848 E35.37327
G1 X145.755 Y125 E35.42942
G1 X144.143 Y125.962 E35.49186
G1 X142.719 Y126.196 E35.53986
G1 X77.332 Y126.251 E37.71464
G1 X75.822 Y125.88 E37.76635
G1 X74.203 Y125.04 E37.82702
G1 X73.051 Y123.806 E37.88317
G1 X72.089 Y122.194 E37.9456
G1 X71.855 Y120.77 E37.9936
G1 X71.8 Y87.383 E39.10406
G1 X72.171 Y85.873 E39.15577
G1 X73.011 Y84.254 E39.21644
G1 X74.245 Y83.102 E39.27259
G0 F6000 X74.487 Y83.423
G1 F1200 X75.995 Y82.523 E39.331
G1 X77.346 Y82.301 E39.37653
G1 X142.621 Y82.251 E41.54759
G1 X144.036 Y82.599 E41.59606
G1 X145.552 Y83.385 E41.65285
G1 X146.628 Y84.538 E41.70531
G1 X147.528 Y86.046 E41.76372
G1 X147.75 Y87.397 E41.80925
G1 X147.8 Y120.672 E42.91598
G1 X147.452 Y122.087 E42.96445
G1 X146.666 Y123.603 E43.02125
G1 X145.513 Y124.679 E43.0737
G1 X144.005 Y125.579 E43.13211
G1 X142.654 Y125.801 E43.17765
G1 X77.379 Y125.851 E45.3487
G1 X75.964 Y125.503 E45.39717
G1 X74.448 Y124.717 E45.45397
G1 X73.372 Y123.564 E45.50642
G1 X72.472 Y122.056 E45.56483
G1 X72.25 Y120.705 E45.61037
G1 X72.2 Y87.43 E46.7171
G1 X72.548 Y86.015 E46.76556
G1 X73.334 Y84.499 E46.82236
G1 X74.487 Y83.423 E46.87481
G0 F6000 X74.729 Y83.744
G1 F1200 X76.133 Y82.906 E46.9292
G1 X77.411 Y82.696 E46.97227
G1 X142.575 Y82.651 E49.13964
G1 X143.893 Y82.975 E49.18478
G1 X145.307 Y83.708 E49.23775
G1 X146.307 Y84.78 E49.28651
G1 X147.145 Y86.184 E49.3409
G1 X147.355 Y87.462 E49.38397
G1 X147.4 Y120.626 E50.48701
G1 X147.076 Y121.944 E50.53215
G1 X146.343 Y123.358 E50.58513
G1 X145.271 Y124.358 E50.63389
G1 X143.867 Y125.196 E50.68827
G1 X142.589 Y125.406 E50.73135
G1 X77.425 Y125.451 E52.89871
G1 X76.107 Y125.127 E52.94385
G1 X74.693 Y124.394 E52.99683
G1 X73.693 Y123.322 E53.04559
G1 X72.855 Y121.918 E53.09997
G1 X72.645 Y120.64 E53.14304
G1 X72.6 Y87.476 E54.24608
G1 X72.924 Y86.158 E54.29123
G1 X73.657 Y84.744 E54.3442
G1 X74.729 Y83.744 E54.39296
G0 F6000 X74.974 Y84.063
G1 F1200 X76.271 Y83.289 E54.4432
G1 X77.476 Y83.091 E54.48381
G1 X142.529 Y83.051 E56.64748
G1 X143.75 Y83.351 E56.6893
G1 X145.06 Y84.03 E56.73838
G1 X145.988 Y85.025 E56.78363
G1 X146.762 Y86.322 E56.83387
G1 X146.96 Y87.527 E56.87448
G1 X147 Y120.58 E57.97383
G1 X146.7 Y121.801 E58.01565
G1 X146.021 Y123.111 E58.06473
G1 X145.026 Y124.039 E58.10998
G1 X143.729 Y124.813 E58.16021
G1 X142.524 Y125.011 E58.20083
G1 X77.471 Y125.051 E60.3645
G1 X76.25 Y124.751 E60.40632
G1 X74.94 Y124.072 E60.4554
G1 X74.012 Y123.077 E60.50065
G1 X73.238 Y121.78 E60.55089
G1 X73.04 Y120.575 E60.5915
G1 X73 Y87.522 E61.69085
G1 X73.3 Y86.301 E61.73267
G1 X73.979 Y84.991 E61.78174
G1 X74.974 Y84.063 E61.827
G0 F6000 X75.216 Y84.385
G1 F1200 X76.411 Y83.672 E61.87328
G1 X77.541 Y83.486 E61.91137
G1 X142.483 Y83.451 E64.07135
G1 X143.607 Y83.727 E64.10985
G1 X144.813 Y84.352 E64.15502
G1 X145.666 Y85.267 E64.19663
G1 X146.379 Y86.462 E64.24291
G1 X146.565 Y87.592 E64.281
G1 X146.6 Y120.534 E65.37666
G1 X146.324 Y121.658 E65.41515
G1 X145.699 Y122.864 E65.46033
G1 X144.784 Y123.717 E65.50194
G1 X143.589 Y124.43 E65.54822
G1 X142.459 Y124.616 E65.58631
G1 X77.517 Y124.651 E67.74629
G1 X76.393 Y124.375 E67.78479
G1 X75.187 Y123.75 E67.82996
G1 X74.334 Y122.835 E67.87157
G1 X73.621 Y121.64 E67.91785
G1 X73.435 Y120.51 E67.95594
G1 X73.4 Y87.568 E69.0516
G1 X73.676 Y86.444 E69.09009
G1 X74.301 Y85.238 E69.13527
G1 X75.216 Y84.385 E69.17688
G0 F6000 X75.458 Y84.707
G1 F1200 X76.551 Y84.055 E69.21921
G1 X77.606 Y83.881 E69.25477
G1 X142.436 Y83.851 E71.41103
G1 X143.465 Y84.104 E71.44627
G1 X144.566 Y84.674 E71.48751
G1 X145.344 Y85.509 E71.52546
G1 X145.996 Y86.602 E71.56779
G1 X146.17 Y87.657 E71.60336
G1 X146.2 Y120.487 E72.69529
G1 X145.947 Y121.516 E72.73053
G1 X145.377 Y122.617 E72.77177
G1 X144.542 Y123.395 E72.80973
G1 X143.449 Y124.047 E72.85206
G1 X142.394 Y124.221 E72.88762
G1 X77.564 Y124.251 E75.04388
G1 X76.535 Y123.998 E75.07912
G1 X75.434 Y123.428 E75.12036
G1 X74.656 Y122.593 E75.15831
G1 X74.004 Y121.5 E75.20064
G1 X73.83 Y120.445 E75.23621
G1 X73.8 Y87.615 E76.32814
G1 X74.053 Y86.586 E76.36338
G1 X74.623 Y85.485 E76.40462
G1 X75.458 Y84.707 E76.44258
G0 F6000 X75.7 Y85.029
G1 F1200 X76.691 Y84.438 E76.48095
G1 X77.671 Y84.276 E76.51399
G1 X142.39 Y84.251 E78.66656
G1 X143.322 Y84.48 E78.69848
G1 X144.319 Y84.996 E78.73581
G1 X145.022 Y85.751 E78.77013
G1 X145.613 Y86.742 E78.8085
G1 X145.775 Y87.722 E78.84154
G1 X145.8 Y120.441 E79.92978
G1 X145.571 Y121.373 E79.9617
G1 X145.055 Y122.37 E79.99904
G1 X144.3 Y123.073 E80.03335
G1 X143.309 Y123.664 E80.07173
G1 X142.329 Y123.826 E80.10476
G1 X77.61 Y123.851 E82.25733
G1 X76.678 Y123.622 E82.28925
G1 X75.681 Y123.106 E82.32659
G1 X74.978 Y122.351 E82.3609
G1 X74.387 Y121.36 E82.39927
G1 X74.225 Y120.38 E82.43231
G1 X74.2 Y87.661 E83.52055
G1 X74.429 Y86.729 E83.55247
G1 X74.945 Y85.732 E83.58981
G1 X75.7 Y85.029 E83.62412
G0 F6000 X75.939 Y85.353
G1 F1200 X76.831 Y84.821 E83.65866
G1 X77.736 Y84.671 E83.68918
G1 X142.344 Y84.651 E85.83805
G1 X143.179 Y84.856 E85.86664
G1 X144.074 Y85.319 E85.90016
G1 X144.698 Y85.99 E85.93063
G1 X145.23 Y86.882 E85.96518
G1 X145.38 Y87.787 E85.99569
G1 X145.4 Y120.395 E87.08024
G1 X145.195 Y121.23 E87.10883
G1 X144.732 Y122.125 E87.14235
G1 X144.061 Y122.749 E87.17283
G1 X143.169 Y123.281 E87.20737
G1 X142.264 Y123.431 E87.23788
G1 X77.656 Y123.451 E89.38675
G1 X76.821 Y123.246 E89.41535
G1 X75.926 Y122.783 E89.44886
G1 X75.302 Y122.112 E89.47934
G1 X74.77 Y121.22 E89.51388
G1 X74.62 Y120.315 E89.54439
G1 X74.6 Y87.707 E90.62894
G1 X74.805 Y86.872 E90.65754
G1 X75.268 Y85.977 E90.69105
G1 X75.939 Y85.353 E90.72153
G0 F6000 X76.178 Y85.677
G1 F1200 X76.971 Y85.204 E90.75224
G1 X77.802 Y85.066 E90.78026
G1 X142.298 Y85.051 E92.9254
G1 X143.036 Y85.232 E92.95068
G1 X143.829 Y85.642 E92.98037
G1 X144.374 Y86.229 E93.00701
G1 X144.847 Y87.022 E93.03772
G1 X144.985 Y87.853 E93.06574
G1 X145 Y120.349 E94.14656
G1 X144.819 Y121.087 E94.17183
G1 X144.409 Y121.88 E94.20153
G1 X143.822 Y122.425 E94.22817
G1 X143.029 Y122.898 E94.25888
G1 X142.198 Y123.036 E94.2869
G1 X77.702 Y123.051 E96.43204
G1 X76.964 Y122.87 E96.45732
G1 X76.171 Y122.46 E96.48701
G1 X75.626 Y121.873 E96.51365
G1 X75.153 Y121.08 E96.54436
G1 X75.015 Y120.249 E96.57238
G1 X75 Y87.753 E97.6532
G1 X75.181 Y87.015 E97.67847
G1 X75.591 Y86.222 E97.70816
G1 X76.178 Y85.677 E97.7348
G0 F6000 X76.417 Y86.001
G1 F1200 X77.111 Y85.587 E97.76168
G1 X77.868 Y85.461 E97.78721
G1 X142.248 Y85.451 E99.92849
G1 X142.897 Y85.61 E99.95072
G1 X143.584 Y85.965 E99.97644
G1 X144.05 Y86.468 E99.99924
G1 X144.464 Y87.162 E100.02612
G1 X144.59 Y87.919 E100.05165
G1 X144.6 Y120.299 E101.12861
G1 X144.441 Y120.948 E101.15083
G1 X144.086 Y121.635 E101.17655
G1 X143.583 Y122.101 E101.19936
G1 X142.889 Y122.515 E101.22624
G1 X142.132 Y122.641 E101.25176
G1 X77.752 Y122.651 E103.39305
G1 X77.103 Y122.492 E103.41527
G1 X76.416 Y122.137 E103.44099
G1 X75.95 Y121.634 E103.4638
G1 X75.536 Y120.94 E103.49068
G1 X75.41 Y120.183 E103.5162
G1 X75.4 Y87.803 E104.59317
G1 X75.559 Y87.154 E104.61539
G1 X75.914 Y86.467 E104.64111
G1 X76.417 Y86.001 E104.66392
G0 F6000 X76.656 Y86.325
G1 F1200 X77.251 Y85.97 E104.68696
G1 X77.934 Y85.856 E104.70999
G1 X142.198 Y85.851 E106.84742
G1 X142.758 Y85.988 E106.8666
G1 X143.338 Y86.288 E106.88831
G1 X143.726 Y86.707 E106.90731
G1 X144.081 Y87.302 E106.93035
G1 X144.195 Y87.985 E106.95338
G1 X144.2 Y120.249 E108.02649
G1 X144.063 Y120.809 E108.04566
G1 X143.763 Y121.389 E108.06738
G1 X143.344 Y121.777 E108.08637
G1 X142.749 Y122.132 E108.10942
G1 X142.066 Y122.246 E108.13245
G1 X77.802 Y122.251 E110.26988
G1 X77.242 Y122.114 E110.28905
G1 X76.662 Y121.814 E110.31077
G1 X76.274 Y121.395 E110.32977
G1 X75.919 Y120.8 E110.35281
G1 X75.805 Y120.117 E110.37584
G1 X75.8 Y87.853 E111.44895
G1 X75.937 Y87.293 E111.46812
G1 X76.237 Y86.713 E111.48984
G1 X76.656 Y86.325 E111.50883
G0 F6000 X76.898 Y86.646
G1 F1200 X77.389 Y86.353 E111.52785
G1 X78 Y86.251 E111.54845
G1 X142.148 Y86.251 E113.68203
G1 X142.619 Y86.366 E113.69815
G1 X143.092 Y86.611 E113.71587
G1 X143.405 Y86.949 E113.73119
G1 X143.698 Y87.44 E113.75021
G1 X143.8 Y88.051 E113.77081
G1 X143.8 Y120.199 E114.84006
G1 X143.685 Y120.67 E114.85618
G1 X143.44 Y121.143 E114.8739
G1 X143.102 Y121.456 E114.88922
G1 X142.611 Y121.749 E114.90824
G1 X142 Y121.851 E114.92884
G1 X77.852 Y121.851 E117.06241
G1 X77.381 Y121.736 E117.07854
G1 X76.908 Y121.491 E117.09626
G1 X76.595 Y121.153 E117.11158
G1 X76.302 Y120.662 E117.1306
G1 X76.2 Y120.051 E117.1512
G1 X76.2 Y87.903 E118.22045
G1 X76.315 Y87.432 E118.23657
G1 X76.56 Y86.959 E118.25429
G1 X76.898 Y86.646 E118.26961
G0 F6000 X77.14 Y86.967
G1 F1200 X77.527 Y86.736 E118.2846
G1 X78 Y86.651 E118.30059
G1 X142.098 Y86.651 E120.43249
G1 X142.48 Y86.744 E120.44557
G1 X142.846 Y86.934 E120.45929
G1 X143.084 Y87.191 E120.47094
G1 X143.315 Y87.578 E120.48593
G1 X143.4 Y88.051 E120.50191
G1 X143.4 Y120.149 E121.56949
G1 X143.307 Y120.531 E121.58257
G1 X143.117 Y120.897 E121.59629
G1 X142.86 Y121.135 E121.60794
G1 X142.473 Y121.366 E121.62293
G1 X142 Y121.451 E121.63891
G1 X77.902 Y121.451 E123.77082
G1 X77.52 Y121.358 E123.7839
G1 X77.154 Y121.168 E123.79761
G1 X76.916 Y120.911 E123.80926
G1 X76.685 Y120.524 E123.82425
G1 X76.6 Y120.051 E123.84024
G1 X76.6 Y87.953 E124.90782
G1 X76.693 Y87.571 E124.9209
G1 X76.883 Y87.205 E124.93461
G1 X77.14 Y86.967 E124.94626
G0 F6000 X77.345 Y87.311
G1 F1200 X77.672 Y87.116 E124.95893
G1 X78 Y87.051 E124.97005
G1 X142.049 Y87.051 E127.10033
G1 X142.338 Y87.121 E127.11022
G1 X142.601 Y87.258 E127.12008
G1 X142.74 Y87.396 E127.12659
G1 X142.935 Y87.723 E127.13926
G1 X143 Y88.051 E127.15038
G1 X143 Y120.1 E128.21633
G1 X142.93 Y120.389 E128.22622
G1 X142.793 Y120.652 E128.23608
G1 X142.655 Y120.791 E128.2426
G1 X142.328 Y120.986 E128.25526
G1 X142 Y121.051 E128.26638
G1 X77.951 Y121.051 E130.39666
G1 X77.662 Y120.981 E130.40655
G1 X77.399 Y120.844 E130.41642
G1 X77.26 Y120.706 E130.42293
G1 X77.065 Y120.379 E130.43559
G1 X77 Y120.051 E130.44671
G1 X77 Y88.002 E131.51267
G1 X77.07 Y87.713 E131.52256
G1 X77.207 Y87.45 E131.53242
G1 X77.345 Y87.311 E131.53894
G0 F6000 X77.839 Y87.932
G1 F1200 X78 Y87.851 E131.54493
G1 X142 Y87.851 E133.67358
G1 X142.119 Y87.89 E133.67774
G1 X142.2 Y88.051 E133.68374
G1 X142.2 Y120.051 E134.74806
G1 X142.161 Y120.17 E134.75223
G1 X142 Y120.251 E134.75822
G1 X78 Y120.251 E136.88687
G1 X77.881 Y120.212 E136.89104
G1 X77.8 Y120.051 E136.89703
G1 X77.8 Y88.051 E137.96136
G1 X77.839 Y87.932 E137.96552
G0 F6000 X77.55 Y87.655
G1 F1200 X77.82 Y87.494 E137.97598
G1 X78 Y87.451 E137.98213
G1 X142 Y87.451 E140.11078
G1 X142.244 Y87.51 E140.11913
G1 X142.396 Y87.601 E140.12502
G1 X142.557 Y87.871 E140.13548
G1 X142.6 Y88.051 E140.14163
G1 X142.6 Y120.051 E141.20596
G1 X142.541 Y120.295 E141.21431
G1 X142.45 Y120.447 E141.2202
G1 X142.18 Y120.608 E141.23065
G1 X142 Y120.651 E141.23681
G1 X78 Y120.651 E143.36546
G1 X77.756 Y120.592 E143.37381
G1 X77.604 Y120.501 E143.3797
G1 X77.443 Y120.231 E143.39016
G1 X77.4 Y120.051 E143.39631
G1 X77.4 Y88.051 E144.46063
G1 X77.459 Y87.807 E144.46898
G1 X77.55 Y87.655 E144.47488
G1 F2700 E139.47488
;MESH:mechatronics.stl
G0 F6000 X78.414 Y88.465
G0 X83.229 Y103.769
;TYPE:WALL-OUTER
G1 F2700 E144.47488
G1 F831.9 X83.23 Y104.155 E144.4934
G1 F842.1 X83.218 Y104.308 E144.50067
G1 F2700 E139.50067
G0 F6000 X83.179 Y105.033
G0 X83.459 Y106.117
G0 X83.881 Y106.955
G0 X84.441 Y107.712
G0 X85.119 Y108.362
G0 X85.898 Y108.888
G0 X86.754 Y109.276
G0 X87.664 Y109.513
G0 X88.193 Y109.557
G0 X89.507 Y109.576
G0 X89.483 Y109.277
G1 F2700 E144.50067
G1 F1200 X88.582 Y109.352 E144.53074
G1 X87.717 Y109.277 E144.55962
G1 X86.822 Y109.044 E144.59038
G1 X86.027 Y108.686 E144.61938
G1 X85.256 Y108.164 E144.65035
G1 X84.611 Y107.541 E144.68017
G1 X84.099 Y106.85 E144.70878
