;FLAVOR:Marlin
;TIME:15302
;Filament used: 14.4739m
;Layer height: 0.2
;MINX:49.758
;MINY:46.808
;MINZ:0.2
;MAXX:154.358
;MAXY:181.672
;MAXZ:37
;Generated with Cura_SteamEngine 5.4.0
M140 S50
M105
M190 S50
M104 S200
M105
M109 S200
M82 ;absolute extrusion mode
M201 X500.00 Y500.00 Z100.00 E5000.00 ;Setup machine max acceleration
M203 X500.00 Y500.00 Z10.00 E50.00 ;Setup machine max feedrate
M204 P500.00 R1000.00 T500.00 ;Setup Print/Retract/Travel acceleration
M205 X8.00 Y8.00 Z0.40 E5.00 ;Setup Jerk
M220 S100 ;Reset Feedrate
M221 S100 ;Reset Flowrate

G28 ;Home

G92 E0 ;Reset Extruder
G1 Z2.0 F3000 ;Move Z Axis up
G1 X10.1 Y20 Z0.28 F5000.0 ;Move to start position
G1 X10.1 Y200.0 Z0.28 F1500.0 E15 ;Draw the first line
G1 X10.4 Y200.0 Z0.28 F5000.0 ;Move to side a little
G1 X10.4 Y20 Z0.28 F1500.0 E30 ;Draw the second line
G92 E0 ;Reset Extruder
G1 Z2.0 F3000 ;Move Z Axis up

G92 E0
G92 E0
G1 F2700 E-5
;LAYER_COUNT:185
;LAYER:0
M107
G0 F6000 X76.957 Y49.831 Z0.2
;TYPE:SKIRT
G1 F2700 E0
G1 F1200 X78.518 Y48.372 E0.07107
G1 X80.541 Y47.165 E0.14942
G1 X82.259 Y46.883 E0.20732
G1 X121.731 Y46.808 E1.52017
G1 X123.627 Y47.274 E1.58511
G1 X125.655 Y48.327 E1.66111
G1 X127.114 Y49.888 E1.73218
G1 X128.321 Y51.911 E1.81053
G1 X128.603 Y53.629 E1.86843
G1 X128.669 Y64.663 E2.23543
G1 X129.287 Y64.971 E2.2584
G1 X134.96 Y68.568 E2.48181
G1 X139.122 Y71.875 E2.65862
G1 X144.05 Y76.747 E2.88911
G1 X147.458 Y80.956 E3.06923
G1 X151.175 Y86.733 E3.29771
G1 X153.854 Y92.088 E3.49687
G1 X154.358 Y93.932 E3.56045
G1 X154.358 Y134.25 E4.90143
G1 X154 Y136.098 E4.96404
G1 X150.743 Y142.506 E5.20312
G1 X147.72 Y147.17 E5.38798
G1 X143.617 Y152.207 E5.60406
G1 X139.223 Y156.517 E5.80877
G1 X134.943 Y159.924 E5.99072
G1 X129.038 Y163.65 E6.22295
G1 X128.678 Y163.825 E6.23626
G1 X128.678 Y174.725 E6.5988
G1 X128.212 Y176.621 E6.66374
G1 X127.159 Y178.649 E6.73974
G1 X125.598 Y180.108 E6.81081
G1 X123.575 Y181.315 E6.88916
G1 X121.857 Y181.597 E6.94706
G1 X82.385 Y181.672 E8.25991
G1 X80.489 Y181.206 E8.32485
G1 X78.461 Y180.153 E8.40085
G1 X77.002 Y178.592 E8.47192
G1 X75.795 Y176.569 E8.55027
G1 X75.513 Y174.851 E8.60817
G1 X75.447 Y163.817 E8.97517
G1 X74.827 Y163.508 E8.99821
G1 X69.156 Y159.912 E9.22155
G1 X64.994 Y156.605 E9.39836
G1 X60.066 Y151.734 E9.62882
G1 X56.658 Y147.524 E9.80898
G1 X52.94 Y141.745 E10.03753
G1 X50.262 Y136.392 E10.23661
G1 X49.758 Y134.548 E10.30019
G1 X49.758 Y94.23 E11.64117
G1 X50.116 Y92.382 E11.70378
G1 X53.373 Y85.977 E11.94277
G1 X56.396 Y81.313 E12.12763
G1 X60.529 Y76.24 E12.34527
G1 X65.043 Y71.832 E12.55512
G1 X69.627 Y68.23 E12.74902
G1 X75.079 Y64.83 E12.96272
G1 X75.438 Y64.655 E12.97601
G1 X75.438 Y53.755 E13.33854
G1 X75.904 Y51.859 E13.40348
G1 X76.957 Y49.831 E13.47948
G0 F6000 X77.28 Y50.076
G1 F1200 X78.757 Y48.696 E13.54671
G1 X80.681 Y47.548 E13.62123
G1 X82.324 Y47.278 E13.67661
G1 X121.685 Y47.208 E14.98577
G1 X123.484 Y47.65 E15.04738
G1 X125.41 Y48.65 E15.11956
G1 X126.79 Y50.127 E15.18679
G1 X127.938 Y52.051 E15.26131
G1 X128.208 Y53.694 E15.31669
G1 X128.27 Y64.911 E15.68977
G1 X129.108 Y65.329 E15.72092
G1 X134.711 Y68.881 E15.94157
G1 X138.873 Y72.188 E16.11837
G1 X143.739 Y76.999 E16.34597
G1 X147.147 Y81.208 E16.52609
G1 X150.817 Y86.912 E16.75169
G1 X153.479 Y92.233 E16.94958
G1 X153.958 Y93.986 E17.01002
G1 X153.958 Y134.21 E18.34787
G1 X153.618 Y135.967 E18.4074
G1 X150.407 Y142.288 E18.6432
G1 X147.384 Y146.952 E18.82806
G1 X143.337 Y151.921 E19.04121
G1 X138.943 Y156.231 E19.24593
G1 X134.694 Y159.611 E19.42651
G1 X128.863 Y163.29 E19.65582
G1 X128.278 Y163.575 E19.67747
G1 X128.278 Y174.679 E20.04679
G1 X127.836 Y176.478 E20.1084
G1 X126.836 Y178.404 E20.18058
G1 X125.359 Y179.784 E20.24781
G1 X123.435 Y180.932 E20.32233
G1 X121.792 Y181.202 E20.37771
G1 X82.431 Y181.272 E21.68686
G1 X80.632 Y180.83 E21.74848
G1 X78.706 Y179.83 E21.82066
G1 X77.326 Y178.353 E21.88789
G1 X76.178 Y176.429 E21.96241
G1 X75.908 Y174.786 E22.01779
G1 X75.846 Y163.569 E22.39087
G1 X75.006 Y163.15 E22.42209
G1 X69.405 Y159.599 E22.64267
G1 X65.243 Y156.292 E22.81947
G1 X60.377 Y151.482 E23.04704
G1 X56.969 Y147.272 E23.2272
G1 X53.298 Y141.566 E23.45286
G1 X50.637 Y136.247 E23.65068
G1 X50.158 Y134.494 E23.71112
G1 X50.158 Y94.27 E25.04897
G1 X50.498 Y92.513 E25.1085
G1 X53.709 Y86.195 E25.34422
G1 X56.732 Y81.531 E25.52908
G1 X60.809 Y76.526 E25.74378
G1 X65.29 Y72.147 E25.95217
G1 X69.874 Y68.545 E26.14607
G1 X75.254 Y65.19 E26.35696
G1 X75.838 Y64.906 E26.37855
G1 X75.838 Y53.801 E26.74791
G1 X76.28 Y52.002 E26.80952
G1 X77.28 Y50.076 E26.8817
G0 F6000 X77.603 Y50.321
G1 F1200 X78.999 Y49.017 E26.94524
G1 X80.819 Y47.931 E27.01573
G1 X82.389 Y47.673 E27.06865
G1 X121.638 Y47.608 E28.37408
G1 X123.342 Y48.027 E28.43244
G1 X125.165 Y48.973 E28.50075
G1 X126.469 Y50.369 E28.56429
G1 X127.555 Y52.189 E28.63478
G1 X127.813 Y53.759 E28.6877
G1 X127.871 Y65.159 E29.06687
G1 X128.894 Y65.667 E29.10486
G1 X134.462 Y69.194 E29.32408
G1 X138.624 Y72.501 E29.50088
G1 X143.428 Y77.251 E29.72558
G1 X146.836 Y81.46 E29.90571
G1 X150.459 Y87.091 E30.12842
G1 X153.103 Y92.377 E30.325
G1 X153.558 Y94.041 E30.38237
G1 X153.558 Y134.17 E31.71707
G1 X153.236 Y135.836 E31.77351
G1 X150.071 Y142.07 E32.00604
G1 X147.048 Y146.734 E32.1909
G1 X143.057 Y151.635 E32.40112
G1 X138.663 Y155.945 E32.60583
G1 X134.445 Y159.298 E32.78505
G1 X128.688 Y162.93 E33.01145
G1 X127.878 Y163.324 E33.04141
G1 X127.878 Y174.632 E33.41751
G1 X127.459 Y176.336 E33.47588
G1 X126.513 Y178.159 E33.54419
G1 X125.117 Y179.463 E33.60773
G1 X123.297 Y180.549 E33.67822
G1 X121.727 Y180.807 E33.73114
G1 X82.478 Y180.872 E35.03656
G1 X80.774 Y180.453 E35.09493
G1 X78.951 Y179.507 E35.16324
G1 X77.647 Y178.111 E35.22678
G1 X76.561 Y176.291 E35.29727
G1 X76.303 Y174.721 E35.35019
G1 X76.245 Y163.321 E35.72936
G1 X75.22 Y162.812 E35.76742
G1 X69.654 Y159.286 E35.98657
G1 X65.492 Y155.979 E36.16337
G1 X60.688 Y151.23 E36.38805
G1 X57.28 Y147.02 E36.5682
G1 X53.656 Y141.387 E36.79098
G1 X51.013 Y136.103 E36.98749
G1 X50.558 Y134.439 E37.04486
G1 X50.558 Y94.31 E38.37956
G1 X50.88 Y92.644 E38.43599
G1 X54.045 Y86.413 E38.66844
G1 X57.068 Y81.749 E38.8533
G1 X61.089 Y76.812 E39.06508
G1 X65.537 Y72.462 E39.27201
G1 X70.121 Y68.86 E39.46591
G1 X75.429 Y65.55 E39.67397
G1 X76.238 Y65.156 E39.7039
G1 X76.238 Y53.848 E40.08
G1 X76.657 Y52.144 E40.13837
G1 X77.603 Y50.321 E40.20668
G0 F6000 X77.926 Y50.566
G1 F1200 X79.241 Y49.338 E40.26652
G1 X80.957 Y48.314 E40.33298
G1 X82.454 Y48.068 E40.38344
G1 X121.592 Y48.008 E41.68518
G1 X123.199 Y48.403 E41.74022
G1 X124.92 Y49.296 E41.80471
G1 X126.148 Y50.611 E41.86455
G1 X127.172 Y52.327 E41.93101
G1 X127.418 Y53.824 E41.98147
G1 X127.472 Y65.407 E42.36673
G1 X128.68 Y66.005 E42.41156
G1 X134.213 Y69.507 E42.62935
G1 X138.375 Y72.814 E42.80616
G1 X143.117 Y77.503 E43.02796
G1 X146.525 Y81.712 E43.20809
G1 X150.101 Y87.27 E43.42791
G1 X152.728 Y92.522 E43.62322
G1 X153.158 Y94.095 E43.67746
G1 X153.158 Y134.13 E45.00903
G1 X152.854 Y135.705 E45.06238
G1 X149.735 Y141.852 E45.29164
G1 X146.712 Y146.516 E45.4765
G1 X142.777 Y151.349 E45.68379
G1 X138.383 Y155.659 E45.88851
G1 X134.196 Y158.985 E46.06636
G1 X128.513 Y162.57 E46.28984
G1 X127.478 Y163.074 E46.32813
G1 X127.478 Y174.586 E46.71102
G1 X127.083 Y176.193 E46.76606
G1 X126.19 Y177.914 E46.83055
G1 X124.875 Y179.142 E46.89039
G1 X123.159 Y180.166 E46.95686
G1 X121.662 Y180.412 E47.00731
G1 X82.524 Y180.472 E48.30905
G1 X80.917 Y180.077 E48.36409
G1 X79.196 Y179.184 E48.42858
G1 X77.968 Y177.869 E48.48842
G1 X76.944 Y176.153 E48.55489
G1 X76.698 Y174.656 E48.60534
G1 X76.644 Y163.073 E48.9906
G1 X75.434 Y162.474 E49.03551
G1 X69.903 Y158.973 E49.25322
G1 X65.741 Y155.666 E49.43003
G1 X60.999 Y150.978 E49.65181
G1 X57.591 Y146.768 E49.83197
G1 X54.014 Y141.208 E50.05186
G1 X51.388 Y135.958 E50.2471
G1 X50.958 Y134.385 E50.30134
G1 X50.958 Y94.35 E51.63291
G1 X51.262 Y92.775 E51.68626
G1 X54.381 Y86.631 E51.91543
G1 X57.404 Y81.967 E52.10029
G1 X61.369 Y77.098 E52.30914
G1 X65.784 Y72.777 E52.51461
G1 X70.368 Y69.175 E52.70851
G1 X75.604 Y65.91 E52.91374
G1 X76.638 Y65.407 E52.95199
G1 X76.638 Y53.894 E53.33491
G1 X77.033 Y52.287 E53.38995
G1 X77.926 Y50.566 E53.45444
G0 F6000 X78.249 Y50.811
G1 F1200 X79.483 Y49.659 E53.51059
G1 X81.095 Y48.697 E53.57303
G1 X82.519 Y48.463 E53.62102
G1 X121.546 Y48.408 E54.91907
G1 X123.056 Y48.779 E54.97078
G1 X124.675 Y49.619 E55.03145
G1 X125.827 Y50.853 E55.0876
G1 X126.789 Y52.465 E55.15003
G1 X127.023 Y53.889 E55.19803
G1 X127.073 Y65.657 E55.58944
G1 X128.466 Y66.343 E55.64109
G1 X133.964 Y69.82 E55.85745
G1 X138.126 Y73.127 E56.03426
G1 X142.806 Y77.755 E56.25317
G1 X146.214 Y81.964 E56.4333
G1 X149.743 Y87.449 E56.65023
G1 X152.353 Y92.667 E56.84428
G1 X152.758 Y94.149 E56.89538
G1 X152.758 Y134.09 E58.22382
G1 X152.472 Y135.574 E58.27409
G1 X149.399 Y141.634 E58.50008
G1 X146.376 Y146.298 E58.68494
G1 X142.497 Y151.063 E58.88929
G1 X138.103 Y155.373 E59.09401
G1 X133.947 Y158.672 E59.27049
G1 X128.338 Y162.21 E59.49106
G1 X127.078 Y162.823 E59.53767
G1 X127.078 Y174.54 E59.92737
G1 X126.707 Y176.05 E59.97909
G1 X125.867 Y177.669 E60.03976
G1 X124.633 Y178.821 E60.0959
G1 X123.021 Y179.783 E60.15834
G1 X121.597 Y180.017 E60.20634
G1 X82.57 Y180.072 E61.50438
G1 X81.06 Y179.701 E61.5561
G1 X79.441 Y178.861 E61.61676
G1 X78.289 Y177.627 E61.67291
G1 X77.327 Y176.015 E61.73535
G1 X77.093 Y174.591 E61.78335
G1 X77.043 Y162.823 E62.17476
G1 X75.648 Y162.136 E62.22647
G1 X70.152 Y158.66 E62.44276
G1 X65.99 Y155.353 E62.61957
G1 X61.31 Y150.726 E62.83846
G1 X57.902 Y146.516 E63.01861
G1 X54.372 Y141.029 E63.23562
G1 X51.763 Y135.813 E63.42959
G1 X51.358 Y134.331 E63.48069
G1 X51.358 Y94.39 E64.80914
G1 X51.644 Y92.906 E64.8594
G1 X54.717 Y86.849 E65.0853
G1 X57.74 Y82.185 E65.27016
G1 X61.649 Y77.384 E65.47608
G1 X66.031 Y73.092 E65.68009
G1 X70.615 Y69.49 E65.87399
G1 X75.779 Y66.27 E66.0764
G1 X77.038 Y65.657 E66.12298
G1 X77.038 Y53.94 E66.51269
G1 X77.409 Y52.43 E66.5644
G1 X78.249 Y50.811 E66.62507
G0 F6000 X78.572 Y51.056
G1 F1200 X79.725 Y49.98 E66.67752
G1 X81.233 Y49.08 E66.73593
G1 X82.584 Y48.858 E66.78147
G1 X121.499 Y48.808 E68.07579
G1 X122.914 Y49.156 E68.12425
G1 X124.43 Y49.942 E68.18105
G1 X125.506 Y51.095 E68.2335
G1 X126.406 Y52.603 E68.29191
G1 X126.628 Y53.954 E68.33745
G1 X126.674 Y65.906 E68.73498
G1 X128.252 Y66.681 E68.79345
G1 X133.715 Y70.133 E69.00839
G1 X137.877 Y73.44 E69.18519
G1 X142.495 Y78.007 E69.40121
G1 X145.903 Y82.216 E69.58134
G1 X149.385 Y87.628 E69.79538
G1 X151.977 Y92.811 E69.98813
G1 X152.358 Y94.204 E70.03616
G1 X152.358 Y134.05 E71.36144
G1 X152.09 Y135.443 E71.40862
G1 X149.063 Y141.416 E71.63134
G1 X146.04 Y146.08 E71.8162
G1 X142.217 Y150.778 E72.01766
G1 X137.854 Y155.06 E72.22098
G1 X133.698 Y158.359 E72.39747
G1 X128.163 Y161.85 E72.61512
G1 X126.678 Y162.573 E72.67005
G1 X126.678 Y174.493 E73.06651
G1 X126.33 Y175.908 E73.11498
G1 X125.544 Y177.424 E73.17178
G1 X124.391 Y178.5 E73.22423
G1 X122.883 Y179.4 E73.28264
G1 X121.532 Y179.622 E73.32818
G1 X82.617 Y179.672 E74.6225
G1 X81.202 Y179.324 E74.67096
G1 X79.686 Y178.538 E74.72776
G1 X78.61 Y177.385 E74.78021
G1 X77.71 Y175.877 E74.83862
G1 X77.488 Y174.526 E74.88416
G1 X77.442 Y162.574 E75.28169
G1 X75.862 Y161.798 E75.34023
G1 X70.401 Y158.347 E75.5551
G1 X66.239 Y155.04 E75.7319
G1 X61.621 Y150.474 E75.9479
G1 X58.213 Y146.264 E76.12805
G1 X54.73 Y140.85 E76.34217
G1 X52.139 Y135.669 E76.53484
G1 X51.758 Y134.276 E76.58287
G1 X51.758 Y94.43 E77.90815
G1 X52.026 Y93.037 E77.95533
G1 X55.053 Y87.067 E78.17796
G1 X58.076 Y82.403 E78.36282
G1 X61.929 Y77.67 E78.56581
G1 X66.278 Y73.407 E78.76836
G1 X70.862 Y69.805 E78.96226
G1 X75.954 Y66.63 E79.16185
G1 X77.438 Y65.908 E79.21674
G1 X77.438 Y53.987 E79.61323
G1 X77.786 Y52.572 E79.6617
G1 X78.572 Y51.056 E79.7185
G0 F6000 X78.895 Y51.301
G1 F1200 X79.967 Y50.301 E79.76725
G1 X81.371 Y49.463 E79.82164
G1 X82.649 Y49.253 E79.86471
G1 X121.453 Y49.208 E81.15534
G1 X122.771 Y49.532 E81.20048
G1 X124.185 Y50.265 E81.25346
G1 X125.185 Y51.337 E81.30222
G1 X126.023 Y52.741 E81.3566
G1 X126.233 Y54.019 E81.39968
G1 X126.275 Y66.156 E81.80336
G1 X128.038 Y67.019 E81.86864
G1 X133.466 Y70.446 E82.08215
G1 X137.628 Y73.753 E82.25896
G1 X142.184 Y78.259 E82.47208
G1 X145.592 Y82.468 E82.65221
G1 X149.027 Y87.807 E82.86336
G1 X151.602 Y92.956 E83.05484
G1 X151.958 Y94.258 E83.09974
G1 X151.958 Y134.011 E84.42193
G1 X151.708 Y135.312 E84.46599
G1 X148.727 Y141.198 E84.68544
G1 X145.704 Y145.862 E84.8703
G1 X141.937 Y150.493 E85.06885
G1 X137.605 Y154.747 E85.27078
G1 X133.449 Y158.046 E85.44727
G1 X127.988 Y161.49 E85.66201
G1 X126.278 Y162.322 E85.72526
G1 X126.278 Y174.447 E86.12853
G1 X125.954 Y175.765 E86.17368
G1 X125.221 Y177.179 E86.22665
G1 X124.149 Y178.179 E86.27541
G1 X122.745 Y179.017 E86.32979
G1 X121.467 Y179.227 E86.37287
G1 X82.663 Y179.272 E87.6635
G1 X81.345 Y178.948 E87.70864
G1 X79.931 Y178.215 E87.76161
G1 X78.931 Y177.143 E87.81037
G1 X78.093 Y175.739 E87.86475
G1 X77.883 Y174.461 E87.90783
G1 X77.841 Y162.324 E88.31151
G1 X76.076 Y161.46 E88.37687
G1 X70.65 Y158.034 E88.5903
G1 X66.488 Y154.727 E88.76711
G1 X61.932 Y150.222 E88.98021
G1 X58.524 Y146.012 E89.16037
G1 X55.088 Y140.671 E89.3716
G1 X52.514 Y135.524 E89.563
G1 X52.158 Y134.222 E89.60789
G1 X52.158 Y94.469 E90.93008
G1 X52.408 Y93.168 E90.97415
G1 X55.389 Y87.285 E91.1935
G1 X58.412 Y82.621 E91.37836
G1 X62.209 Y77.956 E91.57842
G1 X66.525 Y73.722 E91.77951
G1 X71.109 Y70.12 E91.97342
G1 X76.129 Y66.99 E92.17018
G1 X77.838 Y66.158 E92.2334
G1 X77.838 Y54.033 E92.63668
G1 X78.162 Y52.715 E92.68182
G1 X78.895 Y51.301 E92.73479
G0 F6000 X79.217 Y51.548
G1 F1200 X80.212 Y50.62 E92.78004
G1 X81.509 Y49.846 E92.83028
G1 X82.714 Y49.648 E92.8709
G1 X121.407 Y49.608 E94.15783
G1 X122.628 Y49.908 E94.19965
G1 X123.938 Y50.587 E94.24873
G1 X124.866 Y51.582 E94.29398
G1 X125.64 Y52.879 E94.34422
G1 X125.838 Y54.084 E94.38483
G1 X125.876 Y66.406 E94.79466
G1 X127.825 Y67.357 E94.86679
G1 X133.217 Y70.759 E95.07884
G1 X137.379 Y74.066 E95.25565
G1 X141.873 Y78.511 E95.46589
G1 X145.281 Y82.72 E95.64601
G1 X148.669 Y87.986 E95.85428
G1 X151.227 Y93.101 E96.04449
G1 X151.558 Y94.312 E96.08625
G1 X151.558 Y133.972 E97.40535
G1 X151.326 Y135.181 E97.44629
G1 X148.391 Y140.98 E97.66246
G1 X145.368 Y145.644 E97.84732
G1 X141.627 Y150.24 E98.04442
G1 X137.356 Y154.434 E98.24352
G1 X133.2 Y157.733 E98.42
G1 X127.813 Y161.13 E98.63182
G1 X125.878 Y162.072 E98.7034
G1 X125.878 Y174.401 E99.11347
G1 X125.578 Y175.622 E99.15529
G1 X124.899 Y176.932 E99.20436
G1 X123.904 Y177.86 E99.24961
G1 X122.607 Y178.634 E99.29985
G1 X121.402 Y178.832 E99.34047
G1 X82.709 Y178.872 E100.6274
G1 X81.488 Y178.572 E100.66922
G1 X80.178 Y177.893 E100.7183
G1 X79.25 Y176.898 E100.76355
G1 X78.476 Y175.601 E100.81379
G1 X78.278 Y174.396 E100.8544
G1 X78.24 Y162.074 E101.26423
G1 X76.289 Y161.122 E101.33644
G1 X70.899 Y157.721 E101.54841
G1 X66.737 Y154.414 E101.72522
G1 X62.243 Y149.97 E101.93543
G1 X58.835 Y145.76 E102.11559
G1 X55.446 Y140.492 E102.32393
G1 X52.889 Y135.379 E102.51407
G1 X52.558 Y134.168 E102.55582
G1 X52.558 Y94.508 E103.87492
G1 X52.79 Y93.299 E103.91586
G1 X55.725 Y87.503 E104.13195
G1 X58.748 Y82.839 E104.31681
G1 X62.489 Y78.241 E104.51396
G1 X66.772 Y74.037 E104.71357
G1 X71.356 Y70.435 E104.90747
G1 X76.304 Y67.35 E105.10141
G1 X78.238 Y66.409 E105.17295
G1 X78.238 Y54.079 E105.58304
G1 X78.538 Y52.858 E105.62486
G1 X79.217 Y51.548 E105.67394
G0 F6000 X79.539 Y51.795
G1 F1200 X80.454 Y50.942 E105.71554
G1 X81.649 Y50.229 E105.76183
G1 X82.779 Y50.043 E105.79992
G1 X121.361 Y50.008 E107.08316
G1 X122.485 Y50.284 E107.12165
G1 X123.691 Y50.909 E107.16683
G1 X124.544 Y51.824 E107.20844
G1 X125.257 Y53.019 E107.25472
G1 X125.443 Y54.149 E107.29281
G1 X125.477 Y66.657 E107.70883
G1 X127.65 Y67.717 E107.78924
G1 X132.968 Y71.072 E107.99838
G1 X137.13 Y74.379 E108.17519
G1 X141.562 Y78.763 E108.38253
G1 X144.97 Y82.972 E108.56266
G1 X148.311 Y88.165 E108.76803
G1 X150.852 Y93.246 E108.95698
